vendor/NativeMatch/NativeMatch.ofx.bundle/Contents/Resources/Cubes/Fashion_Filter_1.cube
LUT_3D_SIZE 5
0.049695 0.040782 0.021329
0.183740 0.048879 0.012663
0.291284 0.080473 0.030554
0.461108 0.113204 0.031220
0.616226 0.164938 0.033082
0.066649 0.193500 0.041714
0.269941 0.180102 0.038528
0.459185 0.218319 0.068853
0.631549 0.276421 0.091715
0.770994 0.346820 0.111366
0.142241 0.398900 0.099630
0.389894 0.399652 0.119668
0.580774 0.441684 0.174834
0.755956 0.490646 0.212222
0.884681 0.547453 0.253497
0.237429 0.643316 0.195502
0.522647 0.632998 0.232602
0.721626 0.643656 0.301529
0.855679 0.677185 0.376708
0.967414 0.713915 0.431982
0.377502 0.826764 0.344907
0.638197 0.812495 0.393743
0.829439 0.808616 0.457883
0.943269 0.823208 0.535535
0.982106 0.850754 0.601264
0.043737 0.055971 0.167803
0.152980 0.061289 0.140535
0.294153 0.092898 0.117808
0.471687 0.128929 0.118915
0.618773 0.189832 0.127195
0.037075 0.233463 0.193551
0.229845 0.211974 0.182629
0.495189 0.234949 0.158234
0.619305 0.315412 0.214577
0.754934 0.391676 0.237671
0.116723 0.451016 0.236728
0.295550 0.498603 0.221664
0.590271 0.485546 0.239756
0.742683 0.535886 0.329466
0.859175 0.596102 0.385345
0.188262 0.697926 0.350299
0.451237 0.695165 0.375299
0.699714 0.689004 0.407923
0.820967 0.725830 0.496278
0.938863 0.760618 0.540678
0.312275 0.876295 0.485870
0.570812 0.865485 0.515580
0.784935 0.857065 0.554296
0.913056 0.866912 0.619904
0.974467 0.890894 0.682650
0.039386 0.071416 0.252336
0.118640 0.086005 0.280247
0.269526 0.110491 0.294158
0.452531 0.149335 0.302773
0.615246 0.210797 0.308522
0.019227 0.255534 0.440157
0.161095 0.251601 0.502059
0.441926 0.264106 0.441774
0.617425 0.341551 0.402569
0.757757 0.418388 0.410571
0.100287 0.487800 0.438978
0.214621 0.555593 0.511062
0.542114 0.524526 0.490899
0.765709 0.553701 0.467601
0.848146 0.628982 0.535372
0.181055 0.726645 0.525224
0.405865 0.737678 0.557474
0.615545 0.764977 0.536907
0.826901 0.756491 0.562314
0.929312 0.791643 0.642165
0.284527 0.907483 0.633274
0.516965 0.905465 0.658820
0.730205 0.901247 0.677620
0.894152 0.899204 0.706736
0.967950 0.921663 0.769974
0.031064 0.090878 0.465972
0.089585 0.106608 0.500818
0.232055 0.134220 0.517063
0.417568 0.177033 0.526567
0.588967 0.240812 0.531859
-0.015507 0.356364 0.855157
0.162869 0.289848 0.601808
0.379811 0.322062 0.612802
0.589085 0.377502 0.615871
0.739494 0.449840 0.619547
0.069435 0.532926 0.646783
0.186657 0.580751 0.742861
0.458681 0.569298 0.778280
0.725059 0.581573 0.728152
0.845621 0.650233 0.697279
0.152984 0.757718 0.715671
0.387822 0.763812 0.729947
0.538279 0.806491 0.778919
0.792332 0.783334 0.762809
0.943541 0.804141 0.746445
0.279177 0.926246 0.782192
0.511666 0.924331 0.789881
0.698239 0.929035 0.811586
0.839570 0.947298 0.801425
0.963953 0.941523 0.818424
0.021860 0.116434 0.681468
0.057241 0.134018 0.712661
0.186875 0.166535 0.724436
0.369704 0.214183 0.728964
0.549506 0.279754 0.729333
-0.021809 0.383357 0.953807
0.118293 0.342101 0.788249
0.327526 0.369923 0.797103
0.548572 0.421685 0.795682
0.710695 0.488519 0.795091
-0.033812 0.632952 0.915806
0.005277 0.683830 1.043274
0.465345 0.606184 0.849166
0.677502 0.632994 0.851914
0.825238 0.678297 0.853174
0.115344 0.793100 0.874024
0.347577 0.796360 0.882149
0.512343 0.824592 0.942555
0.734860 0.814673 0.962780
0.916819 0.823420 0.929224
0.247513 0.949796 0.922788
0.485757 0.944914 0.924188
0.685772 0.945858 0.930729
0.791357 0.967206 0.961471
0.958386 0.956582 0.950847
