vendor/NativeMatch/NativeMatch.ofx.bundle/Contents/Resources/Cubes/Fashion_Filter_1.cube
LUT_3D_SIZE 9
0.049695 0.040782 0.021329
0.120469 0.040854 0.016175
0.183740 0.048879 0.012663
0.232910 0.064051 0.022129
0.291284 0.080473 0.030554
0.375796 0.095155 0.030969
0.461108 0.113204 0.031220
0.542630 0.136075 0.031982
0.616226 0.164938 0.033082
0.048227 0.113218 0.026145
0.132800 0.099891 0.023456
0.235946 0.099973 0.020099
0.318880 0.112761 0.028089
0.367704 0.138645 0.050679
0.461438 0.159132 0.053205
0.552153 0.184086 0.055349
0.631552 0.214229 0.059384
0.699375 0.249400 0.063693
0.066649 0.193500 0.041714
0.155694 0.185948 0.037504
0.269941 0.180102 0.038528
0.384915 0.190507 0.044850
0.459185 0.218319 0.068853
0.542945 0.247600 0.084861
0.631549 0.276421 0.091715
0.706417 0.309654 0.101028
0.770994 0.346820 0.111366
0.112887 0.273258 0.072661
0.202590 0.284812 0.065344
0.320718 0.286738 0.070191
0.426829 0.300673 0.086572
0.517289 0.326579 0.116946
0.613584 0.352950 0.131823
0.698362 0.381894 0.144553
0.770557 0.414278 0.159301
0.832116 0.449504 0.175320
0.142241 0.398900 0.099630
0.258066 0.398813 0.107062
0.389894 0.399652 0.119668
0.490608 0.416158 0.147124
0.580774 0.441684 0.174834
0.673124 0.465365 0.194261
0.755956 0.490646 0.212222
0.825811 0.518461 0.231994
0.884681 0.547453 0.253497
0.183084 0.528498 0.139889
0.312429 0.526688 0.153214
0.461790 0.521361 0.166475
0.570158 0.531152 0.196923
0.655916 0.546983 0.232509
0.731106 0.569485 0.266346
0.806481 0.590204 0.292686
0.874044 0.611320 0.316209
0.929927 0.634712 0.341362
0.237429 0.643316 0.195502
0.375608 0.639047 0.213648
0.522647 0.632998 0.232602
0.639000 0.633344 0.261393
0.721626 0.643656 0.301529
0.793376 0.657241 0.341134
0.855679 0.677185 0.376708
0.915375 0.695443 0.405952
0.967414 0.713915 0.431982
0.303171 0.741905 0.265125
0.444630 0.735726 0.286289
0.581403 0.729285 0.310072
0.699660 0.724179 0.337492
0.779801 0.731009 0.377887
0.846988 0.739586 0.419506
0.904793 0.752278 0.457211
0.953587 0.769458 0.490470
0.993174 0.785702 0.518847
0.377502 0.826764 0.344907
0.514767 0.819172 0.367539
0.638197 0.812495 0.393743
0.748112 0.806648 0.422063
0.829439 0.808616 0.457883
0.890383 0.816070 0.497498
0.943269 0.823208 0.535535
0.985226 0.834165 0.569030
0.982106 0.850754 0.601264
0.046828 0.048065 0.091959
0.105117 0.045534 0.078269
0.178470 0.052335 0.061704
0.240308 0.067355 0.057821
0.295776 0.086589 0.064555
0.379552 0.102620 0.065894
0.463330 0.122716 0.067207
0.543076 0.147963 0.069504
0.614596 0.179440 0.071954
0.036720 0.122185 0.091469
0.120673 0.106656 0.082266
0.229734 0.106720 0.067371
0.326834 0.118305 0.065143
0.390986 0.143400 0.079856
0.459374 0.172396 0.095413
0.548468 0.199587 0.100063
0.626483 0.231902 0.105511
0.693028 0.269204 0.113002
0.048557 0.220925 0.091345
0.124125 0.217867 0.079779
0.251940 0.200349 0.078880
0.392707 0.202950 0.076178
0.487369 0.226168 0.092789
0.536661 0.266788 0.135854
0.622740 0.297952 0.146065
0.696858 0.332812 0.156438
0.760753 0.371256 0.168534
0.084269 0.316875 0.117664
0.155606 0.335488 0.105004
0.308903 0.318454 0.092450
0.431799 0.321716 0.110475
0.551080 0.337003 0.129503
0.617269 0.372281 0.175053
0.685529 0.407783 0.205277
0.757679 0.441023 0.220153
0.819240 0.476725 0.236971
0.124773 0.429071 0.159490
0.231081 0.432168 0.166573
0.363983 0.439909 0.152655
0.493155 0.444016 0.167242
0.586990 0.463280 0.204229
0.661363 0.491539 0.252526
0.740234 0.518342 0.276167
0.810803 0.545122 0.295371
0.870330 0.573662 0.316130
0.160496 0.560170 0.205553
0.281449 0.560499 0.217608
0.427529 0.556226 0.227490
0.561174 0.555357 0.246736
0.641765 0.572873 0.289447
0.712274 0.596489 0.330131
0.789061 0.616614 0.356304
0.857713 0.637555 0.378376
0.914513 0.660507 0.401032
0.209745 0.673007 0.265100
0.341407 0.670373 0.280907
0.487102 0.665389 0.296742
0.622611 0.659041 0.313994
0.707914 0.668278 0.353982
0.776552 0.683203 0.397031
0.837021 0.703043 0.435508
0.898184 0.720889 0.462412
0.951993 0.738844 0.485172
0.271172 0.770228 0.335002
0.408245 0.765123 0.353419
0.546329 0.759481 0.373123
0.669863 0.753705 0.394720
0.765335 0.754322 0.426042
0.831158 0.764012 0.467442
0.887557 0.776612 0.506192
0.936842 0.793665 0.539268
0.982754 0.809214 0.565297
0.342347 0.853308 0.411875
0.478415 0.846467 0.430945
0.603748 0.840370 0.451958
0.716245 0.834959 0.475169
0.811519 0.831633 0.501802
0.874162 0.838704 0.539747
0.927163 0.846536 0.577128
0.972410 0.856356 0.610521
0.978127 0.872148 0.641143
0.043737 0.055971 0.167803
0.081581 0.055384 0.164036
0.152980 0.061289 0.140535
0.223020 0.075514 0.121655
0.294153 0.092898 0.117808
0.383044 0.108656 0.118801
0.471687 0.128929 0.118915
0.549731 0.156203 0.122416
0.618773 0.189832 0.127195
0.032616 0.130184 0.205056
0.094219 0.117932 0.207998
0.204537 0.113186 0.179612
0.318705 0.123836 0.148607
0.399437 0.149051 0.142294
0.463333 0.182732 0.155574
0.550905 0.211824 0.161560
0.626816 0.246168 0.168689
0.691646 0.285274 0.176917
0.037075 0.233463 0.193551
0.099555 0.236205 0.200173
0.229845 0.211974 0.182629
0.384076 0.213610 0.158463
0.495189 0.234949 0.158234
0.558696 0.274245 0.186196
0.619305 0.315412 0.214577
0.692109 0.351895 0.225471
0.754934 0.391676 0.237671
0.071540 0.341572 0.195614
0.117518 0.375528 0.200518
0.246956 0.366255 0.173211
0.408962 0.347158 0.180618
0.557552 0.352610 0.182792
0.640433 0.381982 0.213546
0.678880 0.428916 0.275833
0.749009 0.463372 0.292117
0.810206 0.499221 0.308040
0.116723 0.451016 0.236728
0.181276 0.483234 0.244085
0.295550 0.498603 0.221664
0.482925 0.476321 0.200989
0.590271 0.485546 0.239756
0.688710 0.502117 0.270840
0.742683 0.535886 0.329466
0.799482 0.567612 0.366634
0.859175 0.596102 0.385345
0.144885 0.584715 0.289664
0.253430 0.589691 0.303748
0.392019 0.588469 0.309434
0.536127 0.591686 0.290907
0.644280 0.596255 0.314564
0.717249 0.614601 0.364604
0.778889 0.638083 0.419232
0.844348 0.660115 0.444866
0.901897 0.682801 0.464397
0.188262 0.697926 0.350299
0.310734 0.698043 0.363885
0.451237 0.695165 0.375299
0.589830 0.689826 0.385761
0.699714 0.689004 0.407923
0.764113 0.705038 0.454831
0.820967 0.725830 0.496278
0.883723 0.743039 0.520831
0.938863 0.760618 0.540678
0.244681 0.794644 0.416876
0.375296 0.791338 0.430748
0.512319 0.786982 0.445663
0.637442 0.782105 0.461002
0.750422 0.776356 0.477518
0.818855 0.785131 0.516001
0.873047 0.798446 0.556227
0.921636 0.815254 0.590305
0.969424 0.829988 0.613938
0.312275 0.876295 0.485870
0.444755 0.870717 0.499753
0.570812 0.865485 0.515580
0.684293 0.860975 0.533994
0.784935 0.857065 0.554296
0.860503 0.858664 0.583100
0.913056 0.866912 0.619904
0.958658 0.876364 0.653361
0.974467 0.890894 0.682650
0.041611 0.063427 0.209578
0.068740 0.066248 0.229510
0.131305 0.074090 0.215571
0.199578 0.088384 0.192631
0.283685 0.101177 0.196781
0.374123 0.117375 0.199798
0.464605 0.138145 0.201862
0.549584 0.165001 0.203644
0.622664 0.198817 0.205542
0.025878 0.145463 0.380478
0.076924 0.130402 0.327981
0.166975 0.128165 0.315782
0.280661 0.137843 0.277524
0.376949 0.162074 0.247885
0.460325 0.193050 0.242766
0.552914 0.221785 0.245670
0.632622 0.255900 0.248390
0.695489 0.296722 0.256567
0.033221 0.238902 0.309600
0.076804 0.250702 0.365535
0.187501 0.230756 0.365110
0.351539 0.223906 0.326775
0.484964 0.243031 0.286299
0.565727 0.282093 0.278770
0.621383 0.328375 0.297896
0.692693 0.366192 0.307905
0.753949 0.407308 0.319008
0.064759 0.353672 0.307858
0.100640 0.390690 0.345554
0.200249 0.392284 0.351993
0.381184 0.361796 0.328849
0.547903 0.365012 0.300081
0.645700 0.392459 0.302590
0.696207 0.437275 0.339031
0.745073 0.481024 0.373793
0.805378 0.517288 0.387310
0.112506 0.467848 0.329165
0.162306 0.509488 0.348293
0.236871 0.541274 0.354200
0.407637 0.528187 0.314887
0.568564 0.510406 0.329971
0.693119 0.517254 0.336514
0.761868 0.544573 0.374171
0.793485 0.585424 0.441953
0.851611 0.614459 0.459352
0.142510 0.600332 0.377646
0.241900 0.609097 0.397860
0.330243 0.634292 0.405056
0.463590 0.643752 0.377658
0.636734 0.622884 0.353671
0.719630 0.632932 0.404237
0.801508 0.646783 0.438726
0.846207 0.674863 0.495736
0.892403 0.701649 0.529832
0.180729 0.714805 0.437179
0.290287 0.719417 0.456857
0.418904 0.720916 0.468744
0.555923 0.718095 0.472454
0.677943 0.720027 0.453902
0.766496 0.724637 0.478632
0.825051 0.741029 0.527435
0.875331 0.760885 0.576060
0.927949 0.779547 0.598221
0.229827 0.812785 0.499761
0.349230 0.813049 0.515436
0.480942 0.811043 0.525583
0.605685 0.807796 0.535150
0.721206 0.802990 0.543963
0.810995 0.802788 0.564403
0.862178 0.816997 0.607013
0.908518 0.833944 0.643034
0.958168 0.848059 0.664272
0.290066 0.895233 0.562678
0.415825 0.891426 0.574104
0.540935 0.887423 0.585014
0.654086 0.883978 0.598248
0.756745 0.880591 0.613151
0.846685 0.877356 0.629539
0.901847 0.884580 0.663320
0.946942 0.894034 0.696920
0.971050 0.907542 0.725775
0.039386 0.071416 0.252336
0.064705 0.077315 0.269871
0.118640 0.086005 0.280247
0.186119 0.097150 0.288242
0.269526 0.110491 0.294158
0.360922 0.127455 0.298777
0.452531 0.149335 0.302773
0.539511 0.176873 0.305962
0.615246 0.210797 0.308522
0.023680 0.149288 0.443650
0.076364 0.142652 0.381818
0.147854 0.145759 0.399407
0.247285 0.158885 0.377035
0.345725 0.183562 0.345339
0.447531 0.206691 0.349276
0.542772 0.235262 0.352614
0.624803 0.269262 0.356100
0.693787 0.308463 0.359268
0.019227 0.255534 0.440157
0.040869 0.277341 0.560356
0.161095 0.251601 0.502059
0.301049 0.247922 0.485943
0.441926 0.264106 0.441774
0.542482 0.299782 0.408100
0.617425 0.341551 0.402569
0.693077 0.378188 0.406511
0.757757 0.418388 0.410571
0.074379 0.353671 0.398313
0.096157 0.397162 0.479439
0.166665 0.410246 0.534032
0.329317 0.384649 0.530252
0.515096 0.376958 0.490621
0.635787 0.401265 0.449209
0.701012 0.445523 0.441962
0.746064 0.493781 0.462317
0.805254 0.530207 0.472872
0.100287 0.487800 0.438978
0.153891 0.521320 0.474460
0.214621 0.555593 0.511062
0.349360 0.554318 0.514701
0.542114 0.524526 0.490899
0.684240 0.528412 0.463975
0.765709 0.553701 0.467601
0.807600 0.592432 0.503205
0.848146 0.628982 0.535372
0.134740 0.615595 0.482053
0.238200 0.623056 0.495188
0.308090 0.656162 0.512780
0.397628 0.680809 0.517565
0.568845 0.667548 0.476813
0.700954 0.653440 0.494356
0.805079 0.659062 0.501783
0.861734 0.682133 0.536269
0.887332 0.716685 0.595401
0.181055 0.726645 0.525224
0.288764 0.732293 0.541121
0.405865 0.737678 0.557474
0.497567 0.757664 0.562752
0.615545 0.764977 0.536907
0.760521 0.746856 0.514279
0.826901 0.756491 0.562314
0.893665 0.768221 0.592705
0.929312 0.791643 0.642165
0.227841 0.825193 0.578059
0.341296 0.827100 0.593112
0.460039 0.829170 0.608406
0.576823 0.829758 0.617783
0.690987 0.827280 0.620708
0.791834 0.829127 0.605524
0.862981 0.833506 0.628446
0.911474 0.846566 0.670147
0.951552 0.862530 0.711478
0.284527 0.907483 0.633274
0.400410 0.906507 0.646329
0.516965 0.905465 0.658820
0.627512 0.903554 0.668082
0.730205 0.901247 0.677620
0.822794 0.898497 0.687698
0.894152 0.899204 0.706736
0.937562 0.909040 0.741033
0.967950 0.921663 0.769974
0.035407 0.080679 0.354699
0.052325 0.086290 0.375719
0.104854 0.095646 0.387607
0.169983 0.107375 0.396396
0.252144 0.121600 0.403552
0.343913 0.139049 0.409249
0.436715 0.161750 0.413696
0.525242 0.190280 0.417462
0.603925 0.224455 0.420642
0.020633 0.158427 0.511517
0.076791 0.155267 0.431945
0.141852 0.164227 0.445503
0.227750 0.179375 0.452715
0.327594 0.198710 0.457676
0.430258 0.222523 0.461787
0.528298 0.250955 0.465421
0.612763 0.284904 0.468558
0.684052 0.323569 0.471482
-0.005430 0.313854 0.694048
0.049279 0.283364 0.618207
0.161147 0.270638 0.555521
0.273743 0.275327 0.568789
0.402667 0.293982 0.543801
0.510024 0.327678 0.510697
0.605147 0.358313 0.513321
0.683496 0.393896 0.516232
0.750245 0.433018 0.519152
0.061718 0.374844 0.506397
0.078233 0.417692 0.606254
0.113823 0.442268 0.709139
0.295817 0.410313 0.654421
0.462558 0.405499 0.637117
0.597944 0.424810 0.596812
0.680837 0.464316 0.565878
0.742193 0.506863 0.560483
0.805192 0.541033 0.564050
0.085603 0.509852 0.547136
0.170881 0.520880 0.562628
0.210495 0.561557 0.633088
0.310042 0.571228 0.677519
0.492342 0.545892 0.671553
0.656607 0.539206 0.636916
0.757096 0.561339 0.601198
0.811511 0.599364 0.595037
0.848896 0.639520 0.612637
0.120636 0.633561 0.586112
0.223459 0.640095 0.597126
0.299467 0.665983 0.626283
0.374557 0.692861 0.656277
0.514484 0.690188 0.657854
0.678267 0.664994 0.637233
0.797491 0.668310 0.614062
0.864796 0.689747 0.617415
0.898737 0.722549 0.648267
0.168617 0.741491 0.624287
0.280944 0.745306 0.632981
0.402900 0.749357 0.642076
0.476311 0.776309 0.656445
0.558104 0.796542 0.660212
0.701633 0.785194 0.624285
0.811149 0.773628 0.640328
0.896444 0.778578 0.647153
0.941356 0.797777 0.677126
0.225594 0.835592 0.662205
0.342995 0.836812 0.668856
0.458998 0.839895 0.681101
0.565200 0.843590 0.694748
0.641226 0.860107 0.699384
0.739343 0.866174 0.678250
0.856227 0.852698 0.661190
0.912874 0.859037 0.700243
0.965251 0.868591 0.725868
0.285409 0.916782 0.704610
0.399124 0.916371 0.713699
0.509970 0.916629 0.725672
0.610274 0.917972 0.738747
0.707135 0.918430 0.747636
0.799750 0.917064 0.752393
0.878740 0.919898 0.742210
0.937235 0.922410 0.760387
0.965947 0.931830 0.793170
0.031064 0.090878 0.465972
0.038681 0.096395 0.489637
0.089585 0.106608 0.500818
0.152596 0.118806 0.510012
0.232055 0.134220 0.517063
0.323329 0.153347 0.522327
0.417568 0.177033 0.526567
0.507542 0.206311 0.529798
0.588967 0.240812 0.531859
0.017110 0.171001 0.579627
0.061623 0.172592 0.543018
0.123692 0.180505 0.557698
0.207010 0.196820 0.564110
0.306254 0.216522 0.568401
0.409781 0.240489 0.571601
0.509891 0.268858 0.573962
0.597627 0.302535 0.575872
0.671092 0.341020 0.577699
-0.015507 0.356364 0.855157
0.050314 0.297265 0.677015
0.162869 0.289848 0.601808
0.265744 0.301467 0.610224
0.379811 0.322062 0.612802
0.490866 0.347524 0.614346
0.589085 0.377502 0.615871
0.670693 0.411767 0.617750
0.739494 0.449840 0.619547
-0.002752 0.438521 0.701226
-0.005607 0.486959 0.827862
0.128839 0.449091 0.758110
0.297165 0.431749 0.699636
0.432774 0.436631 0.707995
0.562460 0.456820 0.684410
0.653303 0.492400 0.654712
0.731564 0.522698 0.656720
0.797019 0.555027 0.659051
0.069435 0.532926 0.646783
0.154345 0.542285 0.658672
0.186657 0.580751 0.742861
0.244018 0.600685 0.828661
0.458681 0.569298 0.778280
0.612819 0.564617 0.762618
0.725059 0.581573 0.728152
0.794553 0.614898 0.701752
0.845621 0.650233 0.697279
0.104653 0.652815 0.681610
0.205443 0.658669 0.691096
0.321474 0.665085 0.701571
0.370996 0.697928 0.761108
0.477223 0.704651 0.797404
0.637084 0.682960 0.791846
0.774381 0.677412 0.762519
0.857548 0.696148 0.732238
0.901796 0.728357 0.727067
0.152984 0.757718 0.715671
0.264930 0.760602 0.722828
0.387822 0.763812 0.729947
0.468467 0.784440 0.753810
0.538279 0.806491 0.778919
0.654991 0.804202 0.780182
0.792332 0.783334 0.762809
0.890140 0.786095 0.743333
0.943541 0.804141 0.746445
0.211941 0.848864 0.749172
0.329908 0.849311 0.754010
0.451939 0.850457 0.759705
0.562708 0.853200 0.766989
0.623626 0.875186 0.779131
0.691915 0.891580 0.782440
0.809462 0.883066 0.754788
0.900226 0.872931 0.766464
0.967141 0.876881 0.772031
0.279177 0.926246 0.782192
0.397559 0.924614 0.785193
0.511666 0.924331 0.789881
0.609452 0.926496 0.800107
0.698239 0.929035 0.811586
0.761485 0.941852 0.816185
0.839570 0.947298 0.801425
0.930062 0.938226 0.789742
0.963953 0.941523 0.818424
0.026482 0.102671 0.578036
0.024964 0.109491 0.600142
0.073882 0.118978 0.611333
0.133556 0.132909 0.619330
0.210747 0.149219 0.625259
0.300376 0.169428 0.629426
0.394981 0.194159 0.632286
0.487089 0.223964 0.633927
0.570821 0.259019 0.634864
0.013406 0.185371 0.645293
0.045360 0.192323 0.647629
0.105240 0.199227 0.662003
0.184067 0.216470 0.667245
0.282255 0.236390 0.670503
0.386420 0.260741 0.672397
0.488164 0.289355 0.673442
0.579715 0.322432 0.674209
0.655568 0.360462 0.675039
-0.018473 0.367836 0.907940
0.047902 0.315207 0.734581
0.141068 0.314952 0.699172
0.240872 0.324924 0.707599
0.354943 0.344948 0.709136
0.468777 0.369450 0.709571
0.570211 0.398674 0.709967
0.654773 0.431875 0.710705
0.726232 0.468621 0.711441
-0.039480 0.521125 0.910805
-0.042481 0.532884 0.963450
0.132622 0.464453 0.807800
0.300700 0.453214 0.738535
0.424376 0.464568 0.742963
0.541348 0.486039 0.743040
0.637048 0.512066 0.743570
0.717880 0.540198 0.744690
0.786246 0.570491 0.746183
0.052491 0.557433 0.738031
0.061457 0.602590 0.827532
0.064104 0.643723 0.932953
0.265419 0.606005 0.869238
0.460856 0.587912 0.816494
0.587645 0.591435 0.822568
0.695251 0.608676 0.802657
0.771668 0.638265 0.777659
0.836699 0.663498 0.779356
0.086561 0.673301 0.768948
0.184982 0.678307 0.777091
0.303103 0.682987 0.784134
0.344776 0.714469 0.854176
0.410831 0.730349 0.923874
0.609384 0.702615 0.881036
0.737640 0.698797 0.867918
0.831174 0.713281 0.839256
0.887831 0.741504 0.817095
0.134903 0.774917 0.798957
0.245910 0.777217 0.804604
0.369289 0.779671 0.810008
0.490047 0.783458 0.817434
0.535309 0.810632 0.866615
0.624303 0.816277 0.896314
0.757962 0.798135 0.891537
0.871212 0.793601 0.867459
0.937673 0.809382 0.842517
0.195527 0.862955 0.828142
0.313244 0.862778 0.831489
0.436641 0.863228 0.835496
0.550044 0.865152 0.840776
0.617123 0.881791 0.860456
0.675315 0.899473 0.881021
0.773212 0.897379 0.881805
0.886238 0.880387 0.866485
0.962154 0.882848 0.851906
0.264928 0.937452 0.856650
0.384274 0.935357 0.858108
0.500321 0.934307 0.860946
0.603671 0.934717 0.865485
0.696249 0.936504 0.871331
0.747356 0.953349 0.881179
0.804256 0.965410 0.883905
0.896524 0.959579 0.864960
0.961177 0.951387 0.872341
0.021860 0.116434 0.681468
0.020355 0.123584 0.701390
0.057241 0.134018 0.712661
0.114199 0.148754 0.719466
0.186875 0.166535 0.724436
0.275497 0.188305 0.727487
0.369704 0.214183 0.728964
0.463416 0.244384 0.729498
0.549506 0.279754 0.729333
0.008571 0.204984 0.726648
0.028912 0.214403 0.743329
0.085435 0.222469 0.756143
0.160698 0.238241 0.761719
0.255698 0.259172 0.763923
0.360488 0.283218 0.764664
0.463604 0.311827 0.764608
0.558433 0.344596 0.764225
0.637449 0.381919 0.763749
-0.021809 0.383357 0.953807
0.043519 0.335491 0.789993
0.118293 0.342101 0.788249
0.214648 0.349642 0.796827
0.327526 0.369923 0.797103
0.442822 0.393736 0.796528
0.548572 0.421685 0.795682
0.636101 0.453715 0.795220
0.710695 0.488519 0.795091
-0.054537 0.600500 1.069901
-0.045188 0.544417 1.006124
0.131236 0.483603 0.855974
0.273534 0.480458 0.821588
0.397788 0.489523 0.825748
0.517633 0.508977 0.824798
0.618287 0.532413 0.824257
0.701867 0.559059 0.824389
0.772819 0.587686 0.824933
-0.033812 0.632952 0.915806
-0.037465 0.676843 1.005050
0.005277 0.683830 1.043274
0.272248 0.618939 0.910240
0.465345 0.606184 0.849166
0.580526 0.615087 0.851853
0.677502 0.632994 0.851914
0.757966 0.654481 0.852336
0.825238 0.678297 0.853174
0.067676 0.694521 0.848130
0.162494 0.699120 0.854961
0.182555 0.736511 0.928232
0.191955 0.770922 1.011760
0.433507 0.734553 0.956364
0.611077 0.718497 0.912343
0.716546 0.721541 0.916992
0.806330 0.736134 0.900506
0.869101 0.760966 0.879954
0.115344 0.793100 0.874024
0.224101 0.794748 0.878319
0.347577 0.796360 0.882149
0.472859 0.798719 0.886133
0.512343 0.824592 0.942555
0.569558 0.837542 0.996091
0.734860 0.814673 0.962780
0.841248 0.811479 0.952146
0.916819 0.823420 0.929224
0.176350 0.878102 0.898727
0.293448 0.877328 0.900938
0.417716 0.877033 0.903304
0.534367 0.878000 0.906575
0.634872 0.880986 0.912421
0.672929 0.902808 0.951311
0.747682 0.907187 0.973208
0.857906 0.892484 0.967296
0.947708 0.888854 0.950697
0.247513 0.949796 0.922788
0.367295 0.946708 0.923069
0.485757 0.944914 0.924188
0.591165 0.944716 0.926843
0.685772 0.945858 0.930729
0.742103 0.958273 0.945935
0.791357 0.967206 0.961471
0.871775 0.962091 0.956356
0.958386 0.956582 0.950847
