vendor/NativeMatch/NativeMatch.ofx.bundle/Contents/Resources/Cubes/Fashion_Filter_1.cube
LUT_3D_SIZE 33
0.049695 0.040782 0.021329
0.066889 0.040423 0.020131
0.083962 0.040358 0.018899
0.101953 0.040496 0.017572
0.120469 0.040854 0.016175
0.138196 0.041914 0.014735
0.153846 0.043860 0.013320
0.169450 0.046190 0.011854
0.183740 0.048879 0.012663
0.197896 0.052022 0.014127
0.210730 0.055508 0.016158
0.222136 0.059486 0.018860
0.232910 0.064051 0.022129
0.241826 0.069231 0.026001
0.250905 0.074384 0.029974
0.271129 0.077270 0.030266
0.291284 0.080473 0.030554
0.312414 0.083837 0.030733
0.333114 0.087506 0.030875
0.354518 0.091186 0.030945
0.375796 0.095155 0.030969
0.397242 0.099412 0.031053
0.418669 0.103710 0.031124
0.440091 0.108187 0.031156
0.461108 0.113204 0.031220
0.481948 0.118653 0.031295
0.502522 0.124200 0.031361
0.522732 0.129851 0.031657
0.542630 0.136075 0.031982
0.562235 0.142904 0.032225
0.580766 0.149904 0.032505
0.599038 0.156972 0.032773
0.616226 0.164938 0.033082
0.049119 0.057382 0.022482
0.066835 0.054862 0.021579
0.084926 0.054395 0.019582
0.103955 0.054152 0.017538
0.123891 0.054132 0.015442
0.144942 0.054301 0.013278
0.163397 0.055578 0.012980
0.180780 0.057409 0.013354
0.198164 0.059622 0.014201
0.213912 0.062587 0.015607
0.228949 0.066159 0.017479
0.242742 0.070119 0.020032
0.254738 0.074517 0.023251
0.265347 0.079435 0.027089
0.274216 0.085108 0.032270
0.288422 0.089885 0.035279
0.309829 0.093282 0.035438
0.331210 0.096878 0.035558
0.353275 0.100790 0.035569
0.375104 0.104789 0.035665
0.397355 0.108835 0.035756
0.419465 0.113171 0.035930
0.441209 0.118256 0.036038
0.462930 0.123390 0.036289
0.484306 0.128631 0.036592
0.505424 0.133988 0.036907
0.526237 0.140358 0.037162
0.546625 0.146876 0.037411
0.566478 0.153535 0.037719
0.585534 0.160353 0.038266
0.603996 0.168217 0.038695
0.621208 0.176326 0.039161
0.638235 0.184446 0.039674
0.048694 0.074544 0.023726
0.066741 0.071418 0.023217
0.085682 0.068960 0.022199
0.105685 0.068350 0.020224
0.126921 0.067960 0.018170
0.149537 0.067774 0.016023
0.171865 0.068333 0.014879
0.192054 0.069853 0.015090
0.211419 0.071945 0.015823
0.230245 0.074510 0.017002
0.247036 0.077710 0.018836
0.262988 0.081364 0.021259
0.277011 0.085841 0.024232
0.288909 0.091037 0.028370
0.299290 0.096626 0.033671
0.307622 0.103300 0.039471
0.328254 0.107290 0.040119
0.350835 0.110996 0.040376
0.373426 0.114949 0.040622
0.396272 0.119449 0.040841
0.418752 0.124209 0.041170
0.441282 0.129020 0.041470
0.463670 0.133935 0.041754
0.485484 0.139575 0.041992
0.507413 0.145589 0.042267
0.528639 0.151762 0.042786
0.549563 0.158069 0.043314
0.569834 0.164883 0.043797
0.589148 0.172469 0.044226
0.607823 0.180199 0.044663
0.625612 0.187988 0.045240
0.642942 0.196279 0.046002
0.659391 0.205103 0.046769
0.048294 0.093151 0.024895
0.067071 0.089738 0.024522
0.086834 0.086300 0.024038
0.107291 0.084106 0.022846
0.129867 0.083294 0.020831
0.154036 0.082688 0.018694
0.178694 0.082570 0.017244
0.202205 0.083373 0.017209
0.224365 0.085047 0.017705
0.245324 0.087409 0.018783
0.264779 0.090562 0.020331
0.282481 0.094235 0.022566
0.298361 0.098520 0.025868
0.312190 0.103857 0.030017
0.324023 0.109613 0.035099
0.333698 0.116124 0.040914
0.347224 0.122428 0.045608
0.370470 0.126695 0.045954
0.393771 0.131114 0.046291
0.417048 0.135593 0.046627
0.440169 0.140515 0.046900
0.462987 0.146186 0.047230
0.485702 0.151833 0.047759
0.508231 0.157622 0.048269
0.529953 0.163640 0.048792
0.551508 0.170540 0.049216
0.571986 0.177735 0.049673
0.591810 0.185073 0.050309
0.610963 0.192479 0.051040
0.629031 0.200705 0.052056
0.646646 0.209136 0.053119
0.663540 0.217681 0.054199
0.679886 0.226486 0.055304
0.048227 0.113218 0.026145
0.067288 0.109686 0.025719
0.088486 0.105587 0.025392
0.109919 0.101890 0.024901
0.132800 0.099891 0.023456
0.158465 0.098900 0.021322
0.184732 0.098469 0.020176
0.210515 0.098852 0.019883
0.235946 0.099973 0.020099
0.259430 0.102017 0.020853
0.281250 0.104953 0.022239
0.301158 0.108516 0.024724
0.318880 0.112761 0.028089
0.334256 0.117865 0.032147
0.348098 0.124042 0.036835
0.358780 0.131158 0.043029
0.367704 0.138645 0.050679
0.390117 0.143465 0.051784
0.413958 0.148596 0.052218
0.437605 0.153883 0.052655
0.461438 0.159132 0.053205
0.484711 0.164556 0.053761
0.507753 0.170763 0.054211
0.530106 0.177332 0.054736
0.552153 0.184086 0.055349
0.573112 0.191017 0.056145
0.593675 0.198307 0.057157
0.612947 0.206200 0.058268
0.631552 0.214229 0.059384
0.649598 0.222363 0.060503
0.666670 0.231027 0.061604
0.683344 0.240150 0.062645
0.699375 0.249400 0.063693
0.050995 0.132363 0.029043
0.068910 0.129935 0.028164
0.090353 0.126282 0.027292
0.112993 0.122364 0.026618
0.136907 0.118557 0.026028
0.162089 0.116942 0.024891
0.189570 0.116198 0.023793
0.217917 0.116091 0.023112
0.245630 0.116788 0.023066
0.272040 0.118390 0.023810
0.296257 0.120826 0.025375
0.318444 0.124439 0.027743
0.337987 0.129000 0.030747
0.355640 0.134151 0.034506
0.370386 0.140104 0.039618
0.383001 0.147405 0.045948
0.393407 0.155688 0.053472
0.409364 0.162729 0.058134
0.434089 0.167572 0.058674
0.458476 0.173151 0.059136
0.482309 0.179177 0.059753
0.506144 0.185282 0.060379
0.528974 0.191622 0.061386
0.551644 0.198221 0.062352
0.573253 0.205439 0.063332
0.594300 0.212856 0.064396
0.614026 0.220454 0.065508
0.633300 0.228162 0.066617
0.651374 0.236719 0.067728
0.668970 0.245414 0.069162
0.686030 0.254228 0.070894
0.702389 0.263214 0.072731
0.718378 0.272717 0.074537
0.054877 0.152473 0.032360
0.072439 0.150728 0.031491
0.093230 0.147665 0.030619
0.116907 0.143724 0.029834
0.141354 0.139929 0.029478
0.167433 0.136585 0.029126
0.194627 0.135778 0.028273
0.224069 0.135516 0.027641
0.253944 0.135936 0.027516
0.282456 0.137272 0.028035
0.309521 0.139378 0.029339
0.333930 0.142392 0.031384
0.355623 0.146785 0.034108
0.374824 0.152345 0.038145
0.391541 0.158785 0.043251
0.405603 0.165963 0.049597
0.416999 0.174342 0.057314
0.429010 0.183297 0.064782
0.453987 0.188855 0.065617
0.478703 0.194502 0.066590
0.503067 0.200454 0.067541
0.526573 0.207094 0.068443
0.550092 0.213828 0.069370
0.572201 0.220794 0.070477
0.593921 0.227885 0.071575
0.614177 0.235497 0.072744
0.633674 0.243604 0.074468
0.652263 0.251846 0.076214
0.670447 0.260216 0.077950
0.687755 0.269009 0.079801
0.704671 0.278085 0.081681
0.720992 0.287323 0.083557
0.736580 0.296786 0.085433
0.059961 0.172974 0.036743
0.077440 0.172092 0.035745
0.097994 0.169667 0.034762
0.122098 0.166110 0.033895
0.147808 0.162330 0.033481
0.174259 0.159024 0.033425
0.202186 0.156546 0.033412
0.230932 0.156623 0.033013
0.261162 0.157141 0.032789
0.291597 0.158259 0.033090
0.320627 0.160291 0.034029
0.347405 0.163359 0.035898
0.371121 0.167476 0.038933
0.392325 0.172501 0.043005
0.410715 0.179222 0.047901
0.426188 0.186912 0.054434
0.438991 0.195517 0.061933
0.449524 0.204858 0.072012
0.473562 0.211188 0.073621
0.498572 0.217362 0.074527
0.523033 0.223617 0.075480
0.547164 0.230045 0.076518
0.570035 0.236915 0.077955
0.592434 0.244168 0.079603
0.612959 0.251803 0.081385
0.633111 0.259540 0.083156
0.652250 0.267525 0.084946
0.670815 0.276066 0.086774
0.688693 0.284680 0.088670
0.706125 0.293455 0.090676
0.722628 0.302550 0.093128
0.738690 0.311984 0.095660
0.754089 0.321630 0.098186
0.066649 0.193500 0.041714
0.083549 0.193849 0.040405
0.104287 0.192248 0.039149
0.128629 0.189284 0.038088
0.155694 0.185948 0.037504
0.183166 0.183075 0.037553
0.211810 0.180731 0.037744
0.240755 0.179445 0.038151
0.269941 0.180102 0.038528
0.300051 0.181416 0.039210
0.330055 0.183506 0.040388
0.358597 0.186553 0.042155
0.384915 0.190507 0.044850
0.407587 0.195791 0.048995
0.427803 0.201931 0.054031
0.444770 0.209562 0.060428
0.459185 0.218319 0.068853
0.470582 0.228059 0.078514
0.493031 0.234791 0.081517
0.518084 0.241045 0.083214
0.542945 0.247600 0.084861
0.566657 0.254324 0.086545
0.589453 0.261377 0.088250
0.610780 0.268622 0.090010
0.631549 0.276421 0.091715
0.651123 0.284475 0.093577
0.670369 0.292571 0.095874
0.688711 0.300876 0.098470
0.706417 0.309654 0.101028
0.723423 0.318632 0.103580
0.739892 0.327811 0.106123
0.755604 0.337261 0.108662
0.770994 0.346820 0.111366
0.075206 0.214745 0.047277
0.091634 0.216257 0.045831
0.111987 0.215898 0.044417
0.136897 0.213669 0.043024
0.164340 0.210973 0.042186
0.193745 0.208197 0.042105
0.223411 0.205979 0.042828
0.253025 0.204873 0.043756
0.281499 0.204994 0.045034
0.309915 0.206826 0.046220
0.339126 0.209002 0.047782
0.368240 0.211821 0.050034
0.396117 0.215705 0.052712
0.420823 0.220889 0.056345
0.442502 0.227062 0.061849
0.461130 0.234381 0.068746
0.476919 0.242806 0.076927
0.489728 0.252708 0.087296
0.511791 0.259845 0.091740
0.537568 0.265963 0.093352
0.561797 0.272514 0.095070
0.585417 0.279549 0.096749
0.607427 0.286816 0.098600
0.628716 0.294295 0.100989
0.649101 0.301857 0.103570
0.668894 0.309808 0.106121
0.687627 0.318149 0.108692
0.705910 0.326612 0.111301
0.723320 0.335308 0.113923
0.740119 0.344376 0.116564
0.756443 0.353459 0.119702
0.772128 0.362758 0.122977
0.787214 0.372271 0.126238
0.085295 0.235005 0.054390
0.101701 0.237874 0.052706
0.122177 0.238649 0.050993
0.147382 0.237533 0.049331
0.177629 0.234741 0.047877
0.206551 0.233318 0.048004
0.235711 0.232026 0.048877
0.264990 0.231216 0.050322
0.293891 0.231717 0.051983
0.321903 0.233092 0.054099
0.349950 0.235862 0.056187
0.377980 0.239113 0.058797
0.405465 0.242911 0.062219
0.432062 0.247656 0.066472
0.455245 0.253842 0.071784
0.475619 0.260939 0.078285
0.492674 0.269296 0.087544
0.506770 0.278664 0.098429
0.530334 0.285714 0.101861
0.555659 0.292125 0.103793
0.580099 0.298728 0.106078
0.602826 0.305643 0.108556
0.624993 0.312822 0.111124
0.645943 0.320333 0.113718
0.666187 0.328111 0.116315
0.685617 0.336032 0.118924
0.704376 0.344307 0.121707
0.722229 0.352861 0.124811
0.739711 0.361432 0.128120
0.756380 0.370242 0.131481
0.772424 0.379368 0.134817
0.787974 0.388620 0.138140
0.802739 0.398055 0.141476
0.098150 0.254202 0.063016
0.114513 0.258410 0.061062
0.134650 0.260615 0.059246
0.159250 0.261058 0.057359
0.188107 0.260125 0.055951
0.220831 0.258184 0.055031
0.249111 0.258472 0.056217
0.277941 0.258408 0.057958
0.306754 0.258840 0.060132
0.335131 0.260609 0.062644
0.362165 0.263345 0.066030
0.389055 0.267229 0.069587
0.415657 0.271511 0.073606
0.441337 0.276433 0.078072
0.465743 0.282202 0.084283
0.487522 0.289194 0.091693
0.505949 0.297326 0.100446
0.521851 0.306386 0.111465
0.548185 0.312425 0.113741
0.573222 0.318919 0.116126
0.597125 0.325545 0.118636
0.620035 0.332420 0.121170
0.641583 0.339615 0.123769
0.662572 0.347073 0.126775
0.682483 0.354833 0.129949
0.701734 0.362831 0.133123
0.720371 0.370857 0.136441
0.738276 0.379223 0.139789
0.755429 0.387845 0.143133
0.772029 0.396502 0.146538
0.787835 0.405435 0.150363
0.802980 0.414618 0.154224
0.817774 0.423950 0.158075
0.112887 0.273258 0.072661
0.129302 0.278509 0.070999
0.149061 0.282482 0.068898
0.173484 0.284602 0.067041
0.202590 0.284812 0.065344
0.232939 0.284801 0.064719
0.264275 0.284506 0.065064
0.292484 0.285741 0.067326
0.320718 0.286738 0.070191
0.348719 0.288495 0.073338
0.375941 0.291521 0.076957
0.401648 0.295651 0.081274
0.426829 0.300673 0.086572
0.451375 0.306048 0.092862
0.475368 0.311964 0.099218
0.497509 0.318770 0.107112
0.517289 0.326579 0.116946
0.539158 0.334047 0.123628
0.565284 0.340000 0.126119
0.590149 0.346264 0.128782
0.613584 0.352950 0.131823
0.636065 0.359810 0.134938
0.657704 0.366947 0.138068
0.678248 0.374353 0.141230
0.698362 0.381894 0.144553
0.717441 0.389757 0.147959
0.735882 0.397729 0.151537
0.753658 0.405815 0.155418
0.770557 0.414278 0.159301
0.786875 0.422977 0.163166
0.802562 0.431757 0.167049
0.817707 0.440539 0.171188
0.832116 0.449504 0.175320
0.119432 0.303048 0.078379
0.141290 0.303730 0.079691
0.165537 0.304147 0.080937
0.190295 0.306691 0.079772
0.217893 0.308954 0.077851
0.250017 0.309322 0.076286
0.279199 0.311052 0.076975
0.308372 0.312641 0.078617
0.335807 0.314973 0.081475
0.363270 0.317136 0.085707
0.390010 0.320111 0.090399
0.415562 0.324248 0.095669
0.439371 0.329862 0.101684
0.462470 0.335929 0.108721
0.485066 0.342314 0.117217
0.507121 0.349159 0.125539
0.528855 0.356441 0.133916
0.555852 0.362089 0.136879
0.581693 0.368069 0.139881
0.606047 0.374272 0.143005
0.629290 0.380794 0.146162
0.651560 0.387697 0.149327
0.673061 0.394650 0.152635
0.693761 0.401783 0.156354
0.713512 0.409137 0.160224
0.732672 0.416697 0.164105
0.750775 0.424681 0.168046
0.768231 0.432811 0.171987
0.785169 0.440861 0.175953
0.801242 0.449149 0.180199
0.816908 0.457650 0.184713
0.831759 0.466321 0.189233
0.846125 0.475117 0.193800
0.126691 0.334365 0.084594
0.149003 0.335093 0.086143
0.174480 0.335404 0.087403
0.202918 0.335320 0.088498
0.234039 0.334684 0.089709
0.265771 0.334375 0.091313
0.298656 0.335218 0.090502
0.325100 0.339034 0.093135
0.352409 0.342107 0.096436
0.378571 0.345670 0.100783
0.404576 0.349125 0.105809
0.429653 0.353667 0.112028
0.453291 0.358710 0.119349
0.475130 0.365489 0.127399
0.495749 0.372683 0.136457
0.519875 0.378989 0.143435
0.546055 0.384776 0.147386
0.571888 0.390698 0.151102
0.597017 0.396631 0.154181
0.621226 0.402774 0.157349
0.644484 0.408978 0.161090
0.666662 0.415489 0.164983
0.688060 0.422320 0.168869
0.708574 0.429326 0.172767
0.728164 0.436641 0.176692
0.747000 0.443973 0.180646
0.765190 0.451464 0.184817
0.782516 0.459299 0.189414
0.799151 0.467267 0.194016
0.815329 0.475293 0.198616
0.830481 0.483388 0.203269
0.845419 0.491582 0.207893
0.859339 0.499979 0.212683
0.133962 0.366517 0.091283
0.157817 0.367215 0.093389
0.184494 0.367368 0.095246
0.213814 0.367117 0.096863
0.245753 0.366466 0.098254
0.279610 0.365607 0.099692
0.311999 0.365813 0.102084
0.344582 0.366186 0.104682
0.370643 0.369582 0.110537
0.396247 0.373243 0.116837
0.420858 0.377821 0.123300
0.445128 0.382364 0.129894
0.469085 0.388193 0.136308
0.492406 0.393904 0.143189
0.515748 0.400587 0.149657
0.538685 0.407266 0.155871
0.563537 0.413283 0.160666
0.587832 0.419266 0.165268
0.611974 0.425231 0.169725
0.635926 0.431164 0.173546
0.659070 0.437323 0.177378
0.681378 0.443506 0.181264
0.702404 0.450059 0.185258
0.722748 0.456830 0.189593
0.742294 0.463809 0.193966
0.760949 0.471045 0.198545
0.779018 0.478283 0.203147
0.796316 0.485507 0.207784
0.812854 0.493052 0.212486
0.828552 0.500739 0.217425
0.843902 0.508599 0.222426
0.858162 0.516500 0.227530
0.872391 0.524150 0.232776
0.142241 0.398900 0.099630
0.167211 0.399405 0.101749
0.195262 0.399572 0.103623
0.225638 0.399376 0.105400
0.258066 0.398813 0.107062
0.292460 0.397845 0.108929
0.326865 0.397377 0.111523
0.360214 0.397624 0.114813
0.389894 0.399652 0.119668
0.416294 0.403158 0.125741
0.441781 0.406913 0.132604
0.466559 0.411625 0.139775
0.490608 0.416158 0.147124
0.514343 0.422252 0.153811
0.537341 0.427859 0.160917
0.559725 0.434670 0.167860
0.580774 0.441684 0.174834
0.604243 0.447648 0.180282
0.627330 0.453525 0.185232
0.650336 0.459400 0.189957
0.673124 0.465365 0.194261
0.695147 0.471509 0.198575
0.716388 0.477819 0.202900
0.736491 0.484193 0.207546
0.755956 0.490646 0.212222
0.774682 0.497285 0.216988
0.792352 0.504259 0.221949
0.809552 0.511353 0.226947
0.825811 0.518461 0.231994
0.841621 0.525579 0.237118
0.856538 0.532664 0.242481
0.871114 0.539941 0.247948
0.884681 0.547453 0.253497
0.151444 0.431603 0.107903
0.177774 0.432007 0.110307
0.206361 0.432134 0.112943
0.237402 0.431937 0.115400
0.270788 0.431318 0.117593
0.305735 0.430414 0.119743
0.342488 0.429020 0.121671
0.376013 0.429324 0.125156
0.408596 0.430121 0.129290
0.436019 0.433126 0.136111
0.462449 0.436655 0.143132
0.487361 0.440550 0.150611
0.511757 0.445490 0.157711
0.535348 0.450123 0.165793
0.558114 0.456098 0.173226
0.579650 0.461813 0.180752
0.600791 0.468557 0.187718
0.620652 0.475463 0.195506
0.642938 0.481556 0.201387
0.664889 0.487456 0.206872
0.686862 0.493190 0.211946
0.708672 0.498874 0.216574
0.729779 0.504670 0.221345
0.750027 0.510669 0.226272
0.769207 0.517031 0.231287
0.787642 0.523215 0.236391
0.805443 0.529523 0.241510
0.822178 0.536031 0.246704
0.838710 0.542544 0.252219
0.854064 0.549318 0.257777
0.869071 0.556141 0.263345
0.883163 0.562997 0.269004
0.896760 0.569991 0.274677
0.160735 0.464400 0.117914
0.188455 0.464730 0.120763
0.218402 0.464697 0.123370
0.250209 0.464403 0.125872
0.283971 0.463740 0.128235
0.319668 0.462721 0.130516
0.356066 0.461708 0.133361
0.393153 0.460494 0.136393
0.425094 0.461567 0.141600
0.456231 0.462962 0.147047
0.482231 0.466418 0.154287
0.507686 0.470214 0.161931
0.532204 0.473839 0.170304
0.555695 0.478609 0.178246
0.577685 0.483667 0.186116
0.598947 0.489672 0.193931
0.619604 0.495303 0.202164
0.639803 0.501700 0.209775
0.658838 0.508399 0.217589
0.679910 0.514354 0.223829
0.700943 0.520118 0.229986
0.722118 0.525527 0.235562
0.742832 0.530946 0.240726
0.762906 0.536364 0.245799
0.782048 0.542014 0.250946
0.800399 0.547928 0.256289
0.817911 0.553911 0.261889
0.834925 0.559916 0.267517
0.850753 0.566113 0.273189
0.866350 0.572343 0.278844
0.880816 0.578850 0.284649
0.894843 0.585523 0.290507
0.908258 0.592136 0.296484
0.171653 0.496783 0.128311
0.200123 0.496880 0.131286
0.230808 0.496684 0.134237
0.263802 0.496157 0.137282
0.298127 0.495499 0.140424
0.333990 0.494526 0.143396
0.371171 0.493260 0.146223
0.408267 0.492183 0.149320
0.443646 0.491777 0.153255
0.474373 0.493347 0.159234
0.502141 0.496079 0.166565
0.527373 0.499350 0.174781
0.551872 0.502871 0.182976
0.574703 0.506531 0.191482
0.596522 0.511070 0.200091
0.617593 0.516126 0.208600
0.637994 0.521814 0.216831
0.657721 0.527680 0.224967
0.677057 0.533699 0.232989
0.695821 0.539703 0.241312
0.715554 0.545358 0.248274
0.735525 0.550803 0.254681
0.755733 0.556056 0.260410
0.775303 0.561342 0.265969
0.794538 0.566489 0.271548
0.812705 0.571823 0.277173
0.830277 0.577373 0.282801
0.846785 0.583090 0.288678
0.862754 0.589067 0.294588
0.877704 0.595084 0.300504
0.892333 0.601118 0.306448
0.906104 0.607296 0.312533
0.919245 0.613620 0.318674
0.183084 0.528498 0.139889
0.212842 0.528359 0.143251
0.244242 0.528089 0.146726
0.277455 0.527529 0.150057
0.312429 0.526688 0.153214
0.348712 0.525631 0.156302
0.386148 0.524271 0.159465
0.423934 0.522837 0.162917
0.461790 0.521361 0.166475
0.492104 0.522916 0.172916
0.521012 0.524767 0.179934
0.546837 0.527704 0.188005
0.570158 0.531152 0.196923
0.592823 0.534600 0.205828
0.614519 0.538154 0.214799
0.635695 0.541912 0.223889
0.655916 0.546983 0.232509
0.675408 0.552278 0.241117
0.694394 0.557941 0.249605
0.712980 0.563709 0.258025
0.731106 0.569485 0.266346
0.749479 0.575075 0.273790
0.768505 0.580234 0.280676
0.787908 0.585109 0.286618
0.806481 0.590204 0.292686
0.824712 0.595241 0.298550
0.841801 0.600501 0.304402
0.858401 0.605869 0.310241
0.874044 0.611320 0.316209
0.889043 0.617006 0.322451
0.903284 0.622847 0.328773
0.916933 0.628640 0.335115
0.929927 0.634712 0.341362
0.195508 0.559343 0.152507
0.225679 0.559068 0.156039
0.258075 0.558568 0.159436
0.291937 0.557892 0.163121
0.327380 0.556891 0.166830
0.364015 0.555673 0.170431
0.401422 0.554304 0.174062
0.439451 0.552679 0.177724
0.475543 0.551720 0.182161
0.511950 0.550444 0.186422
0.538979 0.552645 0.194599
0.564912 0.554841 0.202763
0.588246 0.557934 0.211678
0.610417 0.561068 0.220815
0.632214 0.564223 0.230394
0.652995 0.567811 0.239732
0.673201 0.571199 0.249200
0.692601 0.576380 0.257866
0.711426 0.581273 0.266980
0.729516 0.586840 0.275655
0.747120 0.592489 0.284118
0.764706 0.598032 0.292579
0.782179 0.603384 0.300589
0.799924 0.608498 0.307934
0.818444 0.613154 0.313905
0.835976 0.618071 0.320011
0.853241 0.622960 0.326107
0.869397 0.628049 0.332412
0.885025 0.633181 0.338726
0.899915 0.638420 0.344906
0.913817 0.643927 0.351151
0.927316 0.649532 0.357426
0.939844 0.655297 0.363848
0.208631 0.588417 0.165777
0.239838 0.587983 0.169798
0.272779 0.587281 0.173736
0.307238 0.586386 0.177616
0.342894 0.585389 0.181550
0.379730 0.584134 0.185433
0.417206 0.582706 0.189398
0.455002 0.581107 0.193640
0.492177 0.579583 0.198110
0.526142 0.578928 0.203535
0.558187 0.578624 0.209359
0.582339 0.581289 0.218089
0.605639 0.583887 0.227257
0.627959 0.586656 0.236897
0.649185 0.589596 0.246533
0.669854 0.592645 0.256283
0.689698 0.596204 0.265910
0.709193 0.599201 0.276032
0.727789 0.604429 0.284653
0.745714 0.609319 0.293768
0.763041 0.614692 0.302677
0.779853 0.620046 0.311543
0.796697 0.625375 0.319898
0.813191 0.630695 0.327935
0.829640 0.635790 0.335803
0.847382 0.640214 0.342085
0.864040 0.644837 0.348474
0.880320 0.649483 0.354649
0.895519 0.654467 0.360947
0.910043 0.659523 0.367340
0.924099 0.664601 0.373746
0.936978 0.669937 0.380350
0.949666 0.675258 0.386778
0.222500 0.616333 0.180399
0.254633 0.615589 0.184496
0.288333 0.614734 0.188588
0.323234 0.613738 0.192821
0.359162 0.612594 0.197214
0.395870 0.611342 0.201640
0.433285 0.609842 0.205934
0.470728 0.608231 0.210321
0.508028 0.606466 0.214690
0.542192 0.605503 0.220141
0.572538 0.605482 0.226733
0.599299 0.606680 0.234642
0.622852 0.608934 0.243821
0.644705 0.611625 0.253504
0.665808 0.614403 0.263425
0.686036 0.617255 0.273389
0.705943 0.619985 0.283516
0.725035 0.623433 0.293378
0.743574 0.626404 0.303579
0.761341 0.631386 0.312385
0.778522 0.636222 0.321509
0.794993 0.641462 0.330597
0.810893 0.646704 0.339631
0.826915 0.651803 0.348000
0.842659 0.656835 0.356156
0.858038 0.661894 0.364301
0.874792 0.666136 0.370590
0.890504 0.670657 0.377201
0.905590 0.675229 0.383647
0.920040 0.679951 0.389932
0.933543 0.684773 0.396327
0.946664 0.689726 0.402858
0.958693 0.694806 0.409459
0.237429 0.643316 0.195502
0.270119 0.642447 0.200055
0.304167 0.641448 0.204629
0.339393 0.640335 0.209185
0.375608 0.639047 0.213648
0.412405 0.637661 0.218098
0.449606 0.636152 0.222716
0.486813 0.634537 0.227508
0.522647 0.632998 0.232602
0.557209 0.631395 0.237897
0.587293 0.631191 0.244759
0.615533 0.631370 0.252094
0.639000 0.633344 0.261393
0.661093 0.635722 0.270996
0.681868 0.638469 0.280815
0.702140 0.640975 0.291137
0.721626 0.643656 0.301529
0.740427 0.646399 0.311745
0.758591 0.649782 0.321484
0.776304 0.652868 0.331770
0.793376 0.657241 0.341134
0.809725 0.662121 0.350084
0.825239 0.667282 0.358875
0.840444 0.672271 0.368082
0.855679 0.677185 0.376708
0.870480 0.682038 0.385070
0.885047 0.686911 0.392841
0.900471 0.691201 0.399264
0.915375 0.695443 0.405952
0.929435 0.699811 0.412555
0.942869 0.704411 0.419168
0.955467 0.709096 0.425722
0.967414 0.713915 0.431982
0.252710 0.669390 0.211966
0.285950 0.668405 0.216507
0.320563 0.667238 0.220977
0.356128 0.665983 0.225707
0.392521 0.664592 0.230635
0.429366 0.663077 0.235620
0.466051 0.661555 0.240700
0.502534 0.659943 0.245834
0.537964 0.658287 0.251038
0.571240 0.656878 0.256795
0.602979 0.655601 0.262895
0.630110 0.655994 0.270787
0.655335 0.656914 0.279215
0.676769 0.659216 0.289079
0.697736 0.661458 0.299283
0.717700 0.663950 0.309511
0.736806 0.666519 0.319774
0.755321 0.669226 0.330211
0.773236 0.671844 0.340791
0.790688 0.674952 0.350763
0.807502 0.678315 0.360479
0.823651 0.682399 0.369863
0.839292 0.687049 0.379020
0.854074 0.691956 0.388139
0.868445 0.696838 0.396868
0.882740 0.701614 0.405266
0.896649 0.706326 0.413635
0.910385 0.710962 0.421746
0.924619 0.715141 0.428534
0.938533 0.719306 0.434838
0.951628 0.723579 0.441171
0.963946 0.728001 0.447544
0.975827 0.732459 0.454046
0.268901 0.694446 0.228678
0.302745 0.693242 0.233636
0.337649 0.691942 0.238563
0.373425 0.690540 0.243484
0.409648 0.689116 0.248628
0.446226 0.687620 0.253853
0.482913 0.685999 0.259196
0.518376 0.684412 0.264667
0.552566 0.682798 0.270270
0.585649 0.681178 0.275963
0.616893 0.679911 0.282158
0.644961 0.679610 0.289675
0.669535 0.680489 0.298465
0.692596 0.681778 0.307803
0.712964 0.684008 0.318011
0.732603 0.686342 0.328387
0.751622 0.688708 0.338811
0.769802 0.691106 0.349250
0.787549 0.693536 0.359702
0.804574 0.696270 0.370080
0.821067 0.699248 0.380233
0.837044 0.702724 0.389821
0.852429 0.706511 0.399107
0.867259 0.711044 0.407983
0.881226 0.715794 0.416953
0.894782 0.720461 0.425959
0.908135 0.725093 0.434212
0.921165 0.729612 0.442238
0.934011 0.734066 0.449842
0.947137 0.738266 0.456640
