vendor/NativeMatch/NativeMatch.ofx.bundle/Contents/Resources/Cubes/Lustrous_Filter_1.cube
LUT_3D_SIZE 9
0.000000 0.000000 0.000000
0.120102 -0.005599 -0.009261
0.261930 -0.009191 -0.024773
0.405802 -0.007661 -0.045222
0.537679 0.003245 -0.065179
0.652967 0.021943 -0.083348
0.750516 0.045249 -0.098736
0.833074 0.070022 -0.110172
0.897957 0.091437 -0.117973
-0.030881 0.125828 -0.025142
0.110312 0.101942 -0.018419
0.261051 0.094085 -0.034114
0.423004 0.088552 -0.063425
0.569899 0.092427 -0.084685
0.695733 0.105637 -0.100839
0.799251 0.125467 -0.113102
0.884947 0.148011 -0.120770
0.950286 0.168610 -0.125610
-0.074379 0.305754 -0.074379
0.047681 0.267130 -0.076382
0.246413 0.221993 -0.021021
0.403603 0.215998 -0.035847
0.571717 0.212886 -0.074192
0.718528 0.217174 -0.097052
0.836925 0.229877 -0.110057
0.931755 0.247788 -0.116944
0.998253 0.266578 -0.115476
-0.123057 0.505855 -0.123057
-0.082086 0.476903 -0.120813
0.184399 0.403354 -0.111058
0.392583 0.348805 -0.006000
0.548149 0.344328 -0.006447
0.712178 0.344454 -0.050527
0.846485 0.350375 -0.068516
0.947805 0.363952 -0.069653
1.018279 0.380014 -0.064354
-0.172291 0.708242 -0.172291
-0.168537 0.692812 -0.168537
0.042811 0.628883 -0.180679
0.341666 0.533174 -0.102081
0.546092 0.478500 0.029205
0.693041 0.475294 0.043413
0.835576 0.478748 0.017742
0.954218 0.486517 0.003324
1.038050 0.497214 0.002769
-0.212627 0.865992 -0.171124
-0.211432 0.864014 -0.185030
-0.067447 0.822491 -0.186254
0.225894 0.739357 -0.147854
0.515216 0.646485 -0.033171
0.698297 0.604710 0.084688
0.833201 0.602626 0.104855
0.956043 0.607484 0.094686
1.052178 0.614193 0.084106
-0.243695 0.970014 -0.080200
-0.247425 0.989813 -0.106921
-0.130575 0.976172 -0.131162
0.123506 0.919820 -0.131863
0.419635 0.835001 -0.074633
0.684232 0.751420 0.052807
0.842801 0.722213 0.149580
0.964728 0.721110 0.170913
1.059020 0.725532 0.175986
-0.267997 1.043766 0.030139
-0.276353 1.084041 -0.008736
-0.148765 1.093062 -0.053870
0.056536 1.065438 -0.078770
0.326170 1.001780 -0.062830
0.611295 0.917960 0.015779
0.838866 0.848962 0.142304
0.976179 0.829602 0.216251
1.075277 0.828700 0.235848
-0.290528 1.118086 0.101823
-0.213874 1.136367 0.079871
-0.130954 1.164182 0.027353
0.032745 1.146873 -0.009213
0.263364 1.120829 -0.023061
0.537626 1.055086 0.016377
0.796347 0.976816 0.113442
0.977520 0.927063 0.231208
1.085305 0.916615 0.276571
-0.005769 -0.005769 0.146050
0.122725 -0.015528 0.134954
0.277154 -0.024324 0.114619
0.435101 -0.027906 0.085389
0.575787 -0.019624 0.056907
0.697210 -0.002034 0.029110
0.798739 0.020983 0.005214
0.884127 0.046099 -0.015151
0.949994 0.068342 -0.029787
-0.037607 0.123739 0.121265
0.107039 0.099863 0.100084
0.274881 0.084755 0.078707
0.452628 0.071994 0.047307
0.612222 0.071472 0.016961
0.742915 0.083841 -0.007058
0.849693 0.103691 -0.027685
0.937204 0.126783 -0.042899
1.003028 0.148320 -0.053756
-0.083662 0.318377 0.047815
0.020773 0.275941 0.046354
0.244181 0.223666 0.074959
0.417355 0.212780 0.045405
0.604856 0.201949 -0.001465
0.759748 0.202998 -0.027831
0.882495 0.214631 -0.046206
0.979638 0.232259 -0.057491
1.041793 0.253354 -0.057068
-0.132714 0.526662 -0.035455
-0.126311 0.502661 -0.040988
0.155320 0.420926 -0.027902
0.391267 0.353848 0.070185
0.558853 0.346459 0.054839
0.738032 0.341016 0.001771
0.876561 0.345293 -0.018293
0.979720 0.358372 -0.021490
1.051114 0.374318 -0.017939
-0.182354 0.733334 -0.098549
-0.178245 0.720606 -0.115893
-0.005834 0.657750 -0.116350
0.319931 0.551847 -0.043666
0.545513 0.486046 0.090673
0.697313 0.481381 0.100240
0.850965 0.482137 0.061065
0.974075 0.488312 0.043728
1.060019 0.498393 0.041092
-0.221950 0.885753 -0.084850
-0.221074 0.885930 -0.103444
-0.112732 0.849951 -0.112868
0.192135 0.764608 -0.092836
0.500942 0.664652 0.008921
0.698295 0.614079 0.135404
0.836387 0.611213 0.151663
0.966038 0.614603 0.132341
1.064793 0.620761 0.118172
-0.251475 0.987238 -0.012002
-0.255695 1.009486 -0.041453
-0.167318 1.001345 -0.068470
0.089023 0.945910 -0.079551
0.395178 0.858720 -0.035333
0.674908 0.769300 0.084042
0.843345 0.733491 0.189388
0.967753 0.731470 0.209219
1.066512 0.735184 0.207046
-0.274445 1.058209 0.085787
-0.283400 1.100863 0.046755
-0.175135 1.114678 0.000641
0.027278 1.089803 -0.030956
0.298959 1.027198 -0.025364
0.592944 0.941131 0.042716
0.834829 0.865455 0.167480
0.976819 0.841886 0.250761
1.077836 0.840431 0.268420
-0.296137 1.130351 0.151782
-0.224218 1.151174 0.128783
-0.143512 1.163299 0.080325
0.015039 1.146741 0.040213
0.243996 1.121194 0.019454
0.515940 1.079795 0.043755
0.782922 0.998973 0.133363
0.976204 0.943012 0.252443
1.086316 0.929770 0.305833
-0.012958 -0.012958 0.328034
0.123032 -0.028754 0.329827
0.283577 -0.045581 0.324112
0.450184 -0.055061 0.303363
0.614559 -0.056816 0.267436
0.758105 -0.045766 0.218571
0.868334 -0.023500 0.177342
0.958876 0.001836 0.143373
1.027671 0.024967 0.117188
-0.045765 0.112806 0.342080
0.093919 0.086099 0.319650
0.287861 0.059596 0.291571
0.495008 0.033663 0.254495
0.679335 0.025979 0.199996
0.817256 0.038850 0.156012
0.928911 0.059521 0.119480
1.018652 0.084383 0.090011
1.085322 0.107527 0.069041
-0.092674 0.306217 0.292177
-0.019499 0.276027 0.263512
0.240283 0.221539 0.214138
0.448322 0.194539 0.180116
0.666822 0.169304 0.129886
0.834337 0.166664 0.091326
0.960881 0.178275 0.063843
1.056727 0.198432 0.043079
1.111966 0.223721 0.039312
-0.145710 0.537387 0.171411
-0.141247 0.524683 0.146827
0.104441 0.438840 0.126747
0.388230 0.356823 0.181598
0.582976 0.341664 0.138977
0.786375 0.325391 0.081144
0.930206 0.327050 0.061245
1.033713 0.340905 0.053286
1.103885 0.358023 0.053915
-0.197384 0.759734 0.068617
-0.193884 0.751673 0.039543
-0.089941 0.695412 0.022063
0.279819 0.576532 0.050593
0.544082 0.492240 0.181864
0.708602 0.485596 0.170418
0.877974 0.480659 0.121525
1.007902 0.483889 0.102301
1.095854 0.493648 0.096376
-0.234057 0.907468 0.047486
-0.233826 0.911467 0.022235
-0.183234 0.885214 0.003776
0.136023 0.798014 -0.002853
0.477185 0.687208 0.073419
0.697759 0.623337 0.208996
0.841537 0.619484 0.216370
0.981591 0.620582 0.183342
1.086705 0.624286 0.165972
-0.261532 1.006925 0.089455
-0.266541 1.032634 0.058091
-0.222336 1.032898 0.028121
0.036049 0.979358 0.002311
0.356568 0.889256 0.025687
0.659827 0.790868 0.132114
0.843418 0.745343 0.248539
0.970814 0.742461 0.265370
1.076508 0.744761 0.253521
-0.282760 1.075249 0.165742
-0.292606 1.121354 0.126907
-0.215104 1.142007 0.080968
-0.016632 1.120556 0.041900
0.258572 1.058917 0.034005
0.565563 0.969553 0.086698
0.826023 0.886158 0.204532
0.977466 0.855744 0.298560
1.080710 0.853394 0.315214
-0.302935 1.142985 0.223812
-0.242354 1.169534 0.198065
-0.165303 1.162516 0.155239
-0.012484 1.146770 0.111763
0.215032 1.121762 0.082538
0.489849 1.089591 0.091801
0.763566 1.025986 0.164787
0.974007 0.961543 0.284184
1.087258 0.944830 0.346929
-0.020732 -0.020732 0.524853
0.118181 -0.037184 0.533860
0.279219 -0.056081 0.540317
0.447365 -0.075408 0.537877
0.612474 -0.081389 0.521111
0.766556 -0.079392 0.491675
0.904820 -0.071044 0.451830
1.027121 -0.058455 0.404499
1.116216 -0.041126 0.358224
-0.053361 0.097859 0.572230
0.075773 0.068131 0.579073
0.286689 0.030004 0.567397
0.493134 0.002423 0.540247
0.690632 -0.013702 0.495988
0.868107 -0.017555 0.439602
1.017238 -0.009527 0.375514
1.122085 0.014211 0.315373
1.193098 0.039385 0.274002
-0.100143 0.281818 0.568437
-0.063590 0.259789 0.577015
0.216655 0.197698 0.515889
0.474554 0.150025 0.463884
0.740833 0.103612 0.403473
0.944149 0.092189 0.322391
1.074448 0.108602 0.262336
1.164263 0.136044 0.220200
1.211868 0.168725 0.198238
-0.154462 0.511701 0.480168
-0.151637 0.502312 0.471557
0.036949 0.439866 0.412424
0.383108 0.353406 0.338376
0.633772 0.313146 0.284961
0.870630 0.280855 0.225828
1.019729 0.282541 0.193157
1.118963 0.300603 0.174692
1.184697 0.321913 0.165268
-0.209317 0.755128 0.332990
-0.209132 0.761174 0.298116
-0.200043 0.733324 0.258231
0.213750 0.599685 0.224056
0.541762 0.494497 0.303710
0.736679 0.480289 0.256422
0.926995 0.465891 0.203858
1.063012 0.466241 0.184195
1.152682 0.475468 0.176745
-0.246736 0.920160 0.237818
-0.248863 0.934318 0.207825
-0.243525 0.919022 0.178938
0.048494 0.837704 0.141132
0.435249 0.714091 0.169761
0.696407 0.630855 0.302409
0.853465 0.624038 0.292432
1.007946 0.620641 0.246930
1.120005 0.621240 0.228168
-0.273033 1.024874 0.228966
-0.279199 1.055003 0.198173
-0.280214 1.065139 0.166457
-0.038817 1.017158 0.124812
0.298157 0.924833 0.119022
0.636219 0.814540 0.199793
0.842854 0.755841 0.325241
0.976454 0.751509 0.334277
1.090438 0.752260 0.310184
-0.292248 1.091664 0.272562
-0.303232 1.141718 0.236324
-0.269320 1.171744 0.193177
-0.076358 1.152657 0.145680
0.201613 1.095242 0.120040
0.526198 1.001663 0.150844
0.811362 0.908597 0.256575
0.977554 0.868490 0.362551
1.083330 0.865320 0.377095
-0.310226 1.153313 0.317665
-0.262900 1.167625 0.295292
-0.197094 1.161785 0.255223
-0.052360 1.147110 0.208626
0.172897 1.122806 0.169356
0.454813 1.090539 0.162182
0.736897 1.055365 0.211631
0.967934 0.981324 0.328540
1.087778 0.959342 0.401137
-0.028738 -0.028738 0.727522
0.112344 -0.045571 0.739484
0.272695 -0.064712 0.753276
0.438067 -0.084231 0.762498
0.601165 -0.098214 0.763538
0.752418 -0.098873 0.753883
0.889308 -0.094223 0.735388
1.012005 -0.086082 0.709017
1.111847 -0.077536 0.680240
-0.060681 0.083790 0.792289
0.062057 0.054709 0.810421
0.272786 0.013518 0.814074
0.475142 -0.016061 0.806440
0.670664 -0.035844 0.784841
0.849129 -0.044912 0.751771
1.005532 -0.044907 0.709821
1.140871 -0.038404 0.661543
1.246961 -0.029124 0.614439
-0.106645 0.256706 0.828854
-0.072868 0.233560 0.859961
0.187209 0.169239 0.857969
0.467424 0.106389 0.826972
0.724326 0.063385 0.772568
0.947972 0.039841 0.702728
1.134055 0.032451 0.626380
1.263530 0.048730 0.544405
1.330786 0.081292 0.475888
-0.160836 0.476668 0.789112
-0.158762 0.463120 0.817046
-0.025118 0.413498 0.822581
0.348729 0.318036 0.726693
0.675174 0.246692 0.644587
0.963386 0.195670 0.554900
1.146412 0.194431 0.455720
1.238628 0.224430 0.395537
1.294082 0.254035 0.360963
-0.217072 0.720282 0.668790
-0.217030 0.720143 0.668666
-0.210273 0.697609 0.648434
0.133366 0.598585 0.555746
0.539121 0.492052 0.455423
0.789140 0.450608 0.409775
1.013846 0.420555 0.351795
1.156441 0.420142 0.320171
1.242477 0.432766 0.304480
-0.255254 0.900286 0.511933
-0.259232 0.920015 0.490574
-0.258218 0.923948 0.449883
-0.080629 0.877793 0.388784
0.366538 0.738602 0.348163
0.693187 0.634918 0.423484
0.877993 0.620407 0.384819
1.058174 0.605834 0.332663
1.175675 0.603940 0.312936
-0.282811 1.025826 0.421248
-0.291425 1.064226 0.397235
-0.295617 1.087485 0.362013
-0.143458 1.057436 0.312775
0.206196 0.966768 0.267963
0.594851 0.841329 0.301171
0.841352 0.763894 0.422540
0.985561 0.756956 0.418940
1.116306 0.753036 0.377621
-0.301952 1.102119 0.414413
-0.314894 1.158575 0.384710
-0.316630 1.171221 0.354607
-0.148542 1.154019 0.304106
0.123956 1.124831 0.251752
0.466514 1.038436 0.247286
0.788116 0.932546 0.328251
0.976916 0.879284 0.444252
1.085834 0.875010 0.456622
-0.317964 1.160595 0.436223
-0.291072 1.165335 0.421144
-0.240624 1.160967 0.387954
-0.107160 1.147597 0.341308
0.113915 1.124261 0.291032
0.403236 1.092073 0.262648
0.705836 1.056010 0.287345
0.956755 1.002116 0.386665
1.087623 0.972202 0.471484
-0.036334 -0.036334 0.919836
0.105144 -0.053182 0.931078
0.265833 -0.072417 0.946121
0.427165 -0.091689 0.960332
0.584181 -0.105383 0.971146
0.728966 -0.105808 0.975641
0.860309 -0.102108 0.974906
0.978600 -0.095898 0.968388
1.075813 -0.089805 0.957804
-0.067530 0.072869 0.986647
0.052583 0.045275 1.011190
0.260097 0.003673 1.024386
0.455411 -0.025246 1.030190
0.644012 -0.045349 1.026535
0.816670 -0.055940 1.014653
0.969215 -0.058786 0.995769
1.103109 -0.056388 0.970969
1.209787 -0.051583 0.944368
-0.112025 0.235487 1.046616
-0.071130 0.212136 1.091880
0.170068 0.152622 1.111396
0.440977 0.089272 1.104887
0.688195 0.045242 1.078509
0.907812 0.017890 1.036886
1.093870 0.005373 0.985749
1.224256 0.019298 0.913452
1.311736 0.040886 0.850660
-0.164709 0.441271 1.049474
-0.163553 0.425663 1.106529
-0.027424 0.374923 1.147116
0.308583 0.279708 1.140056
0.658806 0.193614 1.073475
0.931194 0.153734 0.967701
1.133011 0.144146 0.865082
1.280296 0.153624 0.774149
1.295381 0.180804 0.711831
-0.220308 0.675103 0.966690
-0.220860 0.670594 1.001035
-0.215747 0.645957 1.024784
0.071196 0.565660 0.996016
0.499392 0.454331 0.866185
0.828954 0.384591 0.769382
1.107689 0.333870 0.683914
1.262362 0.333052 0.593791
1.256497 0.364982 0.547641
-0.259903 0.863163 0.796845
-0.265156 0.880701 0.812477
-0.265749 0.882683 0.814235
-0.122422 0.845355 0.779324
0.285053 0.738042 0.678144
0.688018 0.631245 0.586490
0.928068 0.592382 0.535030
1.141224 0.561819 0.482387
1.210360 0.563089 0.458000
-0.289597 1.004053 0.670206
-0.299352 1.042784 0.667498
-0.305412 1.070483 0.647090
-0.226079 1.066873 0.597468
0.074957 1.006976 0.518479
0.529278 0.864281 0.478685
0.838284 0.766953 0.547618
1.007432 0.754443 0.511810
1.163902 0.739238 0.464097
-0.309917 1.097427 0.599213
-0.323830 1.155217 0.582210
-0.324890 1.162960 0.563736
-0.235052 1.154403 0.522293
0.024552 1.127380 0.454621
0.373510 1.080345 0.397950
0.749140 0.957327 0.433205
0.975269 0.886852 0.543880
1.093966 0.880214 0.544409
-0.325355 1.161776 0.579203
-0.314778 1.161196 0.577248
-0.288325 1.158958 0.558642
-0.176638 1.147868 0.517381
0.034161 1.126046 0.459705
0.327881 1.094425 0.406912
0.655813 1.057064 0.394642
0.936583 1.021544 0.464278
1.086778 0.982217 0.557180
-0.042933 -0.042933 1.086881
0.098145 -0.059562 1.094231
0.259840 -0.078736 1.105245
0.416454 -0.097429 1.118677
0.564973 -0.103089 1.130756
0.701333 -0.100828 1.142054
0.824305 -0.095264 1.152103
0.935626 -0.088627 1.159942
1.026681 -0.082418 1.163363
-0.073565 0.066359 1.141876
0.048384 0.040824 1.168059
0.249513 0.001354 1.185974
0.436896 -0.025151 1.198773
0.616220 -0.042977 1.205966
0.779777 -0.052145 1.208651
0.924865 -0.054538 1.199005
1.053168 -0.052737 1.180359
1.155463 -0.049079 1.164875
-0.116221 0.220563 1.208073
-0.060277 0.197568 1.261711
0.163487 0.146055 1.250994
0.422327 0.086783 1.230843
0.656254 0.045788 1.209140
0.865714 0.018694 1.187037
1.040849 0.006951 1.165527
1.168392 0.016912 1.144722
1.258669 0.032612 1.127594
-0.165943 0.412273 1.223666
-0.162940 0.399931 1.226669
-0.008713 0.352669 1.217979
0.296820 0.268636 1.198098
0.627124 0.186590 1.174163
0.886025 0.145229 1.149029
1.084974 0.129887 1.125150
1.234284 0.132666 1.103261
1.285843 0.151591 1.054614
-0.219032 0.630511 1.170577
-0.218453 0.628130 1.171156
-0.213115 0.606187 1.176494
0.084071 0.528789 1.155952
0.464840 0.421832 1.131796
0.816985 0.336114 1.105790
1.075154 0.294755 1.075965
1.255276 0.285578 0.981123
1.253354 0.305016 0.919799
-0.260652 0.820860 1.029772
-0.267124 0.836378 1.080378
-0.269078 0.836233 1.120532
-0.116116 0.796320 1.109980
0.223721 0.707946 1.086453
0.653924 0.595959 0.964124
0.965567 0.530549 0.871991
1.213893 0.483391 0.797122
1.215735 0.487214 0.740290
-0.292261 0.971236 0.892926
-0.303251 1.007950 0.925508
-0.310813 1.033216 0.947915
-0.239570 1.028232 0.942586
0.037040 0.974564 0.891624
0.453483 0.863635 0.787711
0.834183 0.763353 0.700590
1.055170 0.727829 0.653585
1.165271 0.708071 0.620769
-0.314526 1.077034 0.797150
-0.329653 1.133284 0.812577
-0.335072 1.152779 0.821475
-0.266643 1.145760 0.801284
-0.050232 1.123662 0.735144
0.252165 1.092666 0.645412
0.689945 0.976932 0.604515
0.972181 0.889499 0.664033
1.110121 0.878518 0.639901
-0.332280 1.155570 0.750810
-0.322827 1.153908 0.763740
-0.307727 1.152118 0.764750
-0.220592 1.143374 0.734636
-0.051913 1.126185 0.682307
0.226672 1.097160 0.610293
0.573907 1.059614 0.551580
0.910617 1.019570 0.577194
1.085001 0.987549 0.661090
-0.048283 -0.048283 1.222329
0.093432 -0.064705 1.223304
0.255522 -0.083579 1.226474
0.405274 -0.093428 1.232512
0.545335 -0.092269 1.240218
0.672785 -0.085157 1.243161
0.787965 -0.074758 1.223983
0.891786 -0.064108 1.206342
0.977389 -0.055653 1.191886
-0.078680 0.064601 1.254083
0.049495 0.041398 1.278239
0.241900 0.007153 1.278473
0.422867 -0.014557 1.258905
0.593064 -0.026961 1.238277
0.747336 -0.031413 1.217694
0.883602 -0.030622 1.198201
1.004025 -0.027116 1.180195
1.099870 -0.022333 1.165310
-0.117711 0.214007 1.271898
-0.037404 0.194067 1.266076
0.168186 0.150293 1.249153
0.411163 0.096887 1.229616
0.630432 0.060854 1.208608
0.827298 0.037288 1.187308
0.991598 0.028553 1.166495
1.114696 0.038443 1.146338
1.205423 0.051632 1.129843
-0.161783 0.395173 1.227826
-0.159413 0.385431 1.230196
0.020712 0.340263 1.217262
0.296290 0.267902 1.198377
0.604144 0.193999 1.175356
0.848672 0.156057 1.151306
1.041092 0.140903 1.128298
1.189002 0.141853 1.107114
1.284032 0.151626 1.090959
-0.211182 0.598240 1.178427
-0.211110 0.597943 1.178499
-0.156963 0.574434 1.177369
0.112319 0.506620 1.158112
0.455861 0.413607 1.135349
0.790568 0.332512 1.110527
1.039629 0.292289 1.086469
1.227362 0.276621 1.064267
1.250882 0.287896 1.057810
-0.256067 0.782749 1.133543
-0.260423 0.800655 1.129186
-0.260905 0.802637 1.128704
-0.075069 0.760676 1.114072
0.240065 0.679039 1.092168
0.626475 0.570130 1.067756
0.965337 0.486966 1.042920
1.209352 0.446123 1.019748
1.211684 0.449029 1.018612
-0.291509 0.934635 1.066208
-0.301902 0.971167 1.087707
-0.308158 0.996884 1.081451
-0.211508 0.988613 1.070077
0.047078 0.935282 1.048312
0.396183 0.843670 1.024373
0.804707 0.733507 0.997182
1.088185 0.672126 0.961081
1.166548 0.645697 0.916183
-0.315431 1.048641 0.961602
-0.331719 1.103080 1.009784
-0.343928 1.143923 1.045681
-0.266028 1.135299 1.037058
-0.067928 1.113369 1.015128
0.212874 1.082285 0.984044
0.621768 0.976316 0.884990
0.968145 0.885736 0.807784
1.119028 0.859927 0.771416
-0.338688 1.149163 0.913024
-0.302870 1.143953 0.937303
-0.303885 1.142277 0.978010
-0.233432 1.133755 0.986603
-0.079793 1.117325 0.956480
0.157981 1.092958 0.885810
0.461564 1.061901 0.794348
0.866797 1.017430 0.740680
1.082993 0.988346 0.777889
-0.052805 -0.052805 1.336804
0.091081 -0.068733 1.320876
0.252184 -0.081415 1.301611
0.396251 -0.082272 1.281472
0.529890 -0.075232 1.260616
0.649820 -0.062441 1.240102
0.756569 -0.047821 1.220944
0.852511 -0.033725 1.203460
0.931561 -0.022731 1.189227
-0.081997 0.067195 1.307612
0.056291 0.047510 1.293519
0.238724 0.019505 1.275492
0.413302 0.001284 1.255860
0.573790 -0.006337 1.235277
0.718214 -0.006333 1.214849
0.845105 -0.001704 1.195616
0.957626 0.004400 1.178006
1.047657 0.010639 1.163540
-0.117685 0.213901 1.271924
-0.013178 0.194641 1.262490
0.176444 0.157802 1.245899
0.403484 0.111107 1.226753
0.609233 0.080458 1.206163
0.793588 0.061427 1.185373
0.946709 0.056903 1.164972
1.066644 0.065857 1.145522
1.155755 0.077858 1.129586
-0.159194 0.384531 1.230415
-0.132396 0.375097 1.229244
0.051854 0.334569 1.214438
0.301807 0.272771 1.196245
0.588130 0.206937 1.174028
0.818643 0.172810 1.150901
1.002749 0.159064 1.128678
1.147074 0.159421 1.108166
1.250831 0.166839 1.091431
-0.205441 0.574639 1.184168
-0.206014 0.576994 1.183595
-0.101571 0.552141 1.175725
0.142056 0.493471 1.157557
0.454365 0.412237 1.135942
0.771054 0.336768 1.112105
1.009290 0.299066 1.088879
1.192660 0.283263 1.067331
1.250564 0.289204 1.057492
-0.249198 0.754512 1.140411
-0.253730 0.773141 1.135880
-0.234244 0.774542 1.132735
-0.029841 0.733429 1.115240
0.261437 0.659601 1.094542
0.617559 0.561965 1.071284
0.943748 0.482001 1.047352
1.181790 0.441792 1.024849
1.213886 0.439975 1.020814
-0.286002 0.905806 1.103607
-0.295122 0.943295 1.094487
-0.301367 0.968964 1.088243
-0.165145 0.956491 1.072439
0.077243 0.906040 1.052165
0.404916 0.820118 1.029678
0.782432 0.712842 1.006070
1.102304 0.633608 0.982829
1.172050 0.611951 0.978978
-0.314760 1.024023 1.074849
-0.327691 1.077178 1.061918
-0.331257 1.124512 1.049279
-0.235593 1.131930 1.033689
-0.051143 1.111511 1.013270
0.220736 1.061160 0.988797
0.572840 0.967433 0.965022
0.949774 0.866791 0.939655
1.120493 0.823890 0.927421
-0.343928 1.143923 1.045681
-0.261878 1.134840 1.036598
-0.273393 1.136114 1.037873
-0.215222 1.129675 1.031434
-0.075480 1.114206 1.015964
0.146697 1.089611 0.991369
0.432831 1.057936 0.959694
0.817143 1.015392 0.917151
1.081013 0.986182 0.887941
