vendor/NativeMatch/NativeMatch.ofx.bundle/Contents/Resources/Cubes/Lustrous_Filter_1.cube
LUT_3D_SIZE 5
0.000000 0.000000 0.000000
0.261930 -0.009191 -0.024773
0.537679 0.003245 -0.065179
0.750516 0.045249 -0.098736
0.897957 0.091437 -0.117973
-0.074379 0.305754 -0.074379
0.246413 0.221993 -0.021021
0.571717 0.212886 -0.074192
0.836925 0.229877 -0.110057
0.998253 0.266578 -0.115476
-0.172291 0.708242 -0.172291
0.042811 0.628883 -0.180679
0.546092 0.478500 0.029205
0.835576 0.478748 0.017742
1.038050 0.497214 0.002769
-0.243695 0.970014 -0.080200
-0.130575 0.976172 -0.131162
0.419635 0.835001 -0.074633
0.842801 0.722213 0.149580
1.059020 0.725532 0.175986
-0.290528 1.118086 0.101823
-0.130954 1.164182 0.027353
0.263364 1.120829 -0.023061
0.796347 0.976816 0.113442
1.085305 0.916615 0.276571
-0.012958 -0.012958 0.328034
0.283577 -0.045581 0.324112
0.614559 -0.056816 0.267436
0.868334 -0.023500 0.177342
1.027671 0.024967 0.117188
-0.092674 0.306217 0.292177
0.240283 0.221539 0.214138
0.666822 0.169304 0.129886
0.960881 0.178275 0.063843
1.111966 0.223721 0.039312
-0.197384 0.759734 0.068617
-0.089941 0.695412 0.022063
0.544082 0.492240 0.181864
0.877974 0.480659 0.121525
1.095854 0.493648 0.096376
-0.261532 1.006925 0.089455
-0.222336 1.032898 0.028121
0.356568 0.889256 0.025687
0.843418 0.745343 0.248539
1.076508 0.744761 0.253521
-0.302935 1.142985 0.223812
-0.165303 1.162516 0.155239
0.215032 1.121762 0.082538
0.763566 1.025986 0.164787
1.087258 0.944830 0.346929
-0.028738 -0.028738 0.727522
0.272695 -0.064712 0.753276
0.601165 -0.098214 0.763538
0.889308 -0.094223 0.735388
1.111847 -0.077536 0.680240
-0.106645 0.256706 0.828854
0.187209 0.169239 0.857969
0.724326 0.063385 0.772568
1.134055 0.032451 0.626380
1.330786 0.081292 0.475888
-0.217072 0.720282 0.668790
-0.210273 0.697609 0.648434
0.539121 0.492052 0.455423
1.013846 0.420555 0.351795
1.242477 0.432766 0.304480
-0.282811 1.025826 0.421248
-0.295617 1.087485 0.362013
0.206196 0.966768 0.267963
0.841352 0.763894 0.422540
1.116306 0.753036 0.377621
-0.317964 1.160595 0.436223
-0.240624 1.160967 0.387954
0.113915 1.124261 0.291032
0.705836 1.056010 0.287345
1.087623 0.972202 0.471484
-0.042933 -0.042933 1.086881
0.259840 -0.078736 1.105245
0.564973 -0.103089 1.130756
0.824305 -0.095264 1.152103
1.026681 -0.082418 1.163363
-0.116221 0.220563 1.208073
0.163487 0.146055 1.250994
0.656254 0.045788 1.209140
1.040849 0.006951 1.165527
1.258669 0.032612 1.127594
-0.219032 0.630511 1.170577
-0.213115 0.606187 1.176494
0.464840 0.421832 1.131796
1.075154 0.294755 1.075965
1.253354 0.305016 0.919799
-0.292261 0.971236 0.892926
-0.310813 1.033216 0.947915
0.037040 0.974564 0.891624
0.834183 0.763353 0.700590
1.165271 0.708071 0.620769
-0.332280 1.155570 0.750810
-0.307727 1.152118 0.764750
-0.051913 1.126185 0.682307
0.573907 1.059614 0.551580
1.085001 0.987549 0.661090
-0.052805 -0.052805 1.336804
0.252184 -0.081415 1.301611
0.529890 -0.075232 1.260616
0.756569 -0.047821 1.220944
0.931561 -0.022731 1.189227
-0.117685 0.213901 1.271924
0.176444 0.157802 1.245899
0.609233 0.080458 1.206163
0.946709 0.056903 1.164972
1.155755 0.077858 1.129586
-0.205441 0.574639 1.184168
-0.101571 0.552141 1.175725
0.454365 0.412237 1.135942
1.009290 0.299066 1.088879
1.250564 0.289204 1.057492
-0.286002 0.905806 1.103607
-0.301367 0.968964 1.088243
0.077243 0.906040 1.052165
0.782432 0.712842 1.006070
1.172050 0.611951 0.978978
-0.343928 1.143923 1.045681
-0.273393 1.136114 1.037873
-0.075480 1.114206 1.015964
0.432831 1.057936 0.959694
1.081013 0.986182 0.887941
