vendor/NativeMatch/NativeMatch.ofx.bundle/Contents/Resources/Cubes/Lustrous_Filter_1.cube
LUT_3D_SIZE 33
0.000000 0.000000 0.000000
0.024848 -0.001401 -0.001794
0.054796 -0.002932 -0.003948
0.086681 -0.004300 -0.006381
0.120102 -0.005599 -0.009261
0.154410 -0.006701 -0.012476
0.189401 -0.007601 -0.016047
0.225188 -0.008397 -0.020104
0.261930 -0.009191 -0.024773
0.298978 -0.009747 -0.029823
0.336120 -0.010001 -0.035220
0.371117 -0.009051 -0.040098
0.405802 -0.007661 -0.045222
0.439876 -0.005744 -0.050355
0.473472 -0.003380 -0.055517
0.506118 -0.000407 -0.060432
0.537679 0.003245 -0.065179
0.568321 0.007346 -0.069917
0.598172 0.011672 -0.074731
0.626254 0.016588 -0.079109
0.652967 0.021943 -0.083348
0.678981 0.027432 -0.087644
0.704354 0.033008 -0.091971
0.727698 0.039154 -0.095433
0.750516 0.045249 -0.098736
0.772651 0.051359 -0.101990
0.794248 0.057386 -0.105243
0.813832 0.063830 -0.107596
0.833074 0.070022 -0.110172
0.851731 0.075950 -0.112803
0.869266 0.081648 -0.115136
0.884965 0.087064 -0.116737
0.897957 0.091437 -0.117973
-0.006031 0.024311 -0.003547
0.021019 0.021501 -0.004751
0.052814 0.019029 -0.006695
0.085348 0.017370 -0.009251
0.119663 0.015693 -0.012436
0.155080 0.014117 -0.015993
0.191191 0.012728 -0.019856
0.227527 0.011679 -0.023965
0.264720 0.010697 -0.028762
0.302365 0.009914 -0.034113
0.339815 0.009562 -0.039731
0.377074 0.009605 -0.045582
0.413094 0.010401 -0.050960
0.447328 0.012190 -0.055821
0.480947 0.014468 -0.060595
0.514169 0.017151 -0.065451
0.546911 0.020276 -0.070421
0.578132 0.024082 -0.075059
0.607528 0.028537 -0.079377
0.636120 0.033225 -0.083858
0.663841 0.038137 -0.088339
0.689899 0.043550 -0.092323
0.714567 0.049309 -0.095801
0.738893 0.054999 -0.099377
0.762380 0.060799 -0.102840
0.784073 0.067017 -0.105519
0.804958 0.073282 -0.108187
0.825351 0.079419 -0.110990
0.845100 0.085403 -0.113771
0.862940 0.091580 -0.115608
0.880331 0.097237 -0.117350
0.896447 0.102465 -0.119025
0.909726 0.106736 -0.120462
-0.013517 0.054616 -0.008639
0.014161 0.050702 -0.009268
0.048607 0.046782 -0.010407
0.083020 0.043990 -0.011816
0.117295 0.042225 -0.014418
0.153259 0.040464 -0.018373
0.190131 0.038823 -0.022827
0.227700 0.037325 -0.027710
0.265877 0.035975 -0.033084
0.304788 0.034652 -0.038835
0.343359 0.033803 -0.044716
0.381444 0.033497 -0.050821
0.418026 0.034041 -0.056292
0.454070 0.035019 -0.061504
0.489411 0.036537 -0.066666
0.522858 0.039024 -0.071051
0.555745 0.042012 -0.075675
0.587706 0.045487 -0.080461
0.618619 0.049298 -0.085258
0.647250 0.053867 -0.089195
0.674752 0.058791 -0.093166
0.701542 0.063801 -0.096907
0.727571 0.068959 -0.100696
0.751385 0.074743 -0.103443
0.774555 0.080607 -0.106416
0.797012 0.086527 -0.109482
0.818416 0.092555 -0.112226
0.838418 0.098769 -0.114423
0.857746 0.104807 -0.116397
0.876654 0.110518 -0.118520
0.894182 0.116098 -0.120208
0.909769 0.121464 -0.121250
0.922751 0.125819 -0.122360
-0.021834 0.088547 -0.015625
0.003680 0.084090 -0.015560
0.041252 0.078385 -0.015393
0.078673 0.073794 -0.015093
0.114157 0.071119 -0.016018
0.150135 0.069201 -0.019179
0.187380 0.067386 -0.023661
0.225540 0.065696 -0.029036
0.264416 0.064127 -0.035031
0.303996 0.062642 -0.041623
0.344513 0.061131 -0.048989
0.383666 0.060279 -0.054965
0.421873 0.060075 -0.060668
0.458670 0.060674 -0.065807
0.494695 0.061866 -0.070993
0.530071 0.063593 -0.076302
0.564005 0.066068 -0.080893
0.596326 0.069279 -0.085202
0.627505 0.072910 -0.089732
0.657516 0.076874 -0.094006
0.686064 0.081222 -0.097626
0.712967 0.086073 -0.100805
0.738907 0.091190 -0.104151
0.763964 0.096498 -0.107568
0.787411 0.102173 -0.110250
0.809580 0.108107 -0.112636
0.831265 0.113961 -0.115179
0.852225 0.119725 -0.117465
0.871726 0.125596 -0.119003
0.890010 0.131463 -0.120341
0.907483 0.137049 -0.121906
0.923864 0.142171 -0.123734
0.936798 0.146528 -0.124776
-0.030881 0.125828 -0.025142
-0.010586 0.121177 -0.023984
0.030087 0.113861 -0.023371
0.071484 0.106949 -0.021129
0.110312 0.101942 -0.018419
0.146145 0.099509 -0.018526
0.183427 0.097609 -0.022649
0.221772 0.095791 -0.027817
0.261051 0.094085 -0.034114
0.301181 0.092449 -0.041313
0.342189 0.090780 -0.049090
0.383175 0.089357 -0.056743
0.423004 0.088552 -0.063425
0.461243 0.088509 -0.068881
0.498294 0.089197 -0.074048
0.534463 0.090525 -0.079279
0.569899 0.092427 -0.084685
0.603709 0.095004 -0.089463
0.635604 0.098108 -0.093054
0.666323 0.101660 -0.096980
0.695733 0.105637 -0.100839
0.723888 0.109986 -0.104582
0.749907 0.114925 -0.107181
0.775101 0.120089 -0.110184
0.799251 0.125467 -0.113102
0.822596 0.130834 -0.115514
0.844096 0.136568 -0.116950
0.865039 0.142272 -0.118869
0.884947 0.148011 -0.120770
0.903836 0.153651 -0.122518
0.921114 0.159232 -0.123622
0.936959 0.164466 -0.124683
0.950286 0.168610 -0.125610
-0.040677 0.166687 -0.037975
-0.029230 0.162065 -0.035190
0.014231 0.153279 -0.034102
0.059662 0.144253 -0.031150
0.103752 0.136207 -0.026034
0.143132 0.130949 -0.020462
0.179296 0.128707 -0.019952
0.217147 0.126982 -0.024338
0.256386 0.125214 -0.030204
0.296704 0.123467 -0.037287
0.337984 0.121805 -0.045788
0.379844 0.120174 -0.054570
0.420947 0.118980 -0.062458
0.461116 0.118378 -0.069904
0.499527 0.118453 -0.075324
0.536958 0.119185 -0.080659
0.573504 0.120486 -0.085746
0.608743 0.122421 -0.090801
0.642428 0.124872 -0.095529
0.673807 0.128001 -0.098916
0.703831 0.131635 -0.102547
0.732478 0.135713 -0.106117
0.760220 0.140073 -0.110068
0.785728 0.144839 -0.111790
0.810492 0.149802 -0.114093
0.833984 0.155055 -0.116283
0.856792 0.160372 -0.118913
0.877482 0.166028 -0.120011
0.897483 0.171652 -0.121580
0.916603 0.177152 -0.123183
0.934807 0.182350 -0.124635
0.951030 0.187309 -0.125231
0.964035 0.191504 -0.125611
-0.051399 0.211288 -0.051399
-0.050334 0.206881 -0.050187
-0.006602 0.196707 -0.048200
0.042432 0.185783 -0.044593
0.091396 0.175159 -0.038492
0.137433 0.166076 -0.029965
0.176892 0.160651 -0.021360
0.213496 0.158582 -0.020898
0.251297 0.157016 -0.024185
0.291218 0.155371 -0.030757
0.332351 0.153701 -0.038769
0.374408 0.152137 -0.048303
0.416672 0.150690 -0.057764
0.457806 0.149754 -0.065911
0.498132 0.149320 -0.073540
0.537350 0.149279 -0.079384
0.575359 0.149899 -0.084648
0.611719 0.151302 -0.089773
0.646440 0.153334 -0.094939
0.679525 0.155913 -0.099786
0.710400 0.159052 -0.102990
0.740075 0.162557 -0.106181
0.768325 0.166482 -0.109185
0.795637 0.170702 -0.112671
0.820656 0.175419 -0.114408
0.844649 0.180389 -0.116451
0.867388 0.185617 -0.118446
0.889525 0.190806 -0.120757
0.909995 0.196052 -0.121566
0.929246 0.201328 -0.122343
0.947498 0.206453 -0.123537
0.964023 0.211355 -0.124584
0.977608 0.215385 -0.125566
-0.062912 0.258616 -0.062912
-0.061751 0.253841 -0.061751
-0.033620 0.244572 -0.063156
0.019492 0.231684 -0.062104
0.072698 0.218821 -0.055200
0.124381 0.206727 -0.045401
0.171940 0.196652 -0.033156
0.211315 0.191053 -0.021628
0.248391 0.189009 -0.020675
0.285825 0.187594 -0.022222
0.326195 0.186142 -0.029445
0.367921 0.184637 -0.038445
0.410345 0.183275 -0.048696
0.452701 0.182021 -0.058198
0.494386 0.181096 -0.066653
0.535173 0.180727 -0.074712
0.574849 0.180796 -0.081312
0.612599 0.181593 -0.086813
0.648432 0.183088 -0.092013
0.682781 0.185107 -0.097154
0.715616 0.187557 -0.101758
0.746337 0.190499 -0.104719
0.775522 0.193971 -0.107755
0.803076 0.197951 -0.110619
0.829551 0.202253 -0.113852
0.854262 0.206811 -0.115572
0.877906 0.211486 -0.116996
0.900223 0.216420 -0.118450
0.921565 0.221432 -0.120229
0.941426 0.226479 -0.121346
0.959535 0.231523 -0.121765
0.976290 0.236283 -0.122659
0.989878 0.240203 -0.123081
-0.074379 0.305754 -0.074379
-0.073337 0.301467 -0.073337
-0.064647 0.294893 -0.072740
-0.010007 0.281807 -0.076835
0.047681 0.267130 -0.076382
0.104649 0.252243 -0.065537
0.158570 0.238718 -0.051533
0.206770 0.227991 -0.035704
0.246413 0.221993 -0.021021
0.283895 0.219882 -0.019143
0.320717 0.218576 -0.018277
0.361461 0.217329 -0.026142
0.403603 0.215998 -0.035847
0.446046 0.214787 -0.045781
0.488670 0.213803 -0.056261
0.530742 0.213049 -0.065550
0.571717 0.212886 -0.074192
0.611165 0.213143 -0.081159
0.648876 0.213806 -0.086783
0.684556 0.215167 -0.091880
0.718528 0.217174 -0.097052
0.750717 0.219737 -0.101722
0.780872 0.222724 -0.104693
0.809582 0.226141 -0.107556
0.836925 0.229877 -0.110057
0.862998 0.233972 -0.112799
0.887326 0.238347 -0.114386
0.910186 0.242964 -0.115570
0.931755 0.247788 -0.116944
0.952191 0.252617 -0.118383
0.971292 0.257271 -0.119293
0.986248 0.262294 -0.117099
0.998253 0.266578 -0.115476
-0.086210 0.354388 -0.086210
-0.085150 0.350028 -0.085150
-0.083723 0.344165 -0.083723
-0.040782 0.332502 -0.086559
0.017990 0.317985 -0.090840
0.078728 0.302055 -0.089046
0.138323 0.285694 -0.074768
0.193911 0.270927 -0.056481
0.242284 0.259717 -0.037003
0.282148 0.253304 -0.019196
0.319955 0.251129 -0.016419
0.357079 0.249859 -0.015223
0.397265 0.248836 -0.021614
0.439265 0.247750 -0.031041
0.481556 0.246801 -0.040833
0.524355 0.246105 -0.052169
0.567085 0.245384 -0.062305
0.608000 0.245324 -0.071298
0.647154 0.245582 -0.078446
0.684371 0.246376 -0.084474
0.719476 0.247849 -0.089736
0.752925 0.249923 -0.095040
0.784953 0.252311 -0.099610
0.814909 0.255094 -0.102329
0.843192 0.258378 -0.104865
0.869883 0.262131 -0.107402
0.895201 0.266236 -0.110089
0.918668 0.270549 -0.111255
0.939843 0.275150 -0.110555
0.958983 0.280131 -0.109589
0.975830 0.285388 -0.107998
0.991046 0.290486 -0.106816
1.003226 0.294626 -0.104897
-0.098333 0.404220 -0.098333
-0.097257 0.399798 -0.097257
-0.095810 0.393850 -0.095810
-0.072873 0.384277 -0.096396
-0.013144 0.369481 -0.100736
0.049363 0.353409 -0.105114
0.112405 0.336280 -0.099427
0.173608 0.318892 -0.081782
0.230258 0.303137 -0.059485
0.278488 0.291552 -0.036151
0.318453 0.284912 -0.016146
0.356523 0.282678 -0.012416
0.393909 0.281447 -0.010850
0.433232 0.280675 -0.015258
0.474977 0.279783 -0.023990
0.517483 0.278955 -0.033933
0.560856 0.278368 -0.046309
0.603025 0.278049 -0.057054
0.643305 0.278208 -0.066454
0.681882 0.278601 -0.073797
0.718981 0.279304 -0.080087
0.753897 0.280654 -0.085353
0.786965 0.282671 -0.090609
0.818328 0.285166 -0.095356
0.847471 0.288032 -0.097918
0.874528 0.291388 -0.099366
0.899562 0.295253 -0.100138
0.922358 0.299684 -0.100240
0.943188 0.304414 -0.099337
0.962299 0.309198 -0.097298
0.979922 0.314091 -0.095774
0.995404 0.318881 -0.093724
1.008037 0.322892 -0.092289
-0.110634 0.454786 -0.110634
-0.109587 0.450482 -0.109587
-0.108166 0.444640 -0.108166
-0.106411 0.437427 -0.106411
-0.046488 0.422495 -0.110740
0.017073 0.406085 -0.115174
0.082642 0.388566 -0.119583
0.147607 0.369984 -0.106224
0.210248 0.351604 -0.085240
0.267490 0.335205 -0.059791
0.315368 0.323478 -0.033532
0.355279 0.316762 -0.011732
0.393576 0.314488 -0.007188
0.431179 0.313290 -0.005241
0.469567 0.312658 -0.007024
0.511353 0.311958 -0.015819
0.553788 0.311367 -0.025836
0.596468 0.311161 -0.038365
0.638146 0.311010 -0.049635
0.678183 0.311181 -0.059449
0.716536 0.311510 -0.066937
0.752949 0.312402 -0.073573
0.786967 0.313935 -0.078727
0.818843 0.316113 -0.083137
0.848463 0.318831 -0.086114
0.875767 0.321881 -0.086620
0.900782 0.325531 -0.086264
0.923928 0.329696 -0.085912
0.945180 0.334250 -0.085189
0.965317 0.338724 -0.084134
0.983741 0.343079 -0.081901
1.000319 0.347405 -0.080207
1.013407 0.351183 -0.078719
-0.123057 0.505855 -0.123057
-0.122069 0.501794 -0.122069
-0.120707 0.496193 -0.120707
-0.119002 0.489185 -0.119002
-0.082086 0.476903 -0.120813
-0.017760 0.460330 -0.125309
0.049257 0.442418 -0.129814
0.117532 0.423280 -0.129309
0.184399 0.403354 -0.111058
0.248153 0.384020 -0.086553
0.305516 0.367115 -0.057441
0.352824 0.355394 -0.028643
0.392583 0.348805 -0.006000
0.431098 0.346526 -0.000871
0.468865 0.345341 0.001646
0.505982 0.344880 0.003101
0.548149 0.344328 -0.006447
0.590209 0.343965 -0.016669
0.631899 0.343908 -0.028414
0.672818 0.344079 -0.040365
0.712178 0.344454 -0.050527
0.749515 0.344914 -0.057259
0.784363 0.346026 -0.062327
0.816592 0.347816 -0.065654
0.846485 0.350375 -0.068516
0.874109 0.353509 -0.070246
0.900633 0.356584 -0.070716
0.925144 0.360038 -0.070138
0.947805 0.363952 -0.069653
0.968447 0.368201 -0.068700
0.987508 0.372550 -0.068003
1.004524 0.376579 -0.065912
1.018279 0.380014 -0.064354
-0.135534 0.557142 -0.135534
-0.134631 0.553433 -0.134631
-0.133360 0.548207 -0.133360
-0.131740 0.541550 -0.131740
-0.118879 0.532253 -0.130978
-0.054446 0.515833 -0.135532
0.013613 0.497649 -0.140109
0.083799 0.478221 -0.144641
0.153894 0.457562 -0.135531
0.222045 0.436610 -0.113566
0.286607 0.416445 -0.085668
0.343989 0.399138 -0.053403
0.390596 0.387491 -0.022112
0.430339 0.381007 0.001095
0.469052 0.378741 0.006696
0.506968 0.377570 0.009716
0.543997 0.377163 0.012005
0.585078 0.376897 0.003709
0.625823 0.376788 -0.005440
0.665998 0.376994 -0.015716
0.705604 0.377464 -0.026938
0.743225 0.378075 -0.035097
0.779169 0.378850 -0.041161
0.812691 0.380299 -0.045944
0.844012 0.382225 -0.049131
0.873308 0.384740 -0.051855
0.900278 0.387781 -0.053260
0.926133 0.390770 -0.053654
0.949700 0.394234 -0.053142
0.971406 0.398068 -0.052735
0.991252 0.401947 -0.051610
1.009066 0.405860 -0.050882
1.023538 0.408965 -0.049421
-0.147960 0.608223 -0.147960
-0.147160 0.604935 -0.147160
-0.146024 0.600266 -0.146024
-0.144548 0.594196 -0.144547
-0.142696 0.586585 -0.142696
-0.092127 0.572050 -0.145812
-0.024274 0.554188 -0.150450
0.046650 0.534667 -0.155061
0.119218 0.513962 -0.158647
0.191083 0.491751 -0.139621
0.260739 0.469641 -0.114176
0.325888 0.448760 -0.082899
0.382826 0.431298 -0.047708
0.428717 0.419683 -0.013818
0.468536 0.413445 0.008932
0.507417 0.411101 0.015463
0.545430 0.409948 0.019075
0.581829 0.409675 0.022228
0.621451 0.409611 0.015606
0.660589 0.409703 0.008434
0.699045 0.410184 -0.000025
0.737111 0.411062 -0.010606
0.773799 0.411798 -0.018281
0.808863 0.412705 -0.024119
0.841566 0.414233 -0.028684
0.871955 0.416262 -0.031643
0.900228 0.418931 -0.034361
0.926353 0.421937 -0.035499
0.951510 0.424790 -0.035821
0.974404 0.428011 -0.035260
0.995277 0.431544 -0.034925
1.013530 0.435174 -0.033864
1.028157 0.438350 -0.033145
-0.160237 0.658690 -0.160237
-0.159597 0.656059 -0.159597
-0.158640 0.652126 -0.158640
-0.157329 0.646738 -0.157329
-0.155640 0.639793 -0.155640
-0.130678 0.628725 -0.156097
-0.063425 0.611437 -0.160808
0.007692 0.592180 -0.165520
0.081559 0.571273 -0.170162
0.156285 0.548855 -0.164111
0.229523 0.525577 -0.141534
0.300130 0.502534 -0.112681
0.365735 0.480933 -0.077835
0.422219 0.463253 -0.039408
0.467208 0.451760 -0.002979
0.507124 0.445958 0.018292
0.546171 0.443574 0.025492
0.583746 0.442540 0.029565
0.619885 0.442277 0.032400
0.657299 0.442443 0.029056
0.694703 0.442762 0.023972
0.731871 0.443410 0.016744
0.768953 0.444455 0.006583
0.804711 0.445307 -0.000662
0.838529 0.446493 -0.006235
0.870292 0.448133 -0.010604
0.899880 0.450163 -0.013341
0.927400 0.452776 -0.015920
0.952738 0.455691 -0.016989
0.976675 0.458587 -0.017349
0.998477 0.461611 -0.016734
1.018070 0.464722 -0.016349
1.033514 0.467519 -0.015732
-0.172291 0.708242 -0.172291
-0.171848 0.706420 -0.171848
-0.171102 0.703354 -0.171102
-0.170008 0.698856 -0.170008
-0.168537 0.692812 -0.168537
-0.166657 0.685082 -0.166657
-0.102484 0.668713 -0.171188
-0.031247 0.649627 -0.175964
0.042811 0.628883 -0.180679
0.119029 0.606568 -0.183620
0.195665 0.581895 -0.162468
0.270556 0.557079 -0.135047
0.341666 0.533174 -0.102081
0.407049 0.511331 -0.064529
0.462176 0.494461 -0.025946
0.505961 0.483805 0.010105
0.546092 0.478500 0.029205
0.584752 0.476244 0.036723
0.621726 0.475245 0.041184
0.657367 0.475008 0.044136
0.693041 0.475294 0.043413
0.728996 0.475779 0.039938
0.764550 0.476667 0.034279
0.800563 0.477881 0.024631
0.835576 0.478748 0.017742
0.868441 0.480025 0.012506
0.899141 0.481808 0.008298
0.927552 0.483987 0.005712
0.954218 0.486517 0.003324
0.978810 0.489237 0.002248
1.001745 0.491898 0.001908
1.021921 0.494701 0.002402
1.038050 0.497214 0.002769
-0.183945 0.756147 -0.183945
-0.183700 0.755144 -0.183700
-0.183188 0.753035 -0.183188
-0.182252 0.749188 -0.182252
-0.180839 0.743381 -0.180839
-0.179071 0.736112 -0.179071
-0.136571 0.722484 -0.181298
-0.065049 0.703146 -0.186044
0.009711 0.682092 -0.190772
0.086572 0.659386 -0.189857
0.163795 0.635112 -0.172307
0.240084 0.610477 -0.149313
0.313980 0.586122 -0.120946
0.384055 0.562745 -0.087213
0.448596 0.541371 -0.049074
0.502109 0.525573 -0.011060
0.545039 0.515584 0.024569
0.584744 0.510910 0.041545
0.622836 0.508751 0.049042
0.659214 0.507789 0.053809
0.694155 0.507590 0.057273
0.728357 0.507964 0.058594
0.763107 0.508549 0.056384
0.797547 0.509537 0.051671
0.832013 0.510966 0.043337
0.866050 0.511937 0.036783
0.897934 0.513284 0.031868
0.927759 0.515061 0.027850
0.955323 0.517186 0.025297
0.980664 0.519749 0.023180
1.003951 0.522400 0.022030
1.025423 0.524736 0.021696
1.042371 0.526904 0.021781
-0.194452 0.799342 -0.194452
-0.194278 0.798625 -0.194278
-0.193846 0.796849 -0.193846
-0.192976 0.793274 -0.192976
-0.191619 0.787696 -0.191619
-0.189880 0.780544 -0.189880
-0.159313 0.768664 -0.190904
-0.090622 0.751010 -0.195717
-0.018231 0.731488 -0.200355
0.056298 0.709868 -0.191327
0.132437 0.686787 -0.177246
0.209104 0.662743 -0.158343
0.284798 0.638413 -0.134593
0.358086 0.614367 -0.105392
0.427240 0.591448 -0.070791
0.490833 0.570569 -0.031975
0.542574 0.555885 0.005608
0.583965 0.546854 0.040144
0.623016 0.542730 0.055064
0.660522 0.540719 0.062284
0.696291 0.539808 0.067254
0.730545 0.539640 0.071133
0.763665 0.540059 0.073686
0.796965 0.540764 0.073136
0.830259 0.541834 0.069415
0.863552 0.543305 0.062189
0.896585 0.544377 0.055858
0.927092 0.545902 0.051447
0.955883 0.547672 0.047685
0.982456 0.549719 0.045143
1.006635 0.552084 0.043260
1.028146 0.554576 0.042054
1.045823 0.556473 0.041716
-0.203755 0.834949 -0.190186
-0.203547 0.834750 -0.193372
-0.203116 0.833674 -0.196509
-0.202398 0.831289 -0.198722
-0.201354 0.827347 -0.199464
-0.199975 0.821713 -0.198263
-0.178582 0.812234 -0.196995
-0.113362 0.796235 -0.197372
-0.044284 0.778155 -0.194646
0.027969 0.758198 -0.188501
0.102748 0.736487 -0.178096
0.179025 0.713403 -0.163334
0.255324 0.689529 -0.143429
0.330210 0.665541 -0.118489
0.402603 0.641892 -0.088167
0.470925 0.619379 -0.052717
0.533285 0.599207 -0.013628
0.582335 0.586037 0.022887
0.622509 0.577586 0.056533
0.660878 0.573991 0.069503
0.697781 0.572153 0.076315
0.732918 0.571299 0.081446
0.766416 0.571167 0.085800
0.798737 0.571603 0.088939
0.830969 0.572378 0.089238
0.862614 0.573561 0.087418
0.894550 0.575114 0.081365
0.926676 0.576215 0.075134
0.956050 0.577755 0.071106
0.983524 0.579537 0.067704
1.008604 0.581584 0.065209
1.031147 0.583661 0.063567
1.049079 0.585631 0.062260
-0.212627 0.865992 -0.171124
-0.212668 0.866927 -0.175107
-0.212543 0.867253 -0.179312
-0.212146 0.866376 -0.182793
-0.211432 0.864014 -0.185030
-0.210407 0.860012 -0.185099
-0.195679 0.852819 -0.184493
-0.133692 0.838740 -0.186646
-0.067447 0.822491 -0.186254
0.002512 0.804155 -0.182710
0.075199 0.784058 -0.175594
0.149956 0.762327 -0.164032
0.225894 0.739357 -0.147854
0.301803 0.715666 -0.126986
0.376301 0.691844 -0.100981
0.447847 0.668564 -0.069576
0.515216 0.646485 -0.033171
0.574022 0.628181 0.005177
0.621187 0.615910 0.040835
0.660621 0.608008 0.072539
0.698297 0.604710 0.084688
0.734577 0.603051 0.091027
0.769054 0.602260 0.096274
0.801737 0.602167 0.101154
0.833201 0.602626 0.104855
0.864687 0.603427 0.105296
0.895117 0.604626 0.104621
0.924920 0.606346 0.100943
0.956043 0.607484 0.094686
0.984154 0.609018 0.090970
1.010314 0.610657 0.087888
1.033577 0.612562 0.085358
1.052178 0.614193 0.084106
-0.221035 0.894994 -0.150897
-0.221333 0.897063 -0.155545
-0.221522 0.898766 -0.160499
-0.221466 0.899343 -0.164598
-0.221104 0.898513 -0.167617
-0.220411 0.896102 -0.169179
-0.209419 0.890947 -0.170099
-0.150650 0.878785 -0.174047
-0.087602 0.864454 -0.175583
-0.020713 0.847998 -0.174161
0.049654 0.829508 -0.169544
0.122758 0.809231 -0.161277
0.197866 0.787374 -0.148786
0.273596 0.764461 -0.131413
0.348904 0.740997 -0.109232
0.422710 0.717431 -0.081933
0.493599 0.694440 -0.049568
0.558553 0.673397 -0.012537
0.614455 0.656533 0.024720
0.659631 0.645246 0.059305
0.698265 0.638013 0.088576
0.735238 0.634896 0.100448
0.770867 0.633409 0.106341
0.804652 0.632682 0.111669
0.836621 0.632622 0.116719
0.867032 0.633114 0.121278
0.897787 0.633930 0.121704
0.927026 0.635126 0.121969
0.955182 0.636804 0.120183
0.984612 0.638097 0.114486
1.011051 0.639683 0.110998
1.035375 0.641105 0.108291
1.054757 0.642556 0.106048
-0.229002 0.921892 -0.128728
-0.229573 0.925129 -0.133879
-0.230075 0.928196 -0.139547
-0.230340 0.930250 -0.144787
-0.230312 0.930991 -0.149156
-0.229951 0.930172 -0.152222
-0.219832 0.926620 -0.154354
-0.164731 0.916465 -0.159355
-0.104988 0.904064 -0.162468
-0.041009 0.889467 -0.163272
0.026814 0.872729 -0.161236
0.097728 0.854012 -0.155531
0.171011 0.833600 -0.145898
0.245995 0.811748 -0.132045
0.321689 0.788827 -0.113598
0.396745 0.765450 -0.090334
0.469823 0.742138 -0.061714
0.538526 0.719955 -0.028135
0.601160 0.699894 0.008666
0.654351 0.684350 0.044934
0.697625 0.674023 0.078300
0.735408 0.667418 0.105417
0.771685 0.664583 0.116389
0.806604 0.663214 0.122155
0.839654 0.662553 0.127553
0.870871 0.662525 0.132721
0.900385 0.663036 0.137632
0.930151 0.663866 0.138426
0.958176 0.665052 0.139387
0.984832 0.666621 0.139003
1.011841 0.668068 0.134828
1.036717 0.669467 0.130913
1.056531 0.670660 0.128896
-0.236558 0.946867 -0.104959
-0.237366 0.951166 -0.110781
-0.238175 0.955624 -0.117422
-0.238770 0.959186 -0.123770
-0.239082 0.961413 -0.128942
-0.239076 0.962161 -0.132914
-0.227423 0.959996 -0.136623
-0.175629 0.951745 -0.143024
-0.119134 0.941275 -0.147861
-0.058363 0.928573 -0.150336
0.006343 0.913704 -0.150095
0.074721 0.896717 -0.146892
0.146233 0.877753 -0.140200
0.220092 0.857091 -0.129637
0.294938 0.835226 -0.114429
0.370289 0.812382 -0.094589
0.444909 0.789114 -0.069964
0.516297 0.766368 -0.040135
0.582793 0.744968 -0.006059
0.643084 0.725884 0.030562
0.693536 0.711683 0.065736
0.734996 0.702357 0.097410
0.772006 0.696211 0.122935
0.807563 0.693703 0.132757
0.841733 0.692451 0.138364
0.873996 0.691853 0.143825
0.904402 0.691857 0.149086
0.932961 0.692380 0.154278
0.961640 0.693207 0.155432
0.988414 0.694362 0.156791
1.013472 0.695806 0.157313
1.037236 0.697299 0.155610
1.057997 0.698404 0.151755
-0.243695 0.970014 -0.080200
-0.244747 0.975371 -0.086583
-0.245849 0.981063 -0.093655
-0.246771 0.986023 -0.100594
-0.247425 0.989813 -0.106921
-0.247753 0.992126 -0.112230
-0.231901 0.991095 -0.118030
-0.183495 0.984696 -0.125358
-0.130575 0.976172 -0.131162
-0.073109 0.965402 -0.135209
-0.011270 0.952343 -0.137025
0.054504 0.937114 -0.136263
0.123506 0.919820 -0.131863
0.195333 0.900664 -0.123910
0.269320 0.879865 -0.111947
0.344511 0.857817 -0.095755
0.419635 0.835001 -0.074633
0.492605 0.812138 -0.048085
0.561859 0.790083 -0.017461
0.626332 0.769463 0.016637
0.684232 0.751420 0.052807
0.731889 0.738613 0.086717
0.771811 0.730153 0.116625
0.808074 0.724608 0.139699
0.842801 0.722213 0.149580
0.876184 0.721091 0.154916
0.907599 0.720558 0.160382
0.937117 0.720590 0.165697
0.964728 0.721110 0.170913
0.991935 0.721938 0.172836
1.017215 0.723049 0.174457
1.040722 0.724241 0.174847
1.059020 0.725532 0.175986
-0.250400 0.991132 -0.053724
-0.251706 0.997593 -0.060650
-0.253107 1.004620 -0.068594
-0.254336 1.010971 -0.076499
-0.255312 1.016243 -0.083961
-0.255985 1.020108 -0.090301
-0.233564 1.019842 -0.097750
-0.188840 1.015487 -0.106204
-0.139056 1.008758 -0.113279
-0.084748 0.999857 -0.118938
-0.026222 0.988720 -0.122275
0.036491 0.975293 -0.123062
0.102977 0.959727 -0.121158
0.172908 0.942035 -0.115898
0.245247 0.922638 -0.106984
0.319392 0.901649 -0.093536
0.394563 0.879466 -0.075728
0.468576 0.856828 -0.052853
0.539674 0.834530 -0.025513
0.606769 0.813221 0.005637
0.669067 0.793443 0.039757
0.724243 0.776668 0.075110
0.769364 0.765106 0.107785
0.808035 0.757362 0.135888
0.843505 0.752374 0.156719
0.877408 0.750148 0.166232
0.909873 0.749096 0.171726
0.940363 0.748630 0.177138
0.968884 0.748685 0.182450
0.995395 0.749191 0.187621
1.020747 0.750007 0.190524
