vendor/NativeMatch/NativeMatch.ofx.bundle/Contents/Resources/Cubes/Skincare_Filter_1.cube
LUT_3D_SIZE 9
0.000000 0.000000 0.000000
0.125000 0.000000 0.000000
0.250000 0.000000 0.000000
0.375000 0.000000 0.000000
0.501466 -0.000625 -0.000625
0.634662 -0.004121 -0.004121
0.770890 -0.008910 -0.008910
0.910217 -0.015021 -0.015021
1.052642 -0.022453 -0.022453
0.000000 0.125000 0.000000
0.125152 0.125152 -0.001179
0.252886 0.122262 -0.004196
0.383754 0.132871 -0.008570
0.517702 0.144497 -0.014237
0.654749 0.154111 -0.021226
0.794894 0.161676 -0.029536
0.938137 0.167458 -0.039168
1.084479 0.171689 -0.050122
-0.007728 0.255437 -0.007728
0.120841 0.254634 -0.012952
0.252509 0.252509 -0.019497
0.387275 0.216915 -0.027364
0.525139 0.226150 -0.036552
0.666103 0.264133 -0.047063
0.810164 0.304091 -0.058894
0.957325 0.339050 -0.072048
1.107583 0.368490 -0.086523
-0.024691 0.392372 -0.024691
0.107795 0.390257 -0.033436
0.243380 0.386821 -0.043502
0.382063 0.382063 -0.054891
0.523844 0.314067 -0.067601
0.668538 0.278214 -0.081284
0.808333 0.319659 -0.084816
0.946541 0.376005 -0.087641
1.083227 0.424154 -0.089847
-0.050386 0.535450 -0.050386
0.086017 0.532024 -0.062652
0.226766 0.525886 -0.072354
0.369254 0.517708 -0.076108
0.510185 0.510185 -0.079158
0.649563 0.450431 -0.081586
0.787390 0.399221 -0.083352
0.923666 0.407265 -0.084457
1.058392 0.444604 -0.084901
-0.067650 0.672597 -0.067650
0.075978 0.663752 -0.070965
0.218075 0.655551 -0.073576
0.358594 0.648032 -0.075564
0.497562 0.641175 -0.076891
0.634979 0.634979 -0.077557
0.770846 0.594080 -0.077560
0.905162 0.542716 -0.076903
1.037927 0.532074 -0.075584
-0.068027 0.797862 -0.068027
0.073633 0.789677 -0.069576
0.213742 0.782153 -0.070463
0.352301 0.775291 -0.070689
0.489309 0.769090 -0.070254
0.624766 0.763550 -0.069157
0.758672 0.758672 -0.067398
0.891028 0.733421 -0.064978
1.021833 0.694208 -0.061897
-0.064069 0.920077 -0.064069
0.075631 0.912548 -0.063855
0.213780 0.905681 -0.062980
0.350378 0.899474 -0.061444
0.485426 0.893930 -0.059246
0.618923 0.889046 -0.056387
0.750867 0.884811 -0.052796
0.881255 0.881255 -0.048610
1.010091 0.868187 -0.043763
-0.055740 1.039217 -0.055740
0.082000 1.032344 -0.053764
0.218188 1.026133 -0.051127
0.352826 1.020583 -0.047828
0.485936 1.015670 -0.043798
0.617464 1.011446 -0.039172
0.747442 1.007884 -0.033886
0.875868 1.004983 -0.027938
1.002744 1.002744 -0.021328
0.000000 0.000000 0.125000
0.125000 0.000000 0.125000
0.250000 0.000000 0.125000
0.375000 0.000000 0.125000
0.503452 -0.001681 0.124602
0.636846 -0.005621 0.122873
0.773338 -0.010882 0.119821
0.912929 -0.017465 0.115449
1.055749 -0.025429 0.109718
0.000000 0.125000 0.125000
0.125000 0.125000 0.125000
0.253015 0.123714 0.123714
0.384129 0.121106 0.121106
0.518341 0.117177 0.117177
0.655652 0.111926 0.111926
0.796145 0.105318 0.105318
0.939669 0.097416 0.097416
1.086292 0.088193 0.088193
-0.009427 0.255211 0.122892
0.119406 0.253936 0.119406
0.251338 0.251338 0.114599
0.386369 0.239214 0.108470
0.524534 0.272058 0.100984
0.665778 0.294913 0.092204
0.810121 0.308832 0.082103
0.957563 0.317450 0.070681
1.107949 0.322592 0.058032
-0.027671 0.391602 0.112087
0.105052 0.389035 0.105052
0.240918 0.385119 0.096716
0.379882 0.379882 0.087059
0.521945 0.315852 0.076080
0.665071 0.336984 0.066737
0.804726 0.393817 0.062338
0.942831 0.435983 0.058601
1.079384 0.460869 0.055526
-0.054705 0.534174 0.092515
0.081979 0.530268 0.081979
0.224370 0.522729 0.075191
0.366717 0.514790 0.070570
0.507513 0.507513 0.066611
0.646758 0.444398 0.063314
0.784453 0.423411 0.060678
0.920597 0.456742 0.058703
1.055152 0.500775 0.057436
-0.069117 0.669227 0.078551
0.074371 0.660622 0.074371
0.216308 0.652678 0.070851
0.356694 0.645396 0.067993
0.495530 0.638775 0.065797
0.632810 0.632810 0.064304
0.768536 0.587594 0.063433
0.902711 0.550309 0.063225
1.035335 0.557667 0.063677
-0.068889 0.794789 0.075058
0.072639 0.786840 0.072639
0.212616 0.779552 0.070882
0.351061 0.772909 0.069828
0.487928 0.766948 0.069398
0.623244 0.761648 0.069629
0.757010 0.757010 0.070521
0.889225 0.728901 0.072074
1.019889 0.695741 0.074289
-0.064289 0.917276 0.075934
0.075320 0.909954 0.075320
0.213328 0.903326 0.075329
0.349786 0.897360 0.075999
0.484693 0.892055 0.077331
0.618049 0.887411 0.079324
0.749854 0.883429 0.081978
0.880109 0.880109 0.085294
1.008813 0.865884 0.089272
-0.055262 1.036650 0.081227
0.082336 1.030017 0.082336
0.218385 1.024046 0.084108
0.352882 1.018736 0.086540
0.485828 1.014087 0.089634
0.617224 1.010100 0.093390
0.747069 1.006774 0.097806
0.875362 1.004097 0.102955
1.002097 1.002097 0.108698
0.000000 0.000000 0.250000
0.125000 0.000000 0.250000
0.250000 0.000000 0.250000
0.375000 0.000000 0.250000
0.505265 -0.002910 0.251177
0.638940 -0.007329 0.251178
0.775713 -0.013070 0.249858
0.915585 -0.020132 0.247216
1.058556 -0.028516 0.243252
-0.000523 0.125119 0.250760
0.124675 0.124675 0.252527
0.252971 0.122909 0.252971
0.384366 0.119822 0.252094
0.518860 0.115414 0.249896
0.656452 0.109683 0.246375
0.797142 0.102632 0.241534
0.940931 0.094258 0.235370
1.087818 0.084563 0.227885
-0.011328 0.254832 0.254832
0.117787 0.253077 0.253077
0.250000 0.250000 0.250000
0.385312 0.245602 0.245602
0.523722 0.239882 0.239882
0.665231 0.232840 0.232840
0.809838 0.224477 0.224477
0.957627 0.214757 0.214757
1.103499 0.205854 0.205854
-0.030865 0.390689 0.250171
0.102166 0.387622 0.244894
0.238296 0.383234 0.238296
0.377525 0.377525 0.230377
0.519852 0.356166 0.221135
0.661692 0.407988 0.214083
0.801206 0.431397 0.208818
0.939170 0.437794 0.204215
1.075582 0.436747 0.200273
-0.059135 0.532690 0.236777
0.078281 0.528031 0.228198
0.222060 0.519658 0.222060
0.364266 0.511959 0.216574
0.504922 0.504922 0.211749
0.644026 0.448717 0.207585
0.781580 0.470040 0.204083
0.917583 0.514642 0.201242
1.052036 0.546783 0.199063
-0.070498 0.665944 0.224079
0.072849 0.657578 0.219032
0.214646 0.649874 0.214646
0.354892 0.642832 0.210922
0.493587 0.636451 0.207859
0.630731 0.630731 0.205458
0.766325 0.583283 0.203718
0.900368 0.568607 0.202639
1.032860 0.593826 0.202222
-0.069621 0.791773 0.217510
0.071766 0.784064 0.214225
0.211602 0.777016 0.211602
0.349888 0.770630 0.209640
0.486622 0.764905 0.208340
0.621806 0.759842 0.207701
0.755434 0.755434 0.207765
0.887509 0.724757 0.208453
1.018032 0.701397 0.209802
-0.064374 0.914527 0.215312
0.075053 0.907474 0.213790
0.212929 0.901083 0.212929
0.349254 0.895353 0.212729
0.484046 0.890267 0.213233
0.617262 0.885863 0.214360
0.748927 0.882121 0.216148
0.879040 0.879040 0.218598
1.007604 0.863722 0.221709
-0.054757 1.034206 0.217484
0.082710 1.027810 0.217724
0.218667 1.022045 0.218667
0.353024 1.016975 0.220234
0.485830 1.012566 0.222461
0.617085 1.008819 0.225351
0.746789 1.005733 0.228901
0.874943 1.003309 0.233114
1.001546 1.001546 0.237987
0.000000 0.000000 0.375000
0.125000 0.000000 0.375000
0.250000 0.000000 0.375000
0.376004 -0.000707 0.376004
0.506845 -0.004276 0.379065
0.640785 -0.009168 0.380804
0.777915 -0.015431 0.381242
0.918068 -0.022973 0.380331
1.061320 -0.031836 0.378097
-0.001280 0.125098 0.377854
0.124182 0.124182 0.381359
0.252743 0.121944 0.383541
0.384402 0.118385 0.384402
0.519204 0.113477 0.383962
0.657078 0.107268 0.382173
0.798049 0.099736 0.379062
0.942119 0.090884 0.374629
1.089288 0.080709 0.368874
-0.013366 0.254267 0.388084
0.115994 0.252044 0.388095
0.248488 0.248488 0.386749
0.384081 0.243611 0.384081
0.522773 0.237411 0.380092
0.664563 0.229891 0.374781
0.809451 0.221048 0.368149
0.957438 0.210884 0.360195
1.099185 0.203752 0.352991
-0.034234 0.389602 0.389602
0.099079 0.386056 0.386056
0.235490 0.381189 0.381189
0.375000 0.375000 0.375000
0.517483 0.367543 0.367543
0.658416 0.360747 0.360747
0.797798 0.354613 0.354613
0.935629 0.349140 0.349140
1.071867 0.344346 0.344346
-0.063798 0.531069 0.382352
0.076198 0.524806 0.375270
0.219822 0.516682 0.368252
0.361896 0.509220 0.361896
0.502419 0.502419 0.356201
0.641391 0.484450 0.351168
0.778795 0.525888 0.346813
0.914657 0.543677 0.343106
1.048969 0.547919 0.340061
-0.071831 0.662767 0.368928
0.071384 0.654638 0.363011
0.213049 0.647171 0.357756
0.353176 0.640355 0.353176
0.491730 0.634214 0.349247
0.628734 0.628734 0.345980
0.764187 0.586761 0.343373
0.898089 0.603095 0.341429
1.030441 0.635467 0.340146
-0.070313 0.788869 0.359278
0.070979 0.781374 0.355137
0.210675 0.774566 0.351648
0.348820 0.768420 0.348820
0.485414 0.762935 0.346653
0.620457 0.758112 0.345148
0.753950 0.753950 0.344304
0.885891 0.722167 0.344122
1.016283 0.713803 0.344601
-0.064372 0.911865 0.354015
0.074914 0.905052 0.351626
0.212649 0.898900 0.349899
0.348834 0.893410 0.348834
0.483467 0.888581 0.348429
0.616550 0.884414 0.348686
0.748083 0.880908 0.349605
0.878059 0.878059 0.351227
1.006481 0.861920 0.353472
-0.054107 1.031811 0.353112
0.083219 1.025655 0.352486
0.218994 1.020159 0.352521
0.353218 1.015325 0.353218
0.485891 1.011153 0.354576
0.617032 1.007625 0.356637
0.746596 1.004779 0.359322
0.874609 1.002594 0.362668
1.001071 1.001071 0.366675
0.000000 0.000000 0.500000
0.125000 0.000000 0.500000
0.250000 0.000000 0.500000
0.377192 -0.001801 0.503523
0.508314 -0.005850 0.508314
0.642535 -0.011220 0.511784
0.779854 -0.017912 0.513932
0.920272 -0.025926 0.514758
1.063788 -0.035262 0.514263
-0.002231 0.124908 0.506324
0.123513 0.123513 0.511559
0.252355 0.120796 0.515473
0.384295 0.116757 0.518064
0.519334 0.111397 0.519334
0.657472 0.104715 0.519283
0.798708 0.096712 0.517909
0.943134 0.087336 0.515235
1.090584 0.076682 0.511212
-0.015610 0.253543 0.522697
0.114050 0.250837 0.524411
0.246809 0.246809 0.524803
0.382666 0.241459 0.523873
0.521622 0.234787 0.521622
0.663721 0.226767 0.518070
0.808890 0.217446 0.513168
0.956808 0.206986 0.506915
1.094908 0.201759 0.499475
-0.037723 0.388323 0.530338
0.095854 0.384305 0.528530
0.232511 0.378970 0.525429
0.372302 0.372302 0.520971
0.514417 0.364857 0.514417
0.655209 0.358301 0.506755
0.794450 0.352406 0.499754
0.932140 0.347173 0.493415
1.068280 0.342602 0.487737
-0.068634 0.529275 0.529275
0.074201 0.521668 0.521668
0.217685 0.513784 0.513784
0.359618 0.506561 0.506561
0.500000 0.500000 0.500000
0.638832 0.494100 0.494100
0.776112 0.488862 0.488862
0.911843 0.484285 0.484285
1.046022 0.480370 0.480370
-0.073039 0.659656 0.513117
0.070035 0.651767 0.506334
0.211559 0.644539 0.500213
0.351532 0.637973 0.494752
0.489954 0.632068 0.489954
0.626825 0.626825 0.485816
0.762146 0.613477 0.482341
0.895897 0.643788 0.479544
1.028108 0.655958 0.477394
-0.070873 0.786025 0.500392
0.070240 0.778792 0.495371
0.209804 0.772220 0.491012
0.347816 0.766310 0.487314
0.484292 0.761052 0.484292
0.619194 0.756468 0.481920
0.752546 0.752546 0.480210
0.884348 0.724805 0.479162
1.014598 0.736151 0.478775
-0.064338 0.909318 0.492037
0.074816 0.902742 0.488779
0.212456 0.896805 0.486196
0.348500 0.891554 0.484264
0.482993 0.886966 0.482993
0.615936 0.883038 0.482384
0.747327 0.879772 0.482437
0.877168 0.877168 0.483150
1.005458 0.861052 0.484526
-0.053371 1.029503 0.488066
0.083815 1.023586 0.486574
0.219449 1.018331 0.485743
0.353532 1.013737 0.485573
0.486065 1.009804 0.486065
0.617047 1.006533 0.487218
0.746478 1.003924 0.489033
0.874359 1.001976 0.491509
1.000683 1.000683 0.494689
0.000000 0.000000 0.625000
0.125000 0.000000 0.625000
0.250000 0.000000 0.625000
0.378169 -0.003033 0.632304
0.509609 -0.007596 0.638910
0.644111 -0.013446 0.644111
0.781711 -0.020618 0.647990
0.922410 -0.029111 0.650547
1.066208 -0.038926 0.651783
-0.003327 0.124549 0.636050
0.122681 0.122681 0.643023
0.251793 0.119474 0.648751
0.384015 0.114956 0.653074
0.519335 0.109116 0.656075
0.657754 0.101955 0.657754
0.799271 0.093472 0.658111
0.943887 0.083668 0.657147
1.091601 0.072542 0.654861
-0.018029 0.252646 0.658659
0.111913 0.249460 0.662103
0.244953 0.244953 0.664226
0.381091 0.239124 0.665027
0.520328 0.231973 0.664506
0.662664 0.223501 0.662664
0.808098 0.213706 0.659500
0.952796 0.204818 0.653605
1.090718 0.199852 0.645285
-0.041435 0.386892 0.672443
0.092423 0.382395 0.672366
0.229380 0.376576 0.670968
0.369435 0.369435 0.668247
0.511442 0.362251 0.660634
0.652102 0.355932 0.652102
0.791188 0.350287 0.644221
0.928738 0.345294 0.637016
1.064737 0.340962 0.630472
-0.072638 0.526934 0.676827
0.072265 0.518625 0.667412
0.215616 0.510977 0.658658
0.357426 0.503989 0.650552
0.497668 0.497668 0.643125
0.636359 0.492008 0.636359
0.773499 0.487010 0.630254
0.909088 0.482673 0.624812
1.043127 0.478998 0.620030
-0.074202 0.656650 0.656650
0.068773 0.648983 0.648983
0.210156 0.641995 0.641995
0.349988 0.635668 0.635668
0.488269 0.630003 0.630003
0.625000 0.625000 0.625000
0.760180 0.620658 0.620658
0.893809 0.616977 0.616977
1.025887 0.613958 0.613958
-0.071347 0.783267 0.640832
0.069626 0.776275 0.634945
0.209049 0.769943 0.629719
0.346920 0.764273 0.625155
0.483241 0.759264 0.621253
0.618012 0.754917 0.618012
0.751231 0.751231 0.615432
0.882900 0.742505 0.613514
1.013000 0.761688 0.612274
-0.064164 0.906828 0.629402
0.074849 0.900491 0.625277
0.212311 0.894816 0.621814
0.348223 0.889802 0.619013
0.482584 0.885450 0.616872
0.615408 0.881749 0.615408
0.746658 0.878723 0.614594
0.876359 0.876359 0.614441
1.004508 0.862849 0.614950
-0.052610 1.027314 0.622343
0.084443 1.021634 0.619980
0.219945 1.016614 0.618280
0.353933 1.012235 0.617254
0.486325 1.008542 0.616880
0.617167 1.005511 0.617167
0.746457 1.003142 0.618115
0.874197 1.001433 0.619725
1.000386 1.000386 0.621997
0.000000 0.000000 0.750000
0.125000 0.000000 0.750000
0.250444 -0.000792 0.752915
0.379013 -0.004471 0.762497
0.510681 -0.009471 0.770757
0.645447 -0.015794 0.777695
0.783312 -0.023437 0.783312
0.924375 -0.032469 0.787683
1.068454 -0.042763 0.790650
-0.004621 0.124015 0.767194
0.121668 0.121668 0.775898
0.251055 0.117999 0.783280
0.383541 0.113009 0.789340
0.519126 0.106697 0.794079
0.657862 0.099022 0.797572
0.799661 0.090060 0.799661
0.944558 0.079776 0.800427
1.092553 0.068171 0.799872
-0.020576 0.251573 0.795869
0.109630 0.247914 0.801051
0.242935 0.242935 0.804912
0.379343 0.236615 0.807528
0.518862 0.228985 0.808738
0.661478 0.220033 0.808626
0.807193 0.209760 0.807193
0.948832 0.202756 0.799617
1.086659 0.198005 0.790441
-0.045321 0.385288 0.815896
0.088819 0.380311 0.817550
0.226057 0.374013 0.817882
0.366478 0.366478 0.816229
0.508548 0.359737 0.806169
0.649067 0.353658 0.796771
0.788035 0.348239 0.788035
0.925452 0.343483 0.779960
1.061319 0.339387 0.772546
-0.074321 0.523728 0.822753
0.070440 0.515659 0.812471
0.213651 0.508251 0.802851
0.355311 0.501505 0.793893
0.495420 0.495420 0.785596
0.633978 0.489997 0.777960
0.770986 0.485235 0.770986
0.906421 0.481147 0.764663
1.040319 0.477712 0.759015
-0.075238 0.653711 0.799500
0.067563 0.646298 0.790981
0.208814 0.639546 0.783124
0.348513 0.633456 0.775928
0.486672 0.628025 0.769379
0.623262 0.623262 0.763509
0.758301 0.619160 0.758301
0.891789 0.615719 0.753754
1.023727 0.612940 0.749869
-0.071784 0.780618 0.780618
0.069057 0.773862 0.773862
0.208380 0.767752 0.767752
0.346111 0.762322 0.762322
0.482292 0.757553 0.757553
0.616921 0.753446 0.753446
0.750000 0.750000 0.750000
0.881528 0.747216 0.747216
1.011505 0.745093 0.745093
-0.063903 0.904425 0.766092
0.074969 0.898328 0.761102
0.212291 0.892893 0.756772
0.348062 0.888119 0.753104
0.482282 0.884006 0.750098
0.614951 0.880555 0.747753
0.746069 0.877766 0.746069
0.875637 0.875637 0.745047
1.003654 0.871533 0.744687
-0.051701 1.025178 0.755958
0.085211 1.019737 0.752730
0.220572 1.014958 0.750163
0.354382 1.010840 0.748257
0.486642 1.007384 0.747013
0.617351 1.004589 0.746431
0.746523 1.002446 0.746523
0.874122 1.000978 0.747267
1.000171 1.000171 0.748672
0.000000 0.000000 0.875000
0.125000 0.000000 0.875000
0.250832 -0.001924 0.882724
0.379683 -0.006082 0.894037
0.511632 -0.011562 0.904027
0.646679 -0.018364 0.912696
0.784825 -0.026487 0.920044
0.926069 -0.035931 0.926069
1.070413 -0.046698 0.930774
-0.006089 0.123307 0.899686
0.120481 0.120481 0.910120
0.250150 0.116333 0.919233
0.382917 0.110864 0.927024
0.518783 0.104073 0.933493
0.657747 0.095960 0.938641
0.799810 0.086526 0.942467
0.944971 0.075770 0.944971
1.093331 0.063626 0.946231
-0.023338 0.250331 0.934504
0.107149 0.246194 0.941417
0.240735 0.240735 0.947008
0.377419 0.233954 0.951278
0.517202 0.225852 0.954226
0.660083 0.216428 0.955853
0.805717 0.205955 0.955658
0.944954 0.200782 0.944954
1.082640 0.196270 0.934912
-0.049319 0.383499 0.960591
0.085085 0.378051 0.963982
0.222587 0.371280 0.966052
0.363806 0.363806 0.961998
0.505740 0.357310 0.951031
0.646119 0.351471 0.940766
0.784946 0.346292 0.931164
0.922222 0.341775 0.922222
1.057948 0.337920 0.913943
-0.075956 0.520618 0.968050
0.068702 0.512779 0.956856
0.211772 0.505611 0.946370
0.353291 0.499105 0.936545
0.493260 0.493260 0.927382
0.631678 0.488077 0.918881
0.768545 0.483554 0.911040
0.903861 0.479694 0.903861
1.037627 0.476495 0.897344
-0.076187 0.650858 0.941677
0.066473 0.643685 0.932291
0.207583 0.637174 0.923568
0.347142 0.631324 0.915505
0.485150 0.626135 0.908104
0.621608 0.621608 0.901365
0.756514 0.617742 0.895287
0.889871 0.614537 0.889871
1.021653 0.612008 0.885105
-0.072086 0.778033 0.919720
0.068615 0.771517 0.912097
0.207764 0.765661 0.905136
0.345363 0.760467 0.898836
0.481411 0.755935 0.893197
0.615918 0.752062 0.888206
0.748856 0.748856 0.883894
0.880243 0.746311 0.880243
1.010080 0.744428 0.877254
-0.063614 0.902133 0.902133
0.075126 0.896273 0.896273
0.212315 0.891074 0.891074
0.347987 0.886522 0.886522
0.482067 0.882649 0.882649
0.614595 0.879438 0.879438
0.745573 0.876888 0.876888
0.875000 0.875000 0.875000
1.002876 0.873773 0.873773
-0.050771 1.023158 0.888917
0.086065 1.017928 0.884805
0.221286 1.013389 0.881372
0.354956 1.009511 0.878600
0.487075 1.006294 0.876490
0.617643 1.003739 0.875041
0.746660 1.001846 0.874253
0.874127 1.000614 0.874127
1.000043 1.000043 0.874663
0.000000 0.000000 1.000000
0.125000 0.000000 1.000000
0.251036 -0.003194 1.013726
0.380151 -0.007824 1.026777
0.512365 -0.013776 1.038505
0.647738 -0.021107 1.049045
0.786165 -0.029709 1.058123
0.927691 -0.039633 1.065880
1.072315 -0.050879 1.072315
-0.007694 0.122439 1.033370
0.119140 0.119140 1.045542
0.249073 0.114520 1.056393
0.382119 0.108545 1.066055
0.518266 0.101275 1.074255
0.657512 0.092683 1.081133
0.799856 0.082769 1.086690
0.945298 0.071534 1.090925
1.093839 0.058977 1.093839
-0.026273 0.248917 1.074487
0.104495 0.244300 1.083131
0.238362 0.238362 1.090453
0.375327 0.231102 1.096453
0.515391 0.222520 1.101132
0.658553 0.212617 1.104489
0.802092 0.203805 1.101236
0.941197 0.198868 1.089663
1.078751 0.194593 1.078751
-0.053549 0.381551 1.106717
0.081136 0.375623 1.111840
0.218920 0.368373 1.115640
0.361225 0.361225 1.107062
0.503021 0.354960 1.095267
0.643267 0.349356 1.084133
0.781962 0.344414 1.073660
0.919080 0.340155 1.063811
1.054665 0.336539 1.054665
-0.077468 0.517585 1.112637
0.067021 0.509992 1.100620
0.209958 0.503060 1.089264
0.351345 0.496790 1.078569
0.491182 0.491182 1.068536
0.629464 0.486243 1.059126
0.766190 0.481961 1.050420
0.901366 0.478340 1.042375
1.034991 0.475381 1.034991
-0.077096 0.648107 1.083228
0.065433 0.641170 1.072973
0.206439 0.634888 1.063337
0.345857 0.629278 1.054409
0.483725 0.624329 1.046142
0.620042 0.620042 1.038536
0.754808 0.616416 1.031592
0.888023 0.613451 1.025309
1.019688 0.611148 1.019688
-0.072300 0.775535 1.058147
0.068259 0.769258 1.049658
0.207268 0.763643 1.041830
0.344726 0.758689 1.034664
0.480633 0.754396 1.028159
0.614990 0.750765 1.022316
0.747795 0.747795 1.017134
0.879050 0.745487 1.012614
1.008755 0.743840 1.008755
-0.063180 0.899902 1.037485
0.075419 0.894282 1.030759
0.212467 0.889323 1.024694
0.347965 0.885025 1.019290
0.481912 0.881388 1.014547
0.614308 0.878414 1.010466
0.745163 0.876098 1.007033
0.874450 0.874450 1.004278
1.002185 0.873462 1.002185
-0.049690 1.021195 1.021194
0.086949 1.016230 1.016230
0.222037 1.011927 1.011927
0.355574 1.008286 1.008286
0.487594 1.005292 1.005292
0.618022 1.002977 1.002977
0.746899 1.001323 1.001323
0.874225 1.000331 1.000331
1.000000 1.000000 1.000000
