vendor/NativeMatch/NativeMatch.ofx.bundle/Contents/Resources/Cubes/Skincare_Filter_1.cube
LUT_3D_SIZE 5
0.000000 0.000000 0.000000
0.250000 0.000000 0.000000
0.501466 -0.000625 -0.000625
0.770890 -0.008910 -0.008910
1.052642 -0.022453 -0.022453
-0.007728 0.255437 -0.007728
0.252509 0.252509 -0.019497
0.525139 0.226150 -0.036552
0.810164 0.304091 -0.058894
1.107583 0.368490 -0.086523
-0.050386 0.535450 -0.050386
0.226766 0.525886 -0.072354
0.510185 0.510185 -0.079158
0.787390 0.399221 -0.083352
1.058392 0.444604 -0.084901
-0.068027 0.797862 -0.068027
0.213742 0.782153 -0.070463
0.489309 0.769090 -0.070254
0.758672 0.758672 -0.067398
1.021833 0.694208 -0.061897
-0.055740 1.039217 -0.055740
0.218188 1.026133 -0.051127
0.485936 1.015670 -0.043798
0.747442 1.007884 -0.033886
1.002744 1.002744 -0.021328
0.000000 0.000000 0.250000
0.250000 0.000000 0.250000
0.505265 -0.002910 0.251177
0.775713 -0.013070 0.249858
1.058556 -0.028516 0.243252
-0.011328 0.254832 0.254832
0.250000 0.250000 0.250000
0.523722 0.239882 0.239882
0.809838 0.224477 0.224477
1.103499 0.205854 0.205854
-0.059135 0.532690 0.236777
0.222060 0.519658 0.222060
0.504922 0.504922 0.211749
0.781580 0.470040 0.204083
1.052036 0.546783 0.199063
-0.069621 0.791773 0.217510
0.211602 0.777016 0.211602
0.486622 0.764905 0.208340
0.755434 0.755434 0.207765
1.018032 0.701397 0.209802
-0.054757 1.034206 0.217484
0.218667 1.022045 0.218667
0.485830 1.012566 0.222461
0.746789 1.005733 0.228901
1.001546 1.001546 0.237987
0.000000 0.000000 0.500000
0.250000 0.000000 0.500000
0.508314 -0.005850 0.508314
0.779854 -0.017912 0.513932
1.063788 -0.035262 0.514263
-0.015610 0.253543 0.522697
0.246809 0.246809 0.524803
0.521622 0.234787 0.521622
0.808890 0.217446 0.513168
1.094908 0.201759 0.499475
-0.068634 0.529275 0.529275
0.217685 0.513784 0.513784
0.500000 0.500000 0.500000
0.776112 0.488862 0.488862
1.046022 0.480370 0.480370
-0.070873 0.786025 0.500392
0.209804 0.772220 0.491012
0.484292 0.761052 0.484292
0.752546 0.752546 0.480210
1.014598 0.736151 0.478775
-0.053371 1.029503 0.488066
0.219449 1.018331 0.485743
0.486065 1.009804 0.486065
0.746478 1.003924 0.489033
1.000683 1.000683 0.494689
0.000000 0.000000 0.750000
0.250444 -0.000792 0.752915
0.510681 -0.009471 0.770757
0.783312 -0.023437 0.783312
1.068454 -0.042763 0.790650
-0.020576 0.251573 0.795869
0.242935 0.242935 0.804912
0.518862 0.228985 0.808738
0.807193 0.209760 0.807193
1.086659 0.198005 0.790441
-0.074321 0.523728 0.822753
0.213651 0.508251 0.802851
0.495420 0.495420 0.785596
0.770986 0.485235 0.770986
1.040319 0.477712 0.759015
-0.071784 0.780618 0.780618
0.208380 0.767752 0.767752
0.482292 0.757553 0.757553
0.750000 0.750000 0.750000
1.011505 0.745093 0.745093
-0.051701 1.025178 0.755958
0.220572 1.014958 0.750163
0.486642 1.007384 0.747013
0.746523 1.002446 0.746523
1.000171 1.000171 0.748672
0.000000 0.000000 1.000000
0.251036 -0.003194 1.013726
0.512365 -0.013776 1.038505
0.786165 -0.029709 1.058123
1.072315 -0.050879 1.072315
-0.026273 0.248917 1.074487
0.238362 0.238362 1.090453
0.515391 0.222520 1.101132
0.802092 0.203805 1.101236
1.078751 0.194593 1.078751
-0.077468 0.517585 1.112637
0.209958 0.503060 1.089264
0.491182 0.491182 1.068536
0.766190 0.481961 1.050420
1.034991 0.475381 1.034991
-0.072300 0.775535 1.058147
0.207268 0.763643 1.041830
0.480633 0.754396 1.028159
0.747795 0.747795 1.017134
1.008755 0.743840 1.008755
-0.049690 1.021195 1.021194
0.222037 1.011927 1.011927
0.487594 1.005292 1.005292
0.746899 1.001323 1.001323
1.000000 1.000000 1.000000
