vendor/NativeMatch/NativeMatch.ofx.bundle/Contents/Resources/Cubes/Skincare_Filter_1.cube
LUT_3D_SIZE 33
0.000000 0.000000 0.000000
0.031250 0.000000 0.000000
0.062500 0.000000 0.000000
0.093750 0.000000 0.000000
0.125000 0.000000 0.000000
0.156250 0.000000 0.000000
0.187500 0.000000 0.000000
0.218750 0.000000 0.000000
0.250000 0.000000 0.000000
0.281250 0.000000 0.000000
0.312500 0.000000 0.000000
0.343750 0.000000 0.000000
0.375000 0.000000 0.000000
0.406250 0.000000 0.000000
0.437500 0.000000 0.000000
0.468750 0.000000 0.000000
0.501466 -0.000625 -0.000625
0.534507 -0.001389 -0.001389
0.567673 -0.002206 -0.002206
0.601030 -0.003105 -0.003105
0.634662 -0.004121 -0.004121
0.668407 -0.005185 -0.005185
0.702343 -0.006331 -0.006331
0.736471 -0.007558 -0.007558
0.770890 -0.008910 -0.008910
0.805405 -0.010303 -0.010303
0.840112 -0.011777 -0.011777
0.875123 -0.013381 -0.013381
0.910217 -0.015021 -0.015021
0.945502 -0.016742 -0.016742
0.980979 -0.018545 -0.018545
1.016777 -0.020485 -0.020485
1.052642 -0.022453 -0.022453
0.000000 0.031250 0.000000
0.031250 0.031250 0.000000
0.062500 0.031250 0.000000
0.093750 0.031250 0.000000
0.125000 0.031250 0.000000
0.156250 0.031250 0.000000
0.187500 0.031250 0.000000
0.218750 0.031250 0.000000
0.250000 0.031250 0.000000
0.281250 0.031250 0.000000
0.312500 0.031250 0.000000
0.343750 0.031250 0.000000
0.375372 0.031344 -0.000198
0.407820 0.031575 -0.000824
0.440460 0.031744 -0.001531
0.473351 0.031861 -0.002350
0.506378 0.031908 -0.003223
0.539597 0.031895 -0.004177
0.573007 0.031822 -0.005213
0.606685 0.031692 -0.006368
0.640482 0.031500 -0.007569
0.674472 0.031249 -0.008852
0.708652 0.030940 -0.010216
0.743117 0.030571 -0.011707
0.777686 0.030145 -0.013237
0.812445 0.029663 -0.014848
0.847501 0.029118 -0.016591
0.882648 0.028521 -0.018367
0.917987 0.027868 -0.020226
0.953517 0.027159 -0.022166
0.989360 0.026382 -0.024245
1.025278 0.025560 -0.026350
1.061387 0.024682 -0.028537
0.000000 0.062500 0.000000
0.031250 0.062500 0.000000
0.062500 0.062500 0.000000
0.093750 0.062500 0.000000
0.125000 0.062500 0.000000
0.156250 0.062500 0.000000
0.187500 0.062500 0.000000
0.218750 0.062500 0.000000
0.250000 0.062500 0.000000
0.281738 0.063014 -0.000367
0.313852 0.063823 -0.000965
0.346197 0.064695 -0.001670
0.378698 0.065521 -0.002433
0.411391 0.066313 -0.003277
0.444327 0.067091 -0.004235
0.477407 0.067777 -0.005245
0.510679 0.068402 -0.006336
0.544143 0.068963 -0.007509
0.577866 0.069489 -0.008803
0.611716 0.069917 -0.010141
0.645759 0.070279 -0.011561
0.680073 0.070602 -0.013107
0.714503 0.070831 -0.014692
0.749124 0.070996 -0.016358
0.783937 0.071096 -0.018107
0.819038 0.071155 -0.019988
0.854239 0.071127 -0.021902
0.889630 0.071037 -0.023898
0.925213 0.070885 -0.025975
0.961102 0.070688 -0.028192
0.997073 0.070412 -0.030434
1.033235 0.070076 -0.032758
1.069715 0.069693 -0.035228
0.000000 0.093750 0.000000
0.031250 0.093750 0.000000
0.062500 0.093750 0.000000
0.093750 0.093750 0.000000
0.125000 0.093750 0.000000
0.156260 0.093727 -0.000019
0.187863 0.093405 -0.000528
0.219647 0.093763 -0.001099
0.251623 0.094708 -0.001752
0.283790 0.096033 -0.002486
0.316180 0.097599 -0.003331
0.348734 0.099233 -0.004230
0.381480 0.100887 -0.005212
0.414462 0.102564 -0.006308
0.447595 0.104146 -0.007455
0.480920 0.105659 -0.008683
0.514436 0.107095 -0.009993
0.548205 0.108501 -0.011426
0.582109 0.109769 -0.012901
0.616204 0.110952 -0.014458
0.650564 0.112102 -0.016142
0.685047 0.113115 -0.017865
0.719721 0.114044 -0.019668
0.754587 0.114892 -0.021554
0.789734 0.115710 -0.023574
0.824987 0.116398 -0.025625
0.860432 0.117010 -0.027758
0.896068 0.117546 -0.029972
0.932002 0.118053 -0.032328
0.968026 0.118442 -0.034707
1.004241 0.118759 -0.037168
1.040766 0.119047 -0.039777
1.077369 0.119224 -0.042403
0.000000 0.125000 0.000000
0.031250 0.125000 0.000000
0.062444 0.125063 -0.000175
0.093702 0.125148 -0.000636
0.125152 0.125152 -0.001179
0.156800 0.123890 -0.001827
0.188637 0.121935 -0.002535
0.220666 0.121350 -0.003324
0.252886 0.122262 -0.004196
0.285321 0.124240 -0.005179
0.317929 0.126867 -0.006216
0.350728 0.129801 -0.007334
0.383754 0.132871 -0.008570
0.416941 0.135906 -0.009853
0.450319 0.138866 -0.011219
0.483888 0.141716 -0.012666
0.517702 0.144497 -0.014237
0.551659 0.147088 -0.015849
0.585808 0.149542 -0.017543
0.620213 0.151925 -0.019367
0.654749 0.154111 -0.021226
0.689476 0.156167 -0.023167
0.724395 0.158098 -0.025189
0.759587 0.159980 -0.027348
0.794894 0.161676 -0.029536
0.830391 0.163261 -0.031806
0.866175 0.164809 -0.034217
0.902060 0.166183 -0.036652
0.938137 0.167458 -0.039168
0.974405 0.168636 -0.041766
1.010976 0.169789 -0.044514
1.047632 0.170783 -0.047277
1.084479 0.171689 -0.050122
-0.000732 0.156765 -0.000732
0.030387 0.156932 -0.001249
0.061699 0.157017 -0.001847
0.093201 0.157020 -0.002527
0.124895 0.156947 -0.003313
0.156785 0.156785 -0.004158
0.188867 0.154223 -0.005085
0.221152 0.149698 -0.006124
0.253621 0.147379 -0.007216
0.286281 0.147656 -0.008390
0.319133 0.149957 -0.009645
0.352206 0.153552 -0.011019
0.385445 0.157889 -0.012440
0.418876 0.162573 -0.013942
0.452499 0.167339 -0.015526
0.486358 0.172081 -0.017236
0.520368 0.176648 -0.018986
0.554569 0.181032 -0.020817
0.589020 0.185276 -0.022779
0.623609 0.189254 -0.024775
0.658389 0.193024 -0.026853
0.693361 0.196593 -0.029013
0.728599 0.200045 -0.031311
0.763958 0.203236 -0.033635
0.799509 0.206249 -0.036042
0.835338 0.209179 -0.038592
0.871276 0.211864 -0.041164
0.907406 0.214397 -0.043817
0.943728 0.216785 -0.046553
0.980344 0.219123 -0.049439
1.017053 0.221241 -0.052339
1.053953 0.223232 -0.055321
1.091161 0.225190 -0.058459
-0.002511 0.189267 -0.002511
0.028853 0.189351 -0.003246
0.060409 0.189354 -0.004063
0.092148 0.189285 -0.004988
0.124091 0.189122 -0.005970
0.156226 0.188878 -0.007034
0.188557 0.188557 -0.008211
0.221079 0.185091 -0.009441
0.253792 0.177809 -0.010751
0.286698 0.172817 -0.012144
0.319815 0.171239 -0.013657
0.353108 0.172748 -0.015215
0.386592 0.176503 -0.016854
0.420301 0.181698 -0.018619
0.454172 0.187734 -0.020424
0.488235 0.194200 -0.022310
0.522490 0.200783 -0.024278
0.556986 0.207336 -0.026379
0.591627 0.213687 -0.028513
0.626461 0.219807 -0.030728
0.661486 0.225668 -0.033024
0.696769 0.231329 -0.035461
0.732182 0.236654 -0.037923
0.767785 0.241712 -0.040467
0.803660 0.246600 -0.043156
0.839651 0.251159 -0.045864
0.875834 0.255483 -0.048655
0.912209 0.259583 -0.051527
0.948870 0.263571 -0.054552
0.985632 0.267261 -0.057589
1.022585 0.270761 -0.060708
1.059838 0.274182 -0.063985
1.097179 0.277330 -0.067270
-0.004834 0.222151 -0.004834
0.026775 0.222153 -0.005788
0.058560 0.222088 -0.006851
0.090556 0.221925 -0.007971
0.122744 0.221680 -0.009172
0.155120 0.221363 -0.010488
0.187695 0.220953 -0.011854
0.220462 0.220462 -0.013302
0.253420 0.216441 -0.014831
0.286583 0.206491 -0.016483
0.319928 0.198332 -0.018178
0.353465 0.194123 -0.019954
0.387220 0.193768 -0.021858
0.421144 0.196661 -0.023800
0.455260 0.201901 -0.025823
0.489568 0.208699 -0.027928
0.524109 0.216398 -0.030168
0.558804 0.224636 -0.032438
0.593691 0.233060 -0.034791
0.628824 0.241484 -0.037283
0.664098 0.249713 -0.039800
0.699563 0.257691 -0.042399
0.735220 0.265375 -0.045079
0.771140 0.272817 -0.047907
0.807184 0.279870 -0.050753
0.843420 0.286603 -0.053681
0.879848 0.293022 -0.056690
0.916555 0.299235 -0.059853
0.953369 0.305064 -0.063028
0.990376 0.310616 -0.066284
1.027674 0.316011 -0.069700
1.065068 0.321049 -0.073121
1.102653 0.325848 -0.076624
-0.007728 0.255437 -0.007728
0.024130 0.255356 -0.008903
0.056179 0.255193 -0.010159
0.088420 0.254948 -0.011497
0.120841 0.254634 -0.012952
0.153469 0.254224 -0.014455
0.186289 0.253732 -0.016040
0.219300 0.253158 -0.017707
0.252509 0.252509 -0.019497
0.285907 0.248177 -0.021329
0.319498 0.235879 -0.023242
0.353297 0.224359 -0.025285
0.387275 0.216915 -0.027364
0.421444 0.214004 -0.029524
0.455805 0.215120 -0.031767
0.490391 0.219409 -0.034145
0.525139 0.226150 -0.036552
0.560079 0.234528 -0.039042
0.595257 0.243889 -0.041672
0.630584 0.253873 -0.044327
0.666103 0.264133 -0.047063
0.701813 0.274412 -0.049880
0.737778 0.284592 -0.052847
0.773875 0.294495 -0.055830
0.810164 0.304091 -0.058894
0.846721 0.313420 -0.062113
0.883397 0.322325 -0.065343
0.920265 0.330868 -0.068655
0.957325 0.339050 -0.072048
0.994669 0.346982 -0.075602
1.032115 0.354476 -0.079161
1.069754 0.361641 -0.082801
1.107583 0.368490 -0.086523
-0.011142 0.289089 -0.011142
0.020960 0.288926 -0.012536
0.053254 0.288681 -0.014011
0.085721 0.288370 -0.015604
0.118402 0.287960 -0.017244
0.151275 0.287468 -0.018966
0.184333 0.286905 -0.020812
0.217593 0.286248 -0.022699
0.251045 0.285509 -0.024668
0.284688 0.284688 -0.026719
0.318533 0.280238 -0.028900
0.352564 0.265897 -0.031116
0.386786 0.251132 -0.033414
0.421200 0.240159 -0.035793
0.455832 0.234001 -0.038310
0.490633 0.232604 -0.040855
0.525626 0.235225 -0.043481
0.560849 0.240999 -0.046250
0.596229 0.249251 -0.049042
0.631801 0.259201 -0.051915
0.667564 0.270225 -0.054870
0.703575 0.281915 -0.057975
0.739725 0.293989 -0.061095
0.776067 0.306154 -0.064297
0.812669 0.318263 -0.067654
0.849398 0.330122 -0.071021
0.886319 0.341680 -0.074469
0.923432 0.352888 -0.078000
0.960821 0.363801 -0.081693
0.998321 0.374250 -0.085389
1.035872 0.384156 -0.089039
1.070327 0.390139 -0.089868
1.104734 0.395357 -0.090699
-0.015100 0.323124 -0.015100
0.017247 0.322879 -0.016713
0.049759 0.322572 -0.018445
0.082493 0.322161 -0.020222
0.115419 0.321669 -0.022081
0.148522 0.321110 -0.024066
0.181835 0.320452 -0.026090
0.215340 0.319713 -0.028196
0.249036 0.318892 -0.030384
0.282927 0.317997 -0.032704
0.317011 0.317011 -0.035057
0.351286 0.312570 -0.037491
0.385768 0.296528 -0.040064
0.420430 0.278621 -0.042664
0.455285 0.263982 -0.045345
0.490330 0.254333 -0.048108
0.525599 0.249778 -0.051017
0.561032 0.249988 -0.053945
0.596657 0.254155 -0.056955
0.632473 0.261492 -0.060047
0.668529 0.271204 -0.063291
0.704733 0.282720 -0.066548
0.741128 0.295388 -0.069887
0.777775 0.308769 -0.073383
0.814558 0.322632 -0.076887
0.851532 0.336666 -0.080473
0.888697 0.350660 -0.084140
0.924968 0.363786 -0.086729
0.959638 0.375073 -0.087615
0.994211 0.385292 -0.088460
1.028644 0.394444 -0.089220
1.063024 0.402656 -0.089982
1.097308 0.409953 -0.090704
-0.019603 0.357542 -0.019603
0.012955 0.357239 -0.021474
0.045742 0.356828 -0.023388
0.078721 0.356335 -0.025384
0.111870 0.355780 -0.027508
0.145236 0.355122 -0.029669
0.178794 0.354382 -0.031912
0.212543 0.353560 -0.034237
0.246479 0.352670 -0.036696
0.280616 0.351683 -0.039185
0.314944 0.350615 -0.041757
0.349472 0.349472 -0.044468
0.384187 0.345131 -0.047205
0.419095 0.327732 -0.050024
0.454193 0.306924 -0.052924
0.489508 0.288577 -0.055971
0.524994 0.275146 -0.059037
0.560671 0.267174 -0.062184
0.596541 0.264418 -0.065413
0.632642 0.266190 -0.068795
0.668899 0.271921 -0.072190
0.705347 0.280779 -0.075665
0.742040 0.292008 -0.079300
0.778875 0.305085 -0.082941
0.814239 0.319999 -0.084477
0.849076 0.334974 -0.085377
0.883782 0.349516 -0.086193
0.918425 0.363375 -0.087011
0.952972 0.376395 -0.087787
0.987382 0.388467 -0.088478
1.021735 0.399597 -0.089171
1.055992 0.409768 -0.089824
1.090154 0.419002 -0.090436
-0.024691 0.392372 -0.024691
0.008150 0.391960 -0.026742
0.041182 0.391467 -0.028875
0.074376 0.390916 -0.031137
0.107795 0.390257 -0.033436
0.141406 0.389517 -0.035816
0.175209 0.388695 -0.038278
0.209190 0.387808 -0.040875
0.243380 0.386821 -0.043502
0.277761 0.385752 -0.046211
0.312334 0.384613 -0.049061
0.347102 0.383379 -0.051935
0.382063 0.382063 -0.054891
0.417214 0.377885 -0.057928
0.452574 0.359407 -0.061114
0.488114 0.335923 -0.064316
0.523844 0.314067 -0.067601
0.559795 0.296686 -0.071039
0.595914 0.284939 -0.074488
0.632223 0.278791 -0.078019
0.668538 0.278214 -0.081284
0.703615 0.284745 -0.082199
0.738617 0.294416 -0.083112
0.773523 0.306322 -0.083985
0.808333 0.319659 -0.084816
0.843017 0.333781 -0.085563
0.877633 0.348102 -0.086312
0.912154 0.362238 -0.087020
0.946541 0.376005 -0.087641
0.980868 0.389201 -0.088266
1.015098 0.401681 -0.088850
1.049233 0.413356 -0.089394
1.083227 0.424154 -0.089847
-0.030285 0.427558 -0.030285
0.002800 0.427064 -0.032555
0.036040 0.426517 -0.034956
0.069512 0.425858 -0.037391
0.103176 0.425117 -0.039908
0.137032 0.424294 -0.042507
0.171059 0.423411 -0.045244
0.205302 0.422424 -0.048008
0.239736 0.421354 -0.050853
0.274354 0.420219 -0.053842
0.309176 0.418985 -0.056853
0.344189 0.417668 -0.059946
0.379394 0.416270 -0.063120
0.414799 0.414799 -0.066445
0.450392 0.410813 -0.069784
0.486175 0.391537 -0.073206
0.522172 0.365621 -0.076782
0.557885 0.341451 -0.079009
0.593150 0.323346 -0.079977
0.628319 0.311512 -0.080904
0.663374 0.305738 -0.081750
0.698349 0.305172 -0.082595
0.733229 0.308939 -0.083398
0.767987 0.316155 -0.084118
0.802673 0.325867 -0.084839
0.837263 0.337374 -0.085519
0.871757 0.350033 -0.086158
0.906121 0.363335 -0.086710
0.940421 0.376792 -0.087267
0.974626 0.390085 -0.087782
1.008734 0.403042 -0.088257
1.042705 0.415518 -0.088641
1.076619 0.427373 -0.089033
-0.036422 0.463126 -0.036422
-0.003137 0.462583 -0.038962
0.030388 0.461923 -0.041534
0.064105 0.461182 -0.044189
0.097981 0.460386 -0.046981
0.132086 0.459480 -0.049800
0.166382 0.458492 -0.052701
0.200869 0.457422 -0.055684
0.235533 0.456291 -0.058811
0.270408 0.455056 -0.061959
0.305474 0.453739 -0.065189
0.340732 0.452341 -0.068501
0.376182 0.450874 -0.071964
0.411828 0.449310 -0.075440
0.447380 0.447380 -0.076787
0.482806 0.443507 -0.077732
0.518140 0.425252 -0.078672
0.553379 0.400912 -0.079572
0.588522 0.377682 -0.080431
0.623553 0.358832 -0.081207
0.658502 0.345414 -0.081983
0.693355 0.337488 -0.082718
0.728091 0.334610 -0.083368
0.762750 0.335948 -0.084021
0.797314 0.340773 -0.084632
0.831781 0.348329 -0.085203
0.866123 0.357975 -0.085685
0.900396 0.369014 -0.086173
0.934574 0.380982 -0.086620
0.968620 0.393471 -0.086976
1.002604 0.406068 -0.087340
1.036492 0.418516 -0.087664
1.070284 0.430644 -0.087946
-0.043157 0.499114 -0.043157
-0.009578 0.498454 -0.045866
0.024192 0.497713 -0.048657
0.058114 0.496921 -0.051588
0.092271 0.496014 -0.054544
0.126620 0.495025 -0.057583
0.161161 0.493955 -0.060702
0.195870 0.492828 -0.063969
0.230798 0.491592 -0.067254
0.265917 0.490275 -0.070621
0.301313 0.488724 -0.073508
0.337007 0.486662 -0.074545
0.372605 0.484641 -0.075540
0.408106 0.482660 -0.076495
0.443509 0.480715 -0.077370
0.478817 0.478817 -0.078242
0.514029 0.475581 -0.079073
0.549145 0.459356 -0.079863
0.584154 0.436630 -0.080570
0.619077 0.414066 -0.081277
0.653903 0.394889 -0.081943
0.688616 0.380451 -0.082524
0.723249 0.370920 -0.083108
0.757786 0.366048 -0.083651
0.792227 0.365289 -0.084153
0.826546 0.368057 -0.084566
0.860793 0.373580 -0.084985
0.894944 0.381303 -0.085364
0.928967 0.390719 -0.085650
0.962924 0.401241 -0.085946
0.996786 0.412505 -0.086201
1.030551 0.424159 -0.086415
1.064180 0.435930 -0.086533
-0.050386 0.535450 -0.050386
-0.016563 0.534708 -0.053314
0.017404 0.533920 -0.056384
0.051615 0.533013 -0.059477
0.086017 0.532024 -0.062652
0.120610 0.530954 -0.065909
0.155365 0.529830 -0.069314
0.190905 0.528031 -0.071303
0.226766 0.525886 -0.072354
0.262540 0.523771 -0.073327
0.298207 0.521709 -0.074295
0.333779 0.519688 -0.075222
0.369254 0.517708 -0.076108
0.404634 0.515760 -0.076913
0.439915 0.513863 -0.077717
0.475101 0.512006 -0.078479
0.510185 0.510185 -0.079158
0.545177 0.507457 -0.079838
0.580073 0.493120 -0.080477
0.614873 0.472050 -0.081075
0.649563 0.450431 -0.081586
0.684169 0.431360 -0.082101
0.718679 0.416264 -0.082576
0.753093 0.405569 -0.083009
0.787390 0.399221 -0.083352
0.821610 0.396710 -0.083703
0.855735 0.397572 -0.084013
0.889735 0.401312 -0.084230
0.923666 0.407265 -0.084457
0.957501 0.414990 -0.084643
0.991240 0.424037 -0.084789
1.024846 0.434052 -0.084838
1.058392 0.444604 -0.084901
-0.058159 0.572170 -0.058159
-0.024147 0.571386 -0.061368
0.010117 0.570478 -0.064598
0.044572 0.569489 -0.067910
0.080626 0.567275 -0.069113
0.116673 0.565032 -0.070143
0.152603 0.562846 -0.071166
0.188437 0.560702 -0.072148
0.224189 0.558585 -0.073052
0.259829 0.556523 -0.073951
0.295374 0.554502 -0.074809
0.330822 0.552522 -0.075627
0.366180 0.550573 -0.076363
0.401435 0.548676 -0.077097
0.436594 0.546819 -0.077791
0.471655 0.544996 -0.078401
0.506621 0.543222 -0.079012
0.541490 0.541490 -0.079582
0.576263 0.539165 -0.080112
0.610931 0.526559 -0.080554
0.645510 0.507179 -0.081000
0.679994 0.486650 -0.081406
0.714382 0.467987 -0.081771
0.748655 0.452699 -0.082045
0.782849 0.441245 -0.082327
0.816947 0.433686 -0.082568
0.850925 0.429824 -0.082716
0.884829 0.429122 -0.082874
0.918637 0.431178 -0.082992
0.952350 0.435521 -0.083069
0.985933 0.441760 -0.083048
1.019452 0.449360 -0.083042
1.052875 0.458014 -0.082996
-0.065786 0.608786 -0.065786
-0.029497 0.606436 -0.066905
0.006696 0.604127 -0.067982
0.042794 0.601860 -0.069019
0.078819 0.599614 -0.069980
0.114722 0.597429 -0.070934
0.150530 0.595285 -0.071848
0.186259 0.593166 -0.072682
0.221873 0.591104 -0.073513
0.257390 0.589083 -0.074303
0.292813 0.587104 -0.075051
0.328147 0.585153 -0.075718
0.363376 0.583256 -0.076384
0.398508 0.581399 -0.077009
0.433547 0.579574 -0.077550
0.468485 0.577801 -0.078092
0.503328 0.576068 -0.078594
0.538075 0.574377 -0.079055
0.572720 0.572720 -0.079427
0.607273 0.570715 -0.079805
0.641730 0.559693 -0.080142
0.676079 0.541989 -0.080388
0.710342 0.522711 -0.080643
0.744509 0.504713 -0.080856
0.778581 0.489463 -0.081029
0.812536 0.477645 -0.081107
0.846413 0.469283 -0.081197
0.880195 0.464267 -0.081246
0.913881 0.462286 -0.081255
0.947442 0.463028 -0.081165
0.980934 0.465945 -0.081090
1.014330 0.470711 -0.080975
1.047595 0.477016 -0.080759
-0.066854 0.640787 -0.066854
-0.030687 0.638479 -0.067863
0.005412 0.636190 -0.068797
0.041385 0.633964 -0.069723
0.077263 0.631779 -0.070609
0.113044 0.629635 -0.071453
0.148749 0.627514 -0.072219
0.184337 0.625452 -0.072981
0.219828 0.623432 -0.073702
0.255224 0.621452 -0.074382
0.290536 0.619499 -0.074979
0.325738 0.617603 -0.075577
0.360844 0.615747 -0.076133
0.395860 0.613920 -0.076604
0.430772 0.612146 -0.077078
0.465588 0.610414 -0.077511
0.500308 0.608723 -0.077903
0.534930 0.607064 -0.078206
0.569457 0.605455 -0.078516
0.603887 0.603887 -0.078784
0.638213 0.602127 -0.078961
0.672450 0.592550 -0.079147
0.706591 0.576468 -0.079292
0.740636 0.558514 -0.079396
0.774568 0.541397 -0.079405
0.808419 0.526497 -0.079426
0.842174 0.514512 -0.079406
0.875810 0.505715 -0.079289
0.909372 0.499913 -0.079187
0.942837 0.496932 -0.079044
0.976207 0.496463 -0.078860
1.009449 0.498234 -0.078574
1.042625 0.501750 -0.078308
-0.067650 0.672597 -0.067650
-0.031573 0.670306 -0.068514
0.004373 0.668081 -0.069372
0.040224 0.665896 -0.070189
0.075978 0.663752 -0.070965
0.111662 0.661629 -0.071661
0.147223 0.659568 -0.072354
0.182687 0.657548 -0.073007
0.218075 0.655551 -0.073576
0.253346 0.653613 -0.074146
0.288521 0.651717 -0.074675
0.323600 0.649861 -0.075163
0.358594 0.648032 -0.075564
0.393479 0.646259 -0.075970
0.428269 0.644527 -0.076334
0.462962 0.642836 -0.076658
0.497562 0.641175 -0.076891
0.532062 0.639566 -0.077132
0.566465 0.637999 -0.077332
0.600769 0.636464 -0.077439
0.634979 0.634979 -0.077557
0.669093 0.633420 -0.077633
0.703112 0.625146 -0.077668
0.737021 0.610644 -0.077608
0.770846 0.594080 -0.077560
0.804574 0.577930 -0.077472
0.838188 0.563628 -0.077285
0.871723 0.551791 -0.077115
0.905162 0.542716 -0.076903
0.938505 0.536399 -0.076651
0.971724 0.532753 -0.076295
1.004874 0.531385 -0.075960
1.037927 0.532074 -0.075584
-0.068137 0.704190 -0.068137
-0.032217 0.701964 -0.068926
0.003607 0.699780 -0.069675
0.039335 0.697636 -0.070382
0.074995 0.695511 -0.071009
0.110530 0.693450 -0.071633
0.145968 0.691430 -0.072217
0.181332 0.689432 -0.072717
0.216577 0.687494 -0.073219
0.251726 0.685598 -0.073679
0.286778 0.683742 -0.074098
0.321749 0.681912 -0.074430
0.356608 0.680139 -0.074767
0.391371 0.678407 -0.075063
0.426045 0.676702 -0.075269
0.460615 0.675053 -0.075482
0.495088 0.673445 -0.075654
0.529465 0.671877 -0.075786
0.563746 0.670341 -0.075823
0.597929 0.668856 -0.075872
0.632017 0.667412 -0.075880
0.666009 0.666009 -0.075847
0.699896 0.664595 -0.075717
0.733694 0.657502 -0.075601
0.767396 0.644504 -0.075444
0.800987 0.629364 -0.075188
0.834495 0.614325 -0.074948
0.867907 0.600717 -0.074668
0.901224 0.589236 -0.074347
0.934421 0.580245 -0.073923
0.967543 0.573671 -0.073519
1.000570 0.569462 -0.073074
1.033471 0.567503 -0.072523
-0.068387 0.735615 -0.068387
-0.032589 0.733431 -0.069067
0.003112 0.731288 -0.069705
0.038750 0.729161 -0.070262
0.074258 0.727100 -0.070818
0.109669 0.725080 -0.071334
0.145011 0.723080 -0.071764
0.180229 0.721143 -0.072197
0.215351 0.719246 -0.072589
0.250377 0.717391 -0.072940
0.285325 0.715558 -0.073202
0.320158 0.713786 -0.073470
0.354894 0.712054 -0.073698
0.389546 0.710348 -0.073834
0.424089 0.708699 -0.073979
0.458535 0.707090 -0.074082
0.492886 0.705523 -0.074145
0.527144 0.703985 -0.074113
0.561301 0.702500 -0.074094
0.595363 0.701056 -0.074033
0.629324 0.699644 -0.073875
0.663192 0.698283 -0.073731
0.696963 0.696963 -0.073547
0.730639 0.695674 -0.073322
0.764207 0.689636 -0.072996
0.797688 0.678080 -0.072688
0.831074 0.664336 -0.072339
0.864364 0.650476 -0.071949
0.897538 0.637780 -0.071455
0.930634 0.626850 -0.070983
0.963635 0.618036 -0.070470
0.996513 0.611494 -0.069850
1.029319 0.607023 -0.069254
-0.068364 0.766849 -0.068364
-0.032651 0.764679 -0.068893
0.002926 0.762577 -0.069422
0.038407 0.760517 -0.069909
0.073792 0.758497 -0.070356
0.109112 0.756495 -0.070717
0.144303 0.754558 -0.071081
0.179398 0.752662 -0.071404
0.214398 0.750807 -0.071687
0.249323 0.748972 -0.071880
0.284129 0.747200 -0.072080
0.318839 0.745468 -0.072238
0.353468 0.743760 -0.072305
0.387984 0.742111 -0.072381
0.422404 0.740503 -0.072416
0.456729 0.738936 -0.072410
0.490964 0.737396 -0.072309
0.525094 0.735911 -0.072221
0.559129 0.734468 -0.072091
0.593068 0.733054 -0.071864
0.626909 0.731693 -0.071652
0.660654 0.730373 -0.071399
0.694303 0.729094 -0.071105
0.727848 0.727848 -0.070710
0.761303 0.726652 -0.070333
0.794663 0.721564 -0.069916
0.827912 0.711372 -0.069394
0.861077 0.699034 -0.068894
0.894147 0.686419 -0.068353
0.927121 0.674669 -0.067771
0.959976 0.664487 -0.067082
0.992756 0.656098 -0.066417
1.025440 0.649653 -0.065712
-0.068027 0.797862 -0.068027
-0.032477 0.795761 -0.068487
0.002978 0.793701 -0.068906
0.038336 0.791682 -0.069284
0.073633 0.789677 -0.069576
0.108798 0.787740 -0.069871
0.143867 0.785845 -0.070126
0.178867 0.783966 -0.070291
0.213742 0.782153 -0.070463
0.248521 0.780381 -0.070594
0.283205 0.778650 -0.070684
0.317811 0.776939 -0.070682
0.352301 0.775291 -0.070689
0.386694 0.773683 -0.070656
0.420992 0.772116 -0.070581
0.455205 0.770574 -0.070411
0.489309 0.769090 -0.070254
0.523317 0.767646 -0.070056
0.557233 0.766231 -0.069759
0.591047 0.764870 -0.069478
0.624766 0.763550 -0.069157
0.658388 0.762271 -0.068794
0.691911 0.761024 -0.068330
0.725339 0.759827 -0.067884
0.758672 0.758672 -0.067398
0.791899 0.757550 -0.066807
0.825038 0.753299 -0.066239
0.858081 0.744389 -0.065629
0.891028 0.733421 -0.064978
0.923860 0.722102 -0.064219
0.956614 0.711428 -0.063486
0.989271 0.702024 -0.062712
1.021833 0.694208 -0.061897
-0.067458 0.828712 -0.067458
-0.032030 0.826652 -0.067809
0.003302 0.824633 -0.068118
0.038576 0.822626 -0.068340
0.073714 0.820690 -0.068567
0.108756 0.818794 -0.068753
0.143734 0.816914 -0.068849
0.178582 0.815101 -0.068953
0.213335 0.813329 -0.069015
0.247992 0.811598 -0.069036
0.282576 0.809886 -0.068964
0.317039 0.808238 -0.068903
0.351406 0.806630 -0.068801
0.385677 0.805063 -0.068658
0.419867 0.803519 -0.068418
0.453944 0.802035 -0.068192
0.487926 0.800592 -0.067926
0.521819 0.799174 -0.067560
0.555607 0.797814 -0.067210
0.589299 0.796494 -0.066820
0.622895 0.795216 -0.066389
0.656395 0.793966 -0.065855
0.689797 0.792770 -0.065341
0.723103 0.791615 -0.064787
0.756307 0.790491 -0.064126
0.789419 0.789419 -0.063489
0.822435 0.788388 -0.062811
0.855356 0.784859 -0.062092
0.888166 0.777155 -0.061263
0.920893 0.767535 -0.060461
0.953524 0.757483 -0.059619
