vendor/NativeMatch/NativeMatch.ofx.bundle/Contents/Resources/Cubes/Tungsten_Fix_1.cube
LUT_3D_SIZE 5
-0.001972 0.000458 0.002265
0.187023 0.019571 0.041877
0.338957 0.061096 0.080044
0.461534 0.118085 0.120119
0.569465 0.182407 0.162513
-0.151910 0.318654 0.072343
0.213071 0.243103 0.117101
0.408648 0.261093 0.160297
0.560342 0.302157 0.205288
0.683022 0.358074 0.252157
-0.299916 0.630758 0.151776
0.094616 0.538656 0.201685
0.448092 0.474213 0.249965
0.640138 0.494016 0.298818
0.789023 0.536038 0.348875
-0.447192 0.939316 0.241138
-0.052607 0.846330 0.295006
0.362896 0.749310 0.346724
0.690104 0.699681 0.398186
0.876912 0.722211 0.450000
-0.593985 1.245342 0.338036
-0.199359 1.151756 0.394534
0.216180 1.054282 0.448169
0.640056 0.955212 0.500778
0.936166 0.922396 0.552802
-0.032277 -0.029847 0.503628
0.194034 -0.009850 0.432348
0.353876 0.048956 0.358460
0.481458 0.124548 0.287728
0.591433 0.190358 0.316537
-0.181251 0.328758 0.354653
0.213486 0.259371 0.285267
0.418863 0.274904 0.314816
0.577528 0.314670 0.347778
0.704428 0.370433 0.384104
-0.328784 0.664556 0.306683
0.065821 0.574639 0.344528
0.451190 0.495767 0.382307
0.652418 0.512637 0.421962
0.807782 0.552870 0.464183
-0.475868 0.977006 0.373830
-0.081237 0.885709 0.418471
0.334302 0.790133 0.462336
0.695388 0.724477 0.507271
0.890954 0.743587 0.553830
-0.622530 1.285999 0.453960
-0.227874 1.193620 0.503891
0.187690 1.097113 0.552262
0.611588 0.998769 0.600885
0.943460 0.948385 0.650106
-0.061365 -0.058935 0.984865
0.200536 -0.057815 0.913980
0.368300 -0.002858 0.839994
0.500979 0.070996 0.765466
0.613409 0.155582 0.690719
-0.210340 0.299669 0.835891
0.184398 0.230283 0.766504
0.427783 0.246015 0.692890
0.593896 0.302718 0.618426
0.725494 0.376842 0.547325
-0.357723 0.654444 0.688508
0.037015 0.585057 0.619121
0.452639 0.511999 0.546063
0.663532 0.526399 0.572996
0.825791 0.565320 0.603841
-0.504512 1.007787 0.541719
-0.109835 0.919572 0.569972
0.305739 0.826132 0.602442
0.699105 0.745977 0.637277
0.903849 0.762142 0.675003
-0.651059 1.321838 0.594499
-0.256365 1.231343 0.634304
0.159225 1.136495 0.673831
0.583143 1.039574 0.714891
0.949201 0.973118 0.757737
-0.090012 -0.087582 1.458789
0.206215 -0.104690 1.388296
0.382269 -0.053745 1.314198
0.520442 0.017458 1.239593
0.635638 0.100765 1.164777
-0.238986 0.271023 1.309814
0.155751 0.201636 1.240428
0.435686 0.198503 1.166944
0.609562 0.251343 1.092432
0.746168 0.323715 1.017632
-0.386370 0.625797 1.162431
0.008368 0.556411 1.093045
0.423992 0.483353 1.019987
0.673378 0.497737 0.945471
0.842985 0.553449 0.870592
-0.533158 0.979140 1.015643
-0.138421 0.909754 0.946256
0.277204 0.836696 0.873198
0.701142 0.762176 0.798678
0.915545 0.775860 0.824018
-0.679583 1.331607 0.869218
-0.284845 1.262220 0.799831
0.130775 1.170412 0.823365
0.554720 1.075591 0.853318
0.953341 0.994587 0.886230
-0.118452 -0.116022 1.929299
0.210686 -0.150629 1.859193
0.395437 -0.103889 1.784977
0.539576 -0.035574 1.710292
0.657945 0.046248 1.635407
-0.267427 0.242583 1.780324
0.127311 0.173196 1.710938
0.442391 0.151935 1.637572
0.624466 0.200686 1.563015
0.766512 0.270379 1.488166
-0.414810 0.597357 1.632941
-0.020072 0.527971 1.563554
0.395552 0.454913 1.490496
0.682012 0.450399 1.415988
0.859370 0.502252 1.341062
-0.561598 0.950700 1.486152
-0.166861 0.881314 1.416766
0.248764 0.808256 1.343708
0.672702 0.733736 1.269188
0.925937 0.747269 1.194089
-0.708023 1.303167 1.339728
-0.313285 1.233780 1.270341
0.102339 1.160722 1.197283
0.526278 1.086203 1.122764
0.955703 1.010719 1.047280
