vendor/NativeMatch/NativeMatch.ofx.bundle/Contents/Resources/Cubes/Tungsten_Fix_1.cube
LUT_3D_SIZE 9
-0.001972 0.000458 0.002265
0.096600 0.006922 0.022792
0.187023 0.019571 0.041877
0.267478 0.037909 0.060792
0.338957 0.061096 0.080044
0.403025 0.088161 0.099799
0.461534 0.118085 0.120119
0.516339 0.149850 0.141018
0.569465 0.182407 0.162513
-0.077419 0.160746 0.036624
0.100530 0.124105 0.058332
0.204329 0.129564 0.078232
0.296039 0.141798 0.098363
0.376855 0.159876 0.118916
0.448428 0.182801 0.139942
0.512622 0.209544 0.161511
0.571315 0.239073 0.183632
0.626523 0.270334 0.206288
-0.151910 0.318654 0.072343
0.040261 0.274140 0.095391
0.213071 0.243103 0.117101
0.317195 0.248715 0.138495
0.408648 0.261093 0.160297
0.489091 0.279248 0.182554
0.560342 0.302157 0.205288
0.624319 0.328782 0.228495
0.683022 0.358074 0.252157
-0.226034 0.475233 0.110723
-0.033836 0.430416 0.135030
0.168469 0.383668 0.158216
0.329406 0.359583 0.181108
0.432882 0.365607 0.204071
0.523570 0.378331 0.227418
0.603301 0.396730 0.251160
0.673991 0.419767 0.275293
0.737628 0.446395 0.299796
-0.299916 0.630758 0.151776
-0.107702 0.585663 0.177325
0.094616 0.538656 0.201685
0.301003 0.490809 0.225878
0.448092 0.474213 0.249965
0.550477 0.480818 0.274236
0.640138 0.494016 0.298818
0.718992 0.512770 0.323705
0.789023 0.536038 0.348875
-0.373624 0.785408 0.195350
-0.181396 0.740067 0.222005
0.020935 0.692833 0.247394
0.227334 0.644773 0.272537
0.436418 0.596142 0.297633
0.568470 0.587455 0.322689
0.669509 0.594756 0.347939
0.757994 0.608529 0.373401
0.835890 0.627733 0.399056
-0.447192 0.939316 0.241138
-0.254950 0.893760 0.268747
-0.052607 0.846330 0.295006
0.153803 0.798096 0.320932
0.362896 0.749310 0.346724
0.574006 0.700098 0.372453
0.690104 0.699681 0.398186
0.789687 0.707772 0.424041
0.876912 0.722211 0.450000
-0.520639 1.092592 0.288815
-0.328386 1.046859 0.317211
-0.126033 0.999271 0.344170
0.080386 0.950897 0.370708
0.289488 0.901988 0.397023
0.500608 0.852673 0.423185
0.700573 0.809521 0.449226
0.812729 0.811227 0.475289
0.910774 0.820192 0.501363
-0.593985 1.245342 0.338036
-0.401722 1.199468 0.367047
-0.199359 1.151756 0.394534
0.007070 1.103276 0.421509
0.216180 1.054282 0.448169
0.427307 1.004901 0.474585
0.640056 0.955212 0.500778
0.825827 0.919609 0.526798
0.936166 0.922396 0.552802
-0.017435 -0.015005 0.258081
0.097505 -0.007043 0.223035
0.190605 0.014696 0.186592
0.273306 0.042067 0.151675
0.346553 0.065087 0.166740
0.412023 0.092132 0.182643
0.471515 0.122191 0.199405
0.527008 0.154223 0.217006
0.580419 0.187200 0.235433
-0.092322 0.165261 0.183193
0.100000 0.131454 0.149387
0.206597 0.136246 0.165065
0.300638 0.147973 0.181342
0.383439 0.165687 0.198325
0.456650 0.188389 0.216059
0.522090 0.215057 0.234554
0.581726 0.244647 0.253796
0.637506 0.276121 0.273755
-0.166524 0.334125 0.159202
0.025690 0.290268 0.178389
0.213480 0.252029 0.196647
0.320197 0.256925 0.214742
0.413902 0.268735 0.233454
0.496229 0.286466 0.252828
0.569011 0.309095 0.272855
0.634204 0.335578 0.293541
0.693762 0.364875 0.314871
-0.240544 0.491884 0.190323
-0.048321 0.447653 0.211327
0.154004 0.401460 0.231421
0.330530 0.369830 0.251490
0.436499 0.375089 0.271739
0.529352 0.387180 0.292563
0.610912 0.405089 0.313965
0.683091 0.427780 0.335937
0.747864 0.454208 0.358455
-0.314359 0.648475 0.225120
-0.122125 0.603902 0.247761
0.080212 0.557382 0.269404
0.286615 0.509988 0.291072
0.449843 0.485532 0.312858
0.554664 0.491301 0.334965
0.646428 0.503805 0.357558
0.727047 0.522012 0.380625
0.798492 0.544875 0.404144
-0.388011 0.804072 0.263181
-0.195767 0.759186 0.287306
0.006579 0.712376 0.310350
0.212990 0.664711 0.333326
0.422083 0.616445 0.356430
0.570769 0.599584 0.379689
0.674210 0.605988 0.403279
0.764740 0.619009 0.427250
0.844329 0.637605 0.451581
-0.461533 0.958807 0.304190
-0.269279 0.913647 0.329627
-0.066926 0.866582 0.353889
0.139493 0.818681 0.377991
0.348595 0.770196 0.402128
0.559714 0.721255 0.426369
0.692943 0.712365 0.450774
0.794851 0.719499 0.475461
0.884064 0.733125 0.500412
-0.534945 1.112799 0.347781
-0.342683 1.067400 0.374346
-0.140320 1.020114 0.399645
0.066107 0.972011 0.424690
0.275216 0.923345 0.449675
0.486342 0.874244 0.474669
0.699089 0.824784 0.499694
0.816080 0.824206 0.524899
0.916398 0.832156 0.550276
-0.608261 1.266147 0.393580
-0.415989 1.220545 0.421092
-0.213619 1.173076 0.447243
-0.007184 1.124810 0.473045
0.201932 1.076001 0.498693
0.413065 1.026772 0.524257
0.625819 0.977205 0.549757
0.827092 0.933853 0.575214
0.939999 0.935422 0.600826
-0.032277 -0.029847 0.503628
0.098378 -0.030415 0.468859
0.194034 -0.009850 0.432348
0.278826 0.016874 0.395508
0.353876 0.048956 0.358460
0.420821 0.085423 0.321277
0.481458 0.124548 0.287728
0.537629 0.156916 0.301626
0.591433 0.190358 0.316537
-0.107164 0.150418 0.428741
0.085158 0.116612 0.394934
0.208403 0.122574 0.358714
0.304877 0.143207 0.321948
0.389771 0.169835 0.286802
0.464672 0.192372 0.300812
0.531457 0.219018 0.315787
0.592047 0.248738 0.331715
0.648476 0.280478 0.348557
-0.181251 0.328758 0.354653
0.011071 0.294952 0.320847
0.213486 0.259371 0.285267
0.322875 0.263604 0.299625
0.418863 0.274904 0.314816
0.503138 0.292267 0.330866
0.577528 0.314670 0.347778
0.643952 0.341076 0.365535
0.704428 0.370433 0.384104
-0.255040 0.506378 0.280865
-0.062788 0.463171 0.296270
0.139559 0.417613 0.312841
0.331251 0.378748 0.329657
0.439784 0.383289 0.346787
0.534867 0.394809 0.364667
0.618297 0.412290 0.383306
0.691996 0.434699 0.402676
0.757969 0.460985 0.422761
-0.328784 0.664556 0.306683
-0.136531 0.620585 0.326007
0.065821 0.574639 0.344528
0.272237 0.527789 0.363254
0.451190 0.495767 0.382307
0.558498 0.500766 0.401805
0.652418 0.512637 0.421962
0.734857 0.530353 0.442762
0.807782 0.552870 0.464183
-0.402387 0.821268 0.338437
-0.210128 0.776925 0.359614
-0.007770 0.730627 0.379877
0.198653 0.683442 0.400243
0.407758 0.635624 0.420912
0.572694 0.610887 0.441917
0.678569 0.616453 0.463405
0.771199 0.628781 0.485439
0.852548 0.646828 0.507996
-0.475868 0.977006 0.373830
-0.283602 0.932326 0.396650
-0.081237 0.885709 0.418471
0.125192 0.838227 0.440302
0.334302 0.790133 0.462336
0.545428 0.741552 0.484640
0.695388 0.724477 0.507271
0.799696 0.730713 0.530337
0.890954 0.743587 0.553830
-0.549244 1.131881 0.412460
-0.356972 1.086901 0.436750
-0.154601 1.040006 0.459940
0.051834 0.992264 0.483042
0.260950 0.943928 0.506249
0.472083 0.895125 0.529629
0.684837 0.845933 0.553201
0.819044 0.836873 0.577088
0.921689 0.843866 0.601322
-0.622530 1.285999 0.453960
-0.430251 1.240758 0.479524
-0.227874 1.193620 0.503891
-0.021432 1.145653 0.528072
0.187690 1.097113 0.552262
0.398829 1.048125 0.576526
0.611588 0.998769 0.600885
0.825704 0.949102 0.625336
0.943460 0.948385 0.650106
-0.046893 -0.044463 0.745443
0.099236 -0.053379 0.710920
0.197386 -0.033997 0.674362
0.284305 -0.008306 0.637496
0.361138 0.022913 0.600424
0.429492 0.058695 0.563222
0.491199 0.098024 0.525937
0.548182 0.139862 0.488596
0.602412 0.183157 0.451228
-0.121781 0.135802 0.670556
0.070542 0.101996 0.636749
0.209942 0.099460 0.600670
0.308841 0.118898 0.563883
0.395782 0.144870 0.526862
0.472427 0.176368 0.489693
0.540628 0.212357 0.452424
0.602305 0.251082 0.418771
0.659393 0.283156 0.432060
-0.195868 0.314141 0.596468
-0.003546 0.280335 0.562662
0.198870 0.244755 0.527082
0.325109 0.250054 0.490406
0.423470 0.270187 0.453397
0.509784 0.296404 0.418068
0.585836 0.318641 0.431412
0.653581 0.345024 0.445777
0.714998 0.374510 0.461139
-0.269656 0.491761 0.522680
-0.077334 0.457955 0.488874
0.125081 0.422375 0.453293
0.331556 0.386081 0.416999
0.442726 0.389959 0.430551
0.540077 0.400966 0.445038
0.625442 0.418078 0.460460
0.700735 0.440260 0.476799
0.767932 0.466467 0.494028
-0.343251 0.668916 0.449085
-0.150929 0.635110 0.415279
0.051441 0.590175 0.428382
0.257872 0.543951 0.443715
0.452126 0.504674 0.459591
0.561989 0.508954 0.476054
0.658129 0.520252 0.493341
0.742434 0.537539 0.511441
0.816874 0.559772 0.530319
-0.416751 0.836743 0.422433
-0.224478 0.793027 0.440209
-0.022107 0.747325 0.457260
0.184326 0.700707 0.474591
0.393440 0.653426 0.492393
0.574210 0.621111 0.510708
0.682572 0.625904 0.529644
0.777356 0.637596 0.549293
0.860521 0.655153 0.569627
-0.490192 0.993650 0.451343
-0.297916 0.949538 0.471123
-0.095541 0.903458 0.490071
0.110897 0.856484 0.509190
0.320016 0.808864 0.528674
0.531150 0.760728 0.548595
0.697452 0.735765 0.568997
0.804196 0.741163 0.589998
0.897553 0.753342 0.611588
-0.563537 1.149582 0.484178
-0.371255 1.105111 0.505745
-0.168875 1.058691 0.526380
0.037568 1.011394 0.547093
0.246692 0.963475 0.568075
0.457831 0.915058 0.589392
0.670590 0.866225 0.611062
0.821611 0.848969 0.633186
0.926656 0.855063 0.655825
-0.636794 1.304642 0.520500
-0.444507 1.259847 0.543669
-0.242122 1.213125 0.565806
-0.035674 1.165546 0.587918
0.173454 1.117364 0.610201
0.384598 1.068704 0.632718
0.597362 1.019645 0.655490
0.811483 0.970244 0.678512
0.946529 0.961036 0.701969
-0.061365 -0.058935 0.984865
0.099869 -0.075991 0.950577
0.200536 -0.057815 0.913980
0.289632 -0.033186 0.877089
0.368300 -0.002858 0.839994
0.438148 0.032206 0.802770
0.500979 0.070996 0.765466
0.558739 0.112470 0.728109
0.613409 0.155582 0.690719
-0.136253 0.121330 0.909978
0.056070 0.087524 0.876172
0.211294 0.076687 0.840220
0.312627 0.094909 0.803420
0.401659 0.119842 0.766386
0.480061 0.150475 0.729201
0.549659 0.185776 0.691920
0.612391 0.224698 0.654573
0.670251 0.266184 0.617183
-0.210340 0.299669 0.835891
-0.018018 0.265863 0.802085
0.184398 0.230283 0.766504
0.327031 0.227071 0.729914
0.427783 0.246015 0.692890
0.516129 0.271574 0.655709
0.593896 0.302718 0.618426
0.663024 0.338394 0.581073
0.725494 0.376842 0.547325
-0.284128 0.477290 0.762103
-0.091806 0.443483 0.728296
0.110609 0.407903 0.692716
0.317084 0.371609 0.656422
0.445247 0.376489 0.619452
0.544943 0.396282 0.582263
0.632318 0.422206 0.546790
0.709261 0.444220 0.559644
0.777766 0.470404 0.573554
-0.357723 0.654444 0.688508
-0.165401 0.620638 0.654701
0.037015 0.585057 0.619121
0.243489 0.548763 0.582827
0.452639 0.511999 0.546063
0.565127 0.515616 0.559031
0.663532 0.526399 0.572996
0.749764 0.543315 0.587942
0.825791 0.565320 0.603841
-0.431175 0.831253 0.615056
-0.238852 0.797446 0.581250
-0.036437 0.761866 0.545670
0.170009 0.716252 0.557683
0.379134 0.669593 0.572164
0.575310 0.630007 0.587340
0.686225 0.634080 0.603293
0.783227 0.645198 0.620118
0.868255 0.662324 0.637793
-0.504512 1.007787 0.541719
-0.312220 0.965029 0.554351
-0.109835 0.919572 0.569972
0.096612 0.873189 0.585940
0.305739 0.826132 0.602442
0.516880 0.778529 0.619544
0.699105 0.745977 0.637277
0.808338 0.750600 0.655766
0.903849 0.762142 0.675003
-0.577820 1.165648 0.564207
-0.385529 1.121768 0.582621
-0.183141 1.075911 0.600268
0.023309 1.029148 0.618156
0.232439 0.981732 0.636470
0.443585 0.933788 0.655277
0.656350 0.885397 0.674599
0.823791 0.860244 0.694508
0.931276 0.865499 0.715109
-0.651059 1.321838 0.594499
-0.458761 1.277569 0.614841
-0.256365 1.231343 0.634304
-0.049909 1.184235 0.653902
0.159225 1.136495 0.673831
0.370374 1.088248 0.694154
0.583143 1.039574 0.714891
0.797269 0.990528 0.736037
0.949201 0.973118 0.757737
-0.075731 -0.073301 1.222525
0.100206 -0.098278 1.188465
0.203474 -0.081358 1.151831
0.294824 -0.057825 1.114912
0.375353 -0.028401 1.077794
0.446711 0.005928 1.040553
0.510745 0.044145 1.003228
0.569334 0.085228 0.965855
0.624499 0.128121 0.928447
-0.150618 0.106964 1.147638
0.041704 0.073158 1.113832
0.212361 0.054230 1.078001
0.316166 0.071211 1.041191
0.407343 0.095075 1.004144
0.487556 0.124814 0.966945
0.558626 0.159397 0.929647
0.622471 0.197777 0.892287
0.681097 0.238897 0.854884
-0.224705 0.285304 1.073550
-0.032383 0.251498 1.039744
0.170032 0.215917 1.004164
0.328700 0.204395 0.967649
0.431870 0.222125 0.930615
0.522297 0.246646 0.893423
0.601811 0.276924 0.856127
0.672330 0.311914 0.818763
0.735848 0.350556 0.781353
-0.298494 0.462924 0.999762
-0.106172 0.429118 0.965956
0.096244 0.393537 0.930376
0.302718 0.357244 0.894082
0.447439 0.353600 0.857158
0.549516 0.372206 0.819957
0.638918 0.397472 0.782647
0.717557 0.428354 0.745268
0.787425 0.463795 0.707840
-0.372089 0.640078 0.926167
-0.179766 0.606272 0.892361
0.022649 0.570692 0.856781
0.229123 0.534398 0.820487
0.438273 0.497634 0.783723
0.567866 0.502204 0.746532
0.668599 0.521738 0.709202
0.756823 0.547433 0.673611
0.834494 0.569270 0.686077
-0.445540 0.816887 0.852716
-0.253218 0.783081 0.818910
-0.050802 0.747501 0.783329
0.155672 0.711207 0.747035
0.364822 0.674443 0.710271
0.575983 0.637325 0.673154
0.689521 0.640733 0.685664
0.788785 0.651335 0.699214
0.875739 0.668089 0.713777
-0.518877 0.993421 0.779379
-0.326555 0.959615 0.745572
-0.124139 0.924035 0.709992
0.082335 0.887741 0.673698
0.291471 0.841684 0.684949
0.502620 0.794699 0.698777
0.700338 0.754865 0.713395
0.812126 0.758766 0.728934
0.909854 0.769732 0.745380
-0.592120 1.169727 0.706136
-0.399798 1.135921 0.672330
-0.197399 1.091414 0.682907
0.009059 1.045270 0.697516
0.218196 0.998442 0.712720
0.429347 0.951058 0.728582
0.642118 0.903197 0.745119
0.825558 0.870446 0.762373
0.935535 0.874923 0.780488
-0.665318 1.337319 0.677259
-0.473011 1.293670 0.694317
-0.270609 1.248033 0.710667
-0.064145 1.201479 0.727318
0.144998 1.154262 0.744458
0.356156 1.106508 0.762148
0.568931 1.058302 0.780404
0.783061 1.009697 0.799228
0.951482 0.984381 0.818721
-0.090012 -0.087582 1.458789
0.100215 -0.120259 1.424950
0.206215 -0.104690 1.388296
0.299814 -0.082232 1.351340
0.382269 -0.053745 1.314198
0.455207 -0.020176 1.276933
0.520442 0.017458 1.239593
0.579944 0.058115 1.202199
0.635638 0.100765 1.164777
-0.164899 0.092683 1.383902
0.027423 0.058877 1.350096
0.213099 0.032074 1.314383
0.319449 0.047780 1.277563
0.412843 0.070542 1.240501
0.494906 0.099365 1.203288
0.567477 0.133205 1.165978
0.632509 0.171013 1.128602
0.691954 0.211739 1.091186
-0.238986 0.271023 1.309814
-0.046664 0.237217 1.276008
0.155751 0.201636 1.240428
0.330052 0.182013 1.203985
0.435686 0.198503 1.166944
0.528247 0.221958 1.129741
0.609562 0.251343 1.092432
0.681544 0.285614 1.055054
0.746168 0.323715 1.017632
-0.312775 0.448643 1.236026
-0.120453 0.414837 1.202220
0.081963 0.379256 1.166639
0.288437 0.342963 1.130346
0.449342 0.330998 1.093463
0.553834 0.348392 1.056252
0.645315 0.372620 1.018931
0.725697 0.402638 0.981539
0.796953 0.437392 0.944101
-0.386370 0.625797 1.162431
-0.194048 0.591991 1.128625
0.008368 0.556411 1.093045
0.214842 0.520117 1.056751
0.423992 0.483353 1.019987
0.570267 0.479390 0.982815
0.673378 0.497737 0.945471
0.763629 0.522775 0.908055
0.842985 0.553449 0.870592
-0.459821 0.802606 1.088980
-0.267499 0.768800 1.055174
-0.065083 0.733220 1.019593
0.141391 0.696926 0.983299
0.350541 0.660162 0.946535
0.561702 0.623044 0.909417
0.692434 0.627367 0.872051
0.794017 0.646692 0.834603
0.882952 0.672199 0.798912
-0.533158 0.979140 1.015643
-0.340836 0.945334 0.981836
-0.138421 0.909754 0.946256
0.068054 0.873460 0.909962
0.277204 0.836696 0.873198
0.488365 0.799578 0.836080
0.701142 0.762176 0.798678
0.815552 0.765412 0.810813
0.915545 0.775860 0.824018
-0.606401 1.155446 0.942400
-0.414079 1.121640 0.908594
-0.211663 1.086059 0.873014
-0.005189 1.049766 0.836720
0.203961 1.013002 0.799956
0.415119 0.966613 0.810613
0.627895 0.919367 0.823912
0.826904 0.879325 0.838065
0.939439 0.883079 0.853257
-0.679583 1.331607 0.869218
-0.487261 1.297801 0.835412
-0.284845 1.262220 0.799831
-0.078374 1.217013 0.809469
0.130775 1.170412 0.823365
0.341938 1.123245 0.837976
0.554720 1.075591 0.853318
0.768857 1.027505 0.869385
0.953341 0.994587 0.886230
-0.104223 -0.101793 1.693898
0.088099 -0.135599 1.660092
0.208652 -0.127753 1.623601
0.304549 -0.106399 1.586610
0.388984 -0.078878 1.549446
0.463566 -0.046107 1.512160
0.530103 -0.009090 1.474796
0.590515 0.031129 1.437388
0.646832 0.073499 1.399947
-0.179110 0.078472 1.619011
0.013212 0.044666 1.585205
0.213487 0.010208 1.549608
0.322471 0.024597 1.512774
0.418112 0.046236 1.475701
0.502088 0.074110 1.438475
0.576230 0.107181 1.401149
0.642460 0.144398 1.363761
0.702804 0.184698 1.326329
-0.253198 0.256812 1.544924
-0.060876 0.223005 1.511118
0.141540 0.187425 1.475537
0.331057 0.159918 1.439165
0.439220 0.175136 1.402115
0.533986 0.197491 1.364900
0.617146 0.225959 1.327579
0.690625 0.259487 1.290190
0.756427 0.297016 1.252754
-0.326986 0.434432 1.471135
-0.134664 0.400626 1.437329
0.067752 0.365045 1.401749
0.274226 0.328751 1.365455
0.450907 0.308677 1.328611
0.557864 0.324831 1.291391
0.651477 0.347994 1.254061
0.733656 0.377120 1.216656
0.806371 0.411155 1.179205
-0.400581 0.611586 1.397541
-0.208259 0.577780 1.363734
-0.005843 0.542200 1.328154
0.200631 0.505906 1.291860
0.409781 0.469141 1.255096
0.572355 0.456849 1.217938
0.677884 0.473985 1.180584
0.770215 0.497985 1.143156
0.851311 0.527796 1.105682
-0.474032 0.788395 1.324089
-0.281710 0.754589 1.290283
-0.079295 0.719008 1.254703
0.127179 0.682715 1.218409
0.336330 0.645950 1.181644
0.547491 0.608833 1.144527
0.695006 0.604615 1.107156
0.798968 0.622754 1.069694
0.889930 0.647602 1.032187
-0.547370 0.964929 1.250752
-0.355047 0.931123 1.216946
-0.152632 0.895542 1.181365
0.053842 0.859249 1.145072
0.262993 0.822484 1.108307
0.474154 0.785367 1.071190
0.686931 0.747965 1.033788
0.818612 0.752084 0.996274
0.920916 0.771232 0.958726
-0.620612 1.141235 1.177510
-0.428290 1.107429 1.143703
-0.225874 1.071848 1.108123
-0.019400 1.035555 1.071829
0.189750 0.998790 1.035065
0.400911 0.961673 0.997947
0.613689 0.924271 0.960545
0.827819 0.886631 0.922906
0.942977 0.889719 0.934721
-0.693794 1.317396 1.104327
-0.501472 1.283589 1.070521
-0.299056 1.248009 1.034941
-0.092582 1.211715 0.998647
0.116568 1.174951 0.961883
0.327729 1.137833 0.924765
0.540515 1.091172 0.934940
0.754657 1.043700 0.947796
0.954777 1.003478 0.961551
-0.118452 -0.116022 1.929299
0.073870 -0.149828 1.895493
0.210686 -0.150629 1.859193
0.308971 -0.130416 1.822162
0.395437 -0.103889 1.784977
0.471690 -0.071939 1.747675
0.539576 -0.035574 1.710292
0.600999 0.004173 1.672862
0.657945 0.046248 1.635407
-0.193339 0.064243 1.854412
-0.001017 0.030437 1.820605
0.201399 -0.005144 1.785025
0.325096 0.001594 1.748274
0.423035 0.022082 1.711191
0.508979 0.048978 1.673951
0.584753 0.081246 1.636611
0.652274 0.117839 1.599206
0.713527 0.157696 1.561764
-0.267427 0.242583 1.780324
-0.075104 0.208777 1.746518
0.127311 0.173196 1.710938
0.331617 0.138026 1.674634
0.442391 0.151935 1.637572
0.539399 0.173167 1.600348
0.624466 0.200686 1.563015
0.699512 0.233443 1.525612
0.766512 0.270379 1.488166
-0.341215 0.420203 1.706536
-0.148893 0.386397 1.672730
0.053523 0.350816 1.637149
0.259997 0.314522 1.600855
0.452034 0.286555 1.564049
0.561518 0.301439 1.526820
0.657332 0.323504 1.489477
0.741356 0.351712 1.452062
0.815567 0.385005 1.414600
-0.414810 0.597357 1.632941
-0.222488 0.563551 1.599135
-0.020072 0.527971 1.563554
0.186402 0.491677 1.527260
0.395552 0.454913 1.490496
0.574015 0.434502 1.453352
0.682012 0.450399 1.415988
0.776476 0.473333 1.378549
0.859370 0.502252 1.341062
-0.488261 0.774166 1.559490
-0.295939 0.740360 1.525683
-0.093524 0.704780 1.490103
0.112951 0.668486 1.453809
0.322101 0.631722 1.417045
0.533262 0.594604 1.379927
0.697171 0.582049 1.342549
0.803555 0.598976 1.305076
0.896599 0.622788 1.267556
-0.561598 0.950700 1.486152
-0.369276 0.916894 1.452346
-0.166861 0.881314 1.416766
0.039613 0.845020 1.380472
0.248764 0.808256 1.343708
0.459925 0.771138 1.306590
0.672702 0.733736 1.269188
0.821251 0.729307 1.231651
0.925937 0.747269 1.194089
-0.634841 1.127006 1.412910
-0.442519 1.093200 1.379104
-0.240103 1.057620 1.343523
-0.033629 1.021326 1.307230
0.175521 0.984561 1.270465
0.386683 0.947444 1.233348
0.599460 0.910042 1.195946
0.813590 0.872402 1.158306
0.946085 0.876346 1.120666
-0.708023 1.303167 1.339728
-0.515701 1.269361 1.305922
-0.313285 1.233780 1.270341
-0.106811 1.197486 1.234047
0.102339 1.160722 1.197283
0.313500 1.123604 1.160166
0.526278 1.086203 1.122764
0.740408 1.048563 1.085124
0.955703 1.010719 1.047280
