vendor/NativeMatch/NativeMatch.ofx.bundle/Contents/Resources/Cubes/Tungsten_Fix_1.cube
LUT_3D_SIZE 33
-0.001972 0.000458 0.002265
0.023109 0.001506 0.007465
0.047819 0.002953 0.012631
0.072446 0.004740 0.017715
0.096600 0.006922 0.022792
0.120051 0.009530 0.027907
0.143048 0.012535 0.032501
0.165316 0.015871 0.037175
0.187023 0.019571 0.041877
0.208020 0.023651 0.046637
0.228447 0.028076 0.051415
0.248227 0.032849 0.056076
0.267478 0.037909 0.060792
0.286107 0.043289 0.065571
0.304248 0.048953 0.070393
0.321818 0.054908 0.075233
0.338957 0.061096 0.080044
0.355598 0.067536 0.084916
0.371810 0.074205 0.089841
0.387614 0.081090 0.094821
0.403025 0.088161 0.099799
0.418121 0.095410 0.104796
0.432862 0.102832 0.109852
0.447327 0.110398 0.114961
0.461534 0.118085 0.120119
0.475490 0.125898 0.125265
0.489280 0.133807 0.130458
0.502878 0.141798 0.135711
0.516339 0.149850 0.141018
0.529709 0.157955 0.146329
0.542982 0.166102 0.151672
0.556231 0.174253 0.157067
0.569465 0.182407 0.162513
-0.021031 0.041019 0.010589
0.021374 0.032265 0.016453
0.047577 0.033097 0.021689
0.073166 0.034329 0.026952
0.098291 0.035998 0.031695
0.122752 0.038094 0.036432
0.146495 0.040614 0.041207
0.169624 0.043528 0.046006
0.191996 0.046828 0.050859
0.213806 0.050494 0.055557
0.234874 0.054542 0.060316
0.255373 0.058932 0.065112
0.275183 0.063673 0.069970
0.294473 0.068704 0.074837
0.313138 0.074058 0.079676
0.331302 0.079697 0.084559
0.348908 0.085621 0.089502
0.366044 0.091788 0.094500
0.382710 0.098199 0.099490
0.398930 0.104845 0.104501
0.414760 0.111700 0.109561
0.430181 0.118747 0.114685
0.445290 0.125964 0.119850
0.460059 0.133354 0.124999
0.474536 0.140894 0.130200
0.488772 0.148550 0.135455
0.502755 0.156325 0.140767
0.516564 0.164199 0.146083
0.530199 0.172156 0.151426
0.543687 0.180173 0.156826
0.557098 0.188236 0.162270
0.570417 0.196337 0.167753
0.583701 0.204451 0.173241
-0.039920 0.081108 0.019406
0.005766 0.070488 0.025518
0.046848 0.063234 0.030696
0.073569 0.063989 0.035530
0.099543 0.065180 0.040404
0.124914 0.066790 0.045286
0.149526 0.068841 0.050201
0.173426 0.071325 0.054958
0.196638 0.074214 0.059750
0.219105 0.077500 0.064597
0.240943 0.081144 0.069487
0.262058 0.085167 0.074398
0.282584 0.089539 0.079253
0.302433 0.094259 0.084165
0.321727 0.099284 0.089126
0.340413 0.104614 0.094147
0.358575 0.110235 0.099154
0.376201 0.116137 0.104176
0.393334 0.122294 0.109253
0.410014 0.128683 0.114385
0.426230 0.135304 0.119567
0.442076 0.142136 0.124719
0.457515 0.149164 0.129929
0.472625 0.156359 0.135191
0.487412 0.163718 0.140504
0.501895 0.171230 0.145830
0.516154 0.178862 0.151176
0.530166 0.186606 0.156577
0.543989 0.194448 0.162026
0.557654 0.202370 0.167510
0.571175 0.210354 0.173001
0.584617 0.218381 0.178536
0.597981 0.226442 0.184119
-0.058710 0.120991 0.028138
-0.012994 0.110383 0.033860
0.034945 0.099369 0.039267
0.073367 0.093818 0.044417
0.100341 0.094517 0.049414
0.126518 0.095691 0.054249
0.152044 0.097283 0.059101
0.176755 0.099321 0.064001
0.200741 0.101780 0.068936
0.223992 0.104652 0.073883
0.246517 0.107930 0.078776
0.268370 0.111571 0.083717
0.289520 0.115582 0.088711
0.310041 0.119941 0.093749
0.329910 0.124646 0.098782
0.349196 0.129668 0.103821
0.367895 0.134987 0.108917
0.386046 0.140596 0.114062
0.403676 0.146479 0.119254
0.420800 0.152627 0.124422
0.437487 0.159001 0.129640
0.453706 0.165606 0.134913
0.469549 0.172416 0.140231
0.484997 0.179425 0.145563
0.500106 0.186602 0.150919
0.514908 0.193938 0.156321
0.529403 0.201424 0.161775
0.543670 0.209031 0.167264
0.557707 0.216748 0.172756
0.571544 0.224562 0.178295
0.585239 0.232453 0.183877
0.598790 0.240403 0.189510
0.612257 0.248397 0.195144
-0.077419 0.160746 0.036624
-0.031706 0.150115 0.042492
0.016230 0.139079 0.048043
0.065154 0.127869 0.053303
0.100530 0.124105 0.058332
0.127663 0.124790 0.063292
0.153960 0.125946 0.068291
0.179562 0.127528 0.073289
0.204329 0.129564 0.078232
0.228370 0.132018 0.083209
0.251641 0.134888 0.088234
0.274190 0.138153 0.093301
0.296039 0.141798 0.098363
0.317204 0.145806 0.103430
0.337716 0.150164 0.108544
0.357589 0.154859 0.113706
0.376855 0.159876 0.118916
0.395555 0.165189 0.124099
0.413690 0.170793 0.129332
0.431322 0.176666 0.134611
0.448428 0.182801 0.139942
0.465112 0.189165 0.145284
0.481336 0.195756 0.150647
0.497168 0.202553 0.156055
0.512622 0.209544 0.161511
0.527721 0.216704 0.167012
0.542535 0.224021 0.172505
0.557045 0.231484 0.178046
0.571315 0.239073 0.183632
0.585369 0.246761 0.189265
0.599219 0.254550 0.194906
0.612941 0.262411 0.200573
0.626523 0.270334 0.206288
-0.096096 0.200366 0.045433
-0.050373 0.189723 0.051258
-0.002427 0.178676 0.056748
0.046495 0.167444 0.062137
0.096057 0.156087 0.067483
0.128161 0.154143 0.072596
0.155387 0.154826 0.077590
0.181776 0.155978 0.082621
0.207407 0.157572 0.087682
0.232194 0.159606 0.092796
0.256259 0.162060 0.097891
0.279532 0.164935 0.102988
0.302093 0.168202 0.108124
0.323924 0.171853 0.113309
0.345085 0.175857 0.118542
0.365577 0.180218 0.123747
0.385446 0.184912 0.128992
0.404691 0.189928 0.134287
0.423378 0.195239 0.139627
0.441491 0.200838 0.144989
0.459115 0.206704 0.150356
0.476216 0.212832 0.155775
0.492880 0.219190 0.161237
0.509099 0.225767 0.166745
0.524918 0.232554 0.172245
0.540375 0.239530 0.177789
0.555470 0.246679 0.183382
0.570284 0.253976 0.189017
0.584805 0.261419 0.194659
0.599077 0.268988 0.200332
0.613149 0.276657 0.206047
0.627020 0.284418 0.211808
0.640753 0.292253 0.217586
-0.114724 0.239893 0.054169
-0.069002 0.229227 0.060117
-0.021058 0.218157 0.065743
0.027864 0.206904 0.071250
0.077432 0.195533 0.076597
0.127481 0.184064 0.081925
0.156175 0.183980 0.087046
0.183444 0.184664 0.092203
0.209881 0.185817 0.097349
0.235520 0.187424 0.102476
0.260313 0.189472 0.107654
0.284380 0.191932 0.112865
0.307635 0.194811 0.118126
0.330190 0.198084 0.123351
0.352000 0.201744 0.128619
0.373149 0.205757 0.133929
0.393610 0.210120 0.139291
0.413463 0.214814 0.144662
0.432681 0.219834 0.150047
0.451352 0.225148 0.155471
0.469444 0.230745 0.160949
0.487046 0.236606 0.166464
0.504138 0.242728 0.171972
0.520778 0.249085 0.177521
0.536991 0.255654 0.183119
0.552791 0.262430 0.188762
0.568246 0.269393 0.194407
0.583343 0.276531 0.200083
0.598150 0.283815 0.205802
0.612678 0.291238 0.211563
0.626949 0.298788 0.217347
0.641035 0.306439 0.223142
0.654927 0.314177 0.228981
-0.133330 0.279317 0.063184
-0.087609 0.268629 0.069254
-0.039658 0.257544 0.074882
0.009269 0.246275 0.080404
0.058836 0.234882 0.085879
0.108883 0.223392 0.091335
0.156294 0.213418 0.096716
0.184493 0.213627 0.101891
0.211782 0.214325 0.107108
0.238239 0.215488 0.112358
0.263864 0.217105 0.117647
0.288659 0.219168 0.122909
0.312700 0.221644 0.128200
0.335931 0.224538 0.133540
0.358466 0.227817 0.138913
0.380243 0.231486 0.144310
0.401369 0.235511 0.149704
0.421798 0.239884 0.155151
0.441628 0.244582 0.160634
0.460815 0.249603 0.166167
0.479461 0.254921 0.171679
0.497535 0.260521 0.177241
0.515107 0.266384 0.182845
0.532182 0.272499 0.188492
0.548797 0.278853 0.194146
0.564999 0.285419 0.199826
0.580784 0.292189 0.205552
0.596229 0.299141 0.211314
0.611325 0.306267 0.217100
0.626122 0.313541 0.222901
0.640657 0.320949 0.228740
0.654935 0.328481 0.234620
0.669024 0.336114 0.240528
-0.151910 0.318654 0.072343
-0.106183 0.307951 0.078424
-0.058233 0.296844 0.084180
-0.009307 0.285553 0.089830
0.040261 0.274140 0.095391
0.090313 0.262634 0.100872
0.140750 0.251049 0.106346
0.184871 0.242879 0.111771
0.213071 0.243103 0.117101
0.240357 0.243820 0.122405
0.266814 0.245000 0.127728
0.292417 0.246637 0.133091
0.317195 0.248715 0.138495
0.341198 0.251209 0.143913
0.364408 0.254117 0.149334
0.386904 0.257413 0.154792
0.408648 0.261093 0.160297
0.429736 0.265128 0.165837
0.450134 0.269513 0.171370
0.469927 0.274221 0.176939
0.489091 0.279248 0.182554
0.507695 0.284570 0.188208
0.525746 0.290175 0.193872
0.543285 0.296042 0.199560
0.560342 0.302157 0.205288
0.576929 0.308509 0.211058
0.593115 0.315072 0.216848
0.608891 0.321836 0.222654
0.624319 0.328782 0.228495
0.639411 0.335897 0.234375
0.654195 0.343162 0.240290
0.668734 0.350557 0.246204
0.683022 0.358074 0.252157
-0.170467 0.357911 0.081655
-0.124741 0.347185 0.087864
-0.076790 0.336058 0.093710
-0.027859 0.324752 0.099384
0.021712 0.313321 0.105007
0.071763 0.301794 0.110608
0.122199 0.290189 0.116201
0.172961 0.278518 0.121732
0.213693 0.272180 0.127183
0.241879 0.272429 0.132583
0.269142 0.273166 0.138023
0.295580 0.274365 0.143471
0.321148 0.276025 0.148915
0.345901 0.278122 0.154397
0.369859 0.280640 0.159918
0.393035 0.283563 0.165483
0.415485 0.286877 0.171030
0.437198 0.290572 0.176616
0.458239 0.294624 0.182239
0.478602 0.299020 0.187907
0.498349 0.303740 0.193582
0.517484 0.308776 0.199278
0.536048 0.314107 0.205013
0.554070 0.319718 0.210787
0.571572 0.325588 0.216589
0.588609 0.331706 0.222396
0.605171 0.338058 0.228244
0.621336 0.344622 0.234126
0.637099 0.351379 0.240045
0.652507 0.358322 0.245963
0.667595 0.365429 0.251916
0.682370 0.372687 0.257907
0.696906 0.380069 0.263932
-0.189008 0.397088 0.091200
-0.143277 0.386346 0.097433
-0.095323 0.375201 0.103338
-0.046393 0.363873 0.109132
0.003177 0.352422 0.114874
0.053231 0.340878 0.120529
0.103671 0.329255 0.126158
0.154434 0.317565 0.131787
0.205474 0.305815 0.137424
0.242727 0.301330 0.142964
0.270883 0.301610 0.148440
0.298116 0.302374 0.153956
0.324521 0.303598 0.159500
0.350042 0.305281 0.165088
0.374759 0.307400 0.170656
0.398666 0.309944 0.176258
0.421804 0.312888 0.181900
0.444200 0.316221 0.187581
0.465873 0.319932 0.193271
0.486864 0.324002 0.198977
0.507190 0.328415 0.204721
0.526888 0.333148 0.210506
0.545987 0.338193 0.216315
0.564509 0.343535 0.222130
0.582501 0.349153 0.227980
0.599965 0.355033 0.233872
0.616975 0.361151 0.239794
0.633518 0.367505 0.245716
0.649655 0.374070 0.251671
0.665403 0.380828 0.257664
0.680788 0.387766 0.263693
0.695869 0.394866 0.269718
0.710643 0.402117 0.275775
-0.207527 0.436197 0.100837
-0.161797 0.425433 0.107191
-0.113843 0.414268 0.113214
-0.064911 0.402923 0.119067
-0.015336 0.391454 0.124844
0.034718 0.379890 0.130595
0.085158 0.368248 0.136335
0.135921 0.356539 0.142056
0.186964 0.344774 0.147733
0.238251 0.332956 0.153422
0.271953 0.330347 0.159026
0.300063 0.330658 0.164639
0.327263 0.331450 0.170240
0.353616 0.332705 0.175864
0.379085 0.334416 0.181528
0.403756 0.336559 0.187224
0.427607 0.339127 0.192932
0.450699 0.342097 0.198652
0.473039 0.345454 0.204411
0.494667 0.349183 0.210205
0.515602 0.353270 0.216026
0.535887 0.357700 0.221847
0.555534 0.362453 0.227708
0.574596 0.367509 0.233603
0.593071 0.372861 0.239536
0.611031 0.378489 0.245459
0.628462 0.384379 0.251421
0.645438 0.390504 0.257416
0.661957 0.396859 0.263447
0.678064 0.403426 0.269477
0.693796 0.410186 0.275535
0.709162 0.417123 0.281629
0.724231 0.424217 0.287751
-0.226034 0.475233 0.110723
-0.180301 0.464452 0.117137
-0.132344 0.453269 0.123196
-0.083410 0.441904 0.129141
-0.033836 0.430416 0.135030
0.016218 0.418833 0.140876
0.066661 0.407176 0.146656
0.117426 0.395451 0.152434
0.168469 0.383668 0.158216
0.219754 0.371832 0.164007
0.271260 0.359951 0.169764
0.301347 0.359237 0.175420
0.329406 0.359583 0.181108
0.356559 0.360408 0.186830
0.382851 0.361694 0.192559
0.408262 0.363436 0.198301
0.432882 0.365607 0.204071
0.456671 0.368202 0.209882
0.479710 0.371197 0.215714
0.501990 0.374580 0.221549
0.523570 0.378331 0.227418
0.544449 0.382440 0.233324
0.564686 0.386885 0.239261
0.584280 0.391658 0.245194
0.603301 0.396730 0.251160
0.621733 0.402096 0.257163
0.639653 0.407732 0.263195
0.657053 0.413632 0.269231
0.673991 0.419767 0.275293
0.690485 0.426127 0.281387
0.706561 0.432697 0.287513
0.722274 0.439459 0.293643
0.737628 0.446395 0.299796
-0.244523 0.514207 0.120715
-0.198789 0.503406 0.127220
-0.150832 0.492203 0.133390
-0.101898 0.480819 0.139432
-0.052321 0.469315 0.145362
-0.002264 0.457717 0.151262
0.048178 0.446041 0.157147
0.098942 0.434298 0.163027
0.149987 0.422499 0.168864
0.201275 0.410649 0.174697
0.252781 0.398751 0.180541
0.301939 0.388128 0.186388
0.330892 0.388010 0.192143
0.358891 0.388393 0.197905
0.385992 0.389253 0.203699
0.412216 0.390575 0.209525
0.437571 0.392347 0.215380
0.462124 0.394549 0.221226
0.485849 0.397175 0.227110
0.508833 0.400196 0.233023
0.531046 0.403607 0.238974
0.552575 0.407381 0.244914
0.573394 0.411514 0.250891
0.593583 0.415979 0.256896
0.613123 0.420770 0.262937
0.632098 0.425859 0.268977
0.650491 0.431240 0.275045
0.668365 0.436891 0.281141
0.685730 0.442799 0.287269
0.702628 0.448946 0.293405
0.719096 0.455312 0.299558
0.735142 0.461889 0.305743
0.750835 0.468652 0.311952
-0.263000 0.553115 0.130916
-0.217266 0.542295 0.137520
-0.169306 0.531077 0.143732
-0.120370 0.519677 0.149826
-0.070793 0.508154 0.155860
-0.020737 0.496538 0.161863
0.029707 0.484846 0.167805
0.080474 0.473089 0.173727
0.131519 0.461274 0.179650
0.182806 0.449406 0.185579
0.234313 0.437493 0.191496
0.286017 0.425538 0.197395
0.331691 0.416754 0.203284
0.360577 0.416675 0.209133
0.388506 0.417095 0.215009
0.415547 0.417993 0.220874
0.441701 0.419354 0.226771
0.466995 0.421159 0.232702
0.491475 0.423394 0.238663
0.515139 0.426050 0.244620
0.538056 0.429102 0.250602
0.560207 0.432542 0.256619
0.581674 0.436341 0.262665
0.602436 0.440497 0.268717
0.622570 0.444986 0.274786
0.642063 0.449796 0.280889
0.660981 0.454906 0.287020
0.679333 0.460302 0.293162
0.697159 0.465969 0.299318
0.714491 0.471889 0.305502
0.731346 0.478048 0.311717
0.747786 0.484422 0.317940
0.763809 0.491004 0.324177
-0.281464 0.591965 0.141266
-0.235727 0.581129 0.147920
-0.187768 0.569892 0.154236
-0.138832 0.558474 0.160433
-0.089254 0.546935 0.166527
-0.039195 0.535304 0.172571
0.011249 0.523596 0.178597
0.062016 0.511821 0.184615
0.113061 0.499990 0.190613
0.164351 0.488110 0.196583
0.215859 0.476182 0.202561
0.267562 0.464210 0.208551
0.319445 0.452200 0.214548
0.361575 0.445275 0.220484
0.390387 0.445240 0.226401
0.418244 0.445701 0.232352
0.445217 0.446635 0.238328
0.471295 0.448035 0.244299
0.496523 0.449878 0.250295
0.520929 0.452149 0.256322
0.544528 0.454835 0.262381
0.567373 0.457919 0.268439
0.589465 0.461388 0.274519
0.610864 0.465219 0.280626
0.631570 0.469398 0.286766
0.651641 0.473911 0.292911
0.671086 0.478743 0.299072
0.689948 0.483876 0.305260
0.708255 0.489288 0.311476
0.726032 0.494971 0.317705
0.743328 0.500905 0.323941
0.760145 0.507077 0.330206
0.776553 0.513461 0.336494
-0.299916 0.630758 0.151776
-0.254181 0.619903 0.158533
-0.206219 0.608650 0.164911
-0.157281 0.597218 0.171150
-0.107702 0.585663 0.177325
-0.057643 0.574014 0.183466
-0.007199 0.562290 0.189568
0.043570 0.550502 0.195628
0.094616 0.538656 0.201685
0.145906 0.526759 0.207745
0.197413 0.514816 0.213808
0.249119 0.502832 0.219837
0.301003 0.490809 0.225878
0.353052 0.478748 0.231932
0.391579 0.473698 0.237959
0.420313 0.473708 0.243949
0.448092 0.474213 0.249965
0.474993 0.475188 0.256004
0.500991 0.476627 0.262075
0.526148 0.478510 0.268146
0.550477 0.480818 0.274236
0.574010 0.483539 0.280353
0.596780 0.486655 0.286499
0.618809 0.490154 0.292653
0.640138 0.494016 0.298818
0.660787 0.498223 0.305012
0.680794 0.502761 0.311233
0.700187 0.507615 0.317465
0.718992 0.512770 0.323705
0.737254 0.518204 0.329970
0.754982 0.523904 0.336263
0.772239 0.529852 0.342565
0.789023 0.536038 0.348875
-0.318359 0.669496 0.162458
-0.272620 0.658627 0.169257
-0.224658 0.647357 0.175714
-0.175720 0.635907 0.182049
-0.126141 0.624336 0.188304
-0.076080 0.612674 0.194486
-0.025634 0.600935 0.200646
0.025134 0.589131 0.206796
0.076180 0.577269 0.212939
0.127472 0.565360 0.219039
0.178981 0.553403 0.225144
0.230686 0.541405 0.231256
0.282570 0.529367 0.237379
0.334621 0.517294 0.243478
0.386824 0.505187 0.249583
0.421698 0.502033 0.255656
0.450347 0.502089 0.261743
0.478050 0.502637 0.267834
0.504867 0.503657 0.273933
0.530783 0.505138 0.280064
0.555865 0.507059 0.286217
0.580113 0.509408 0.292382
0.603576 0.512164 0.298555
0.626271 0.515316 0.304756
0.648234 0.518846 0.310981
0.669491 0.522739 0.317219
0.690081 0.526977 0.323463
0.710024 0.531543 0.329734
0.729363 0.536420 0.336027
0.748110 0.541598 0.342335
0.766325 0.547054 0.348643
0.784007 0.552774 0.354979
0.801221 0.558738 0.361334
-0.336790 0.708183 0.173266
-0.291051 0.697296 0.180162
-0.243089 0.686011 0.186700
-0.194149 0.674547 0.193077
-0.144568 0.662961 0.199387
-0.094508 0.651283 0.205659
-0.044062 0.639528 0.211907
0.006709 0.627711 0.218097
0.057757 0.615837 0.224281
0.109048 0.603912 0.230464
0.160557 0.591941 0.236650
0.212263 0.579930 0.242809
0.264149 0.567880 0.248968
0.316200 0.555793 0.255137
0.368403 0.543672 0.261317
0.420749 0.531521 0.267485
0.451920 0.530283 0.273605
0.480480 0.530389 0.279749
0.508103 0.530982 0.285919
0.534832 0.532046 0.292095
0.560663 0.533572 0.298280
0.585668 0.535534 0.304487
0.609832 0.537924 0.310721
0.633222 0.540718 0.316966
0.655840 0.543907 0.323217
0.677736 0.547471 0.329490
0.698921 0.551396 0.335789
0.719448 0.555664 0.342099
0.739325 0.560259 0.348414
0.758610 0.565163 0.354748
0.777300 0.570365 0.361108
0.795465 0.575843 0.367477
0.813104 0.581583 0.373849
-0.355213 0.746818 0.184258
-0.309472 0.735918 0.191195
-0.261508 0.724617 0.197787
-0.212568 0.713137 0.204254
-0.162988 0.701536 0.210653
-0.112925 0.689844 0.216966
-0.062477 0.678077 0.223253
-0.011707 0.666245 0.229526
0.039340 0.654356 0.235792
0.090633 0.642419 0.242023
0.142144 0.630436 0.248246
0.193851 0.618411 0.254473
0.245737 0.606347 0.260707
0.297788 0.594248 0.266927
0.349993 0.582116 0.273140
0.402340 0.569953 0.279364
0.452792 0.558801 0.285594
0.482238 0.558453 0.291785
0.510706 0.558612 0.297982
0.538246 0.559253 0.304203
0.564884 0.560364 0.310446
0.590631 0.561934 0.316704
0.615551 0.563939 0.322959
0.639632 0.566372 0.329241
0.662946 0.569206 0.335543
0.685483 0.572432 0.341862
0.707310 0.576031 0.348178
0.728422 0.579991 0.354518
0.748886 0.584290 0.360877
0.768696 0.588916 0.367253
0.787925 0.593848 0.373624
0.806563 0.599075 0.380018
0.824672 0.604576 0.386428
-0.373624 0.785408 0.195350
-0.327884 0.774491 0.202377
-0.279920 0.763175 0.209058
-0.230978 0.751681 0.215568
-0.181396 0.740067 0.222005
-0.131334 0.728360 0.228400
-0.080886 0.716578 0.234769
-0.030115 0.704734 0.241092
0.020935 0.692833 0.247394
0.072228 0.680882 0.253692
0.123739 0.668885 0.259990
0.175447 0.656847 0.266270
0.227334 0.644773 0.272537
0.279387 0.632663 0.278811
0.331591 0.620519 0.285092
0.383938 0.608345 0.291368
0.436418 0.596142 0.297633
0.483297 0.586847 0.303897
0.512646 0.586552 0.310153
0.541018 0.586762 0.316423
0.568470 0.587455 0.322689
0.595015 0.588616 0.328979
0.620679 0.590231 0.335291
0.645509 0.592281 0.341615
0.669509 0.594756 0.347939
0.692741 0.597633 0.354281
0.715199 0.600899 0.360647
0.736953 0.604533 0.367024
0.757994 0.608529 0.373401
0.778391 0.612861 0.379794
0.798140 0.617519 0.386208
0.817303 0.622479 0.392634
0.835890 0.627733 0.399056
-0.392030 0.823948 0.206624
-0.346287 0.813018 0.213696
-0.298321 0.801689 0.220416
-0.249380 0.790181 0.227006
-0.199798 0.778552 0.233525
-0.149734 0.766832 0.239972
-0.099285 0.755038 0.246378
-0.048512 0.743180 0.252765
0.002537 0.731265 0.259142
0.053831 0.719301 0.265495
0.105343 0.707294 0.271826
0.157052 0.695245 0.278158
0.208939 0.683158 0.284494
0.260992 0.671037 0.290821
0.313198 0.658883 0.297132
0.365545 0.646699 0.303451
0.418025 0.634485 0.309777
0.470630 0.622245 0.316103
0.513889 0.614824 0.322402
0.543139 0.614586 0.328702
0.571412 0.614849 0.335025
0.598772 0.615593 0.341358
0.625222 0.616805 0.347689
0.650801 0.618468 0.354040
0.675540 0.620564 0.360410
0.699457 0.623082 0.366795
0.722604 0.626002 0.373173
0.744987 0.629310 0.379571
0.766662 0.632984 0.385986
0.787634 0.637014 0.392417
0.807959 0.641381 0.398839
0.827647 0.646072 0.405280
0.846745 0.651064 0.411736
-0.410424 0.862447 0.217987
-0.364682 0.851502 0.225138
-0.316716 0.840158 0.231939
-0.267774 0.828637 0.238583
-0.218189 0.816996 0.245139
-0.168125 0.805263 0.251649
-0.117676 0.793454 0.258130
-0.066903 0.781583 0.264574
-0.015852 0.769658 0.270984
0.035443 0.757683 0.277387
0.086955 0.745663 0.283787
0.138664 0.733603 0.290175
0.190553 0.721506 0.296540
0.242606 0.709375 0.302908
0.294812 0.697211 0.309281
0.347160 0.685016 0.315653
0.399641 0.672794 0.322005
0.452248 0.660544 0.328364
0.504971 0.648268 0.334731
0.544561 0.642738 0.341088
0.573708 0.642558 0.347428
0.601882 0.642877 0.353789
0.629149 0.643673 0.360165
0.655500 0.644938 0.366557
0.680991 0.646649 0.372942
0.705638 0.648795 0.379345
0.729473 0.651357 0.385765
0.752532 0.654321 0.392198
0.774838 0.657671 0.398624
0.796433 0.661386 0.405065
0.817336 0.665453 0.411524
0.837587 0.669856 0.417993
0.857213 0.674579 0.424454
-0.428813 0.900901 0.229514
-0.383069 0.889943 0.236720
-0.335102 0.878587 0.243558
-0.286158 0.867052 0.250264
-0.236574 0.855397 0.256895
-0.186509 0.843651 0.263463
-0.136058 0.831832 0.269977
-0.085284 0.819950 0.276470
-0.034233 0.808012 0.282949
0.017062 0.796025 0.289409
0.068575 0.783996 0.295839
0.120285 0.771926 0.302266
0.172174 0.759818 0.308693
0.224227 0.747676 0.315116
0.276435 0.735503 0.321515
0.328783 0.723300 0.327918
0.381265 0.711067 0.334326
0.433871 0.698808 0.340735
0.486596 0.686526 0.347123
0.539432 0.674218 0.353518
0.575310 0.670597 0.359908
0.604351 0.670474 0.366311
0.632428 0.670849 0.372705
0.659594 0.671701 0.379112
0.685847 0.673019 0.385538
0.711245 0.674781 0.391976
0.735799 0.676977 0.398407
0.759550 0.679586 0.404852
0.782522 0.682595 0.411312
0.804750 0.685986 0.417784
0.826263 0.689745 0.424247
0.847096 0.693850 0.430723
0.867274 0.698291 0.437213
-0.447192 0.939316 0.241138
-0.401448 0.928344 0.248404
-0.353480 0.916974 0.255318
-0.304536 0.905426 0.262082
-0.254950 0.893760 0.268747
-0.204884 0.882003 0.275363
-0.154433 0.870172 0.281946
-0.103659 0.858278 0.288497
-0.052607 0.846330 0.295006
-0.001311 0.834334 0.301504
0.050203 0.822293 0.307996
0.101912 0.810212 0.314479
0.153803 0.798096 0.320932
0.205857 0.785945 0.327385
0.258064 0.773762 0.333840
0.310413 0.761549 0.340295
0.362896 0.749310 0.346724
0.415503 0.737043 0.353157
0.468228 0.724751 0.359595
0.521063 0.712435 0.366035
0.574006 0.700098 0.372453
0.606131 0.698404 0.378870
0.635064 0.698341 0.385304
0.663041 0.698772 0.391752
0.690104 0.699681 0.398186
0.716257 0.701054 0.404637
0.741563 0.702870 0.411099
0.766021 0.705115 0.417577
0.789687 0.707772 0.424041
0.812571 0.710828 0.430520
0.834720 0.714263 0.437010
0.856150 0.718064 0.443511
0.876912 0.722211 0.450000
-0.465564 0.977689 0.252901
-0.419820 0.966704 0.260227
-0.371850 0.955324 0.267174
-0.322905 0.943764 0.273986
-0.273320 0.932086 0.280719
-0.223254 0.920317 0.287394
-0.172801 0.908476 0.294007
-0.122026 0.896572 0.300596
-0.070974 0.884613 0.307167
-0.019678 0.872606 0.313722
0.031837 0.860557 0.320240
0.083548 0.848467 0.326752
0.135438 0.836341 0.333261
0.187493 0.824180 0.339767
0.239701 0.811990 0.346244
0.292051 0.799770 0.352721
0.344533 0.787521 0.359200
0.397140 0.775246 0.365680
0.449866 0.762948 0.372135
0.502704 0.750626 0.378592
0.555647 0.738280 0.385053
0.607199 0.726673 0.391517
0.637017 0.726164 0.397958
0.665842 0.726163 0.404416
0.693718 0.726653 0.410886
0.720675 0.727618 0.417367
0.746730 0.729047 0.423838
0.771940 0.730917 0.430317
0.796301 0.733215 0.436811
0.819880 0.735921 0.443313
0.842674 0.739025 0.449805
0.864744 0.742505 0.456305
0.886093 0.746351 0.462817
-0.483929 1.016026 0.264762
-0.438183 1.005030 0.272134
-0.390214 0.993636 0.279150
-0.341269 0.982065 0.286022
-0.291682 0.970377 0.292785
-0.241615 0.958598 0.299497
-0.191162 0.946746 0.306172
-0.140387 0.934831 0.312819
-0.089333 0.922863 0.319416
-0.038036 0.910848 0.325999
0.013479 0.898788 0.332573
0.065189 0.886689 0.339139
0.117081 0.874555 0.345670
0.169137 0.862387 0.352198
0.221345 0.850188 0.358723
0.273694 0.837959 0.365248
0.326178 0.825704 0.371745
0.378787 0.813423 0.378242
0.431513 0.801116 0.384739
0.484350 0.788786 0.391239
0.537294 0.776435 0.397713
0.590339 0.764063 0.404188
0.638264 0.754326 0.410665
0.667967 0.753881 0.417152
