vendor/NativeMatch/NativeMatch.ofx.bundle/Contents/Resources/Cubes/Warm_Fix_1.cube
TITLE "Generated by Resolve"
LUT_3D_SIZE 9
0 0 0
0.0757763 0.0132906 0.0132906
0.151568 0.0265812 0.0265812
0.227359 0.0398566 0.0398566
0.303151 0.0531472 0.0531472
0.378927 0.0664378 0.0664378
0.454719 0.0797284 0.0797284
0.53051 0.093019 0.093019
0.606302 0.106294 0.106294
0.0268101 0.114305 0.0268101
0.102602 0.127596 0.0401007
0.178378 0.140887 0.0533913
0.25417 0.154162 0.0666819
0.329961 0.167452 0.0799725
0.405753 0.180743 0.0932479
0.481544 0.194034 0.106538
0.557336 0.207324 0.119829
0.633112 0.220615 0.13312
0.0536355 0.228626 0.0536355
0.129412 0.241917 0.0669261
0.205203 0.255207 0.0802167
0.280995 0.268498 0.093492
0.356786 0.281773 0.106783
0.432578 0.295064 0.120073
0.508354 0.308354 0.133364
0.584146 0.321645 0.146654
0.659937 0.334936 0.159945
0.0804608 0.342947 0.0804608
0.156237 0.356237 0.0937514
0.232029 0.369528 0.107027
0.30782 0.382818 0.120317
0.383597 0.396094 0.133608
0.459388 0.409384 0.146899
0.53518 0.422675 0.160189
0.610971 0.435966 0.173465
0.686763 0.449256 0.186755
0.107271 0.457267 0.107271
0.183062 0.470558 0.120562
0.258854 0.483848 0.133852
0.33463 0.497139 0.147143
0.410422 0.51043 0.160433
0.486213 0.523705 0.173709
0.562005 0.536995 0.186999
0.637797 0.550286 0.20029
0.713573 0.563577 0.213581
0.134096 0.571588 0.134096
0.209873 0.584878 0.147387
0.285664 0.598169 0.160678
0.361456 0.61146 0.173953
0.437247 0.62475 0.187243
0.513039 0.638025 0.200534
0.588815 0.651316 0.213825
0.664607 0.664607 0.227115
0.740398 0.677897 0.240406
0.160922 0.685924 0.160922
0.236698 0.699199 0.174212
0.31249 0.712489 0.187488
0.388281 0.72578 0.200778
0.464057 0.739071 0.214069
0.539849 0.752346 0.227359
0.615641 0.765637 0.24065
0.691432 0.778927 0.253925
0.767224 0.792218 0.267216
0.187747 0.800244 0.187747
0.263523 0.813519 0.201022
0.339315 0.82681 0.214313
0.415091 0.840101 0.227604
0.490883 0.853391 0.240894
0.566674 0.866682 0.25417
0.642466 0.879957 0.26746
0.718257 0.893248 0.280751
0.794034 0.906538 0.294041
0.214557 0.914565 0.214557
0.290333 0.92784 0.227848
0.366125 0.941131 0.241138
0.441917 0.954421 0.254429
0.517708 0.967712 0.267704
0.5935 0.981003 0.280995
0.669276 0.994278 0.294286
0.745068 1 0.307576
0.820859 1 0.320867
0 0 0.124987
0.0757763 0.0132906 0.138277
0.151568 0.0265812 0.151568
0.227359 0.0398566 0.164843
0.303151 0.0531472 0.178134
0.378927 0.0664378 0.191424
0.454719 0.0797284 0.204715
0.53051 0.093019 0.218006
0.606302 0.106294 0.231281
0.0268101 0.114305 0.151797
0.102602 0.127596 0.165087
0.178378 0.140887 0.178378
0.25417 0.154162 0.191669
0.329961 0.167452 0.204959
0.405753 0.180743 0.218235
0.481544 0.194034 0.231525
0.557336 0.207324 0.244816
0.633112 0.220615 0.258106
0.0536355 0.228626 0.178622
0.129412 0.241917 0.191913
0.205203 0.255207 0.205203
0.280995 0.268498 0.218479
0.356786 0.281773 0.231769
0.432578 0.295064 0.24506
0.508354 0.308354 0.25835
0.584146 0.321645 0.271641
0.659937 0.334936 0.284932
0.0804608 0.342947 0.205447
0.156237 0.356237 0.218738
0.232029 0.369528 0.232013
0.30782 0.382818 0.245304
0.383597 0.396094 0.258595
0.459388 0.409384 0.271885
0.53518 0.422675 0.285176
0.610971 0.435966 0.298451
0.686763 0.449256 0.311742
0.107271 0.457267 0.232258
0.183062 0.470558 0.245548
0.258854 0.483848 0.258839
0.33463 0.497139 0.272129
0.410422 0.51043 0.28542
0.486213 0.523705 0.298695
0.562005 0.536995 0.311986
0.637797 0.550286 0.325277
0.713573 0.563577 0.338567
0.134096 0.571588 0.259083
0.209873 0.584878 0.272374
0.285664 0.598169 0.285664
0.361456 0.61146 0.298939
0.437247 0.62475 0.31223
0.513039 0.638025 0.325521
0.588815 0.651316 0.338811
0.664607 0.664607 0.352102
0.740398 0.677897 0.365393
0.160922 0.685924 0.285908
0.236698 0.699199 0.299199
0.31249 0.712489 0.312474
0.388281 0.72578 0.325765
0.464057 0.739071 0.339055
0.539849 0.752346 0.352346
0.615641 0.765637 0.365637
0.691432 0.778927 0.378912
0.767224 0.792218 0.392203
0.187747 0.800244 0.312734
0.263523 0.813519 0.326009
0.339315 0.82681 0.3393
0.415091 0.840101 0.35259
0.490883 0.853391 0.365881
0.566674 0.866682 0.379156
0.642466 0.879957 0.392447
0.718257 0.893248 0.405737
0.794034 0.906538 0.419028
0.214557 0.914565 0.339544
0.290333 0.92784 0.352834
0.366125 0.941131 0.366125
0.441917 0.954421 0.379416
0.517708 0.967712 0.392691
0.5935 0.981003 0.405982
0.669276 0.994278 0.419272
0.745068 1 0.432563
0.820859 1 0.445853
0 0 0.249989
0.0757763 0.0132906 0.263279
0.151568 0.0265812 0.27657
0.227359 0.0398566 0.289845
0.303151 0.0531472 0.303136
0.378927 0.0664378 0.316426
0.454719 0.0797284 0.329717
0.53051 0.093019 0.343008
0.606302 0.106294 0.356283
0.0268101 0.114305 0.276799
0.102602 0.127596 0.290089
0.178378 0.140887 0.30338
0.25417 0.154162 0.31667
0.329961 0.167452 0.329961
0.405753 0.180743 0.343236
0.481544 0.194034 0.356527
0.557336 0.207324 0.369818
0.633112 0.220615 0.383108
0.0536355 0.228626 0.303624
0.129412 0.241917 0.316915
0.205203 0.255207 0.330205
0.280995 0.268498 0.343481
0.356786 0.281773 0.356771
0.432578 0.295064 0.370062
0.508354 0.308354 0.383352
0.584146 0.321645 0.396643
0.659937 0.334936 0.409934
0.0804608 0.342947 0.330449
0.156237 0.356237 0.34374
0.232029 0.369528 0.357015
0.30782 0.382818 0.370306
0.383597 0.396094 0.383597
0.459388 0.409384 0.396887
0.53518 0.422675 0.410178
0.610971 0.435966 0.423453
0.686763 0.449256 0.436744
0.107271 0.457267 0.357259
0.183062 0.470558 0.37055
0.258854 0.483848 0.383841
0.33463 0.497139 0.397131
0.410422 0.51043 0.410422
0.486213 0.523705 0.423697
0.562005 0.536995 0.436988
0.637797 0.550286 0.450278
0.713573 0.563577 0.463569
0.134096 0.571588 0.384085
0.209873 0.584878 0.397375
0.285664 0.598169 0.410666
0.361456 0.61146 0.423941
0.437247 0.62475 0.437232
0.513039 0.638025 0.450523
0.588815 0.651316 0.463813
0.664607 0.664607 0.477104
0.740398 0.677897 0.490394
0.160922 0.685924 0.41091
0.236698 0.699199 0.424201
0.31249 0.712489 0.437476
0.388281 0.72578 0.450767
0.464057 0.739071 0.464057
0.539849 0.752346 0.477348
0.615641 0.765637 0.490639
0.691432 0.778927 0.503914
0.767224 0.792218 0.517205
0.187747 0.800244 0.437736
0.263523 0.813519 0.451011
0.339315 0.82681 0.464302
0.415091 0.840101 0.477592
0.490883 0.853391 0.490883
0.566674 0.866682 0.504158
0.642466 0.879957 0.517449
0.718257 0.893248 0.530739
0.794034 0.906538 0.54403
0.214557 0.914565 0.464546
0.290333 0.92784 0.477836
0.366125 0.941131 0.491127
0.441917 0.954421 0.504417
0.517708 0.967712 0.517693
0.5935 0.981003 0.530983
0.669276 0.994278 0.544274
0.745068 1 0.557565
0.820859 1 0.570855
0 0 0.37499
0.0757763 0.0132906 0.388281
0.151568 0.0265812 0.401572
0.227359 0.0398566 0.414847
0.303151 0.0531472 0.428138
0.378927 0.0664378 0.441428
0.454719 0.0797284 0.454719
0.53051 0.093019 0.468009
0.606302 0.106294 0.481285
0.0268101 0.114305 0.401801
0.102602 0.127596 0.415091
0.178378 0.140887 0.428382
0.25417 0.154162 0.441672
0.329961 0.167452 0.454963
0.405753 0.180743 0.468238
0.481544 0.194034 0.481529
0.557336 0.207324 0.49482
0.633112 0.220615 0.50811
0.0536355 0.228626 0.428626
0.129412 0.241917 0.441917
0.205203 0.255207 0.455207
0.280995 0.268498 0.468482
0.356786 0.281773 0.481773
0.432578 0.295064 0.495064
0.508354 0.308354 0.508354
0.584146 0.321645 0.521645
0.659937 0.334936 0.534936
0.0804608 0.342947 0.455451
0.156237 0.356237 0.468742
0.232029 0.369528 0.482017
0.30782 0.382818 0.495308
0.383597 0.396094 0.508598
0.459388 0.409384 0.521889
0.53518 0.422675 0.53518
0.610971 0.435966 0.548455
0.686763 0.449256 0.561746
0.107271 0.457267 0.482261
0.183062 0.470558 0.495552
0.258854 0.483848 0.508843
0.33463 0.497139 0.522133
0.410422 0.51043 0.535424
0.486213 0.523705 0.548699
0.562005 0.536995 0.56199
0.637797 0.550286 0.57528
0.713573 0.563577 0.588571
0.134096 0.571588 0.509087
0.209873 0.584878 0.522377
0.285664 0.598169 0.535668
0.361456 0.61146 0.548943
0.437247 0.62475 0.562234
0.513039 0.638025 0.575525
0.588815 0.651316 0.588815
0.664607 0.664607 0.602106
0.740398 0.677897 0.615396
0.160922 0.685924 0.535912
0.236698 0.699199 0.549203
0.31249 0.712489 0.562478
0.388281 0.72578 0.575769
0.464057 0.739071 0.589059
0.539849 0.752346 0.60235
0.615641 0.765637 0.615641
0.691432 0.778927 0.628916
0.767224 0.792218 0.642206
0.187747 0.800244 0.562737
0.263523 0.813519 0.576013
0.339315 0.82681 0.589303
0.415091 0.840101 0.602594
0.490883 0.853391 0.615885
0.566674 0.866682 0.62916
0.642466 0.879957 0.642451
0.718257 0.893248 0.655741
0.794034 0.906538 0.669032
0.214557 0.914565 0.589548
0.290333 0.92784 0.602838
0.366125 0.941131 0.616129
0.441917 0.954421 0.629419
0.517708 0.967712 0.642695
0.5935 0.981003 0.655985
0.669276 0.994278 0.669276
0.745068 1 0.682567
0.820859 1 0.695857
0 0 0.499992
0.0757763 0.0132906 0.513283
0.151568 0.0265812 0.526574
0.227359 0.0398566 0.539849
0.303151 0.0531472 0.55314
0.378927 0.0664378 0.56643
0.454719 0.0797284 0.579721
0.53051 0.093019 0.593011
0.606302 0.106294 0.606287
0.0268101 0.114305 0.526802
0.102602 0.127596 0.540093
0.178378 0.140887 0.553384
0.25417 0.154162 0.566674
0.329961 0.167452 0.579965
0.405753 0.180743 0.59324
0.481544 0.194034 0.606531
0.557336 0.207324 0.619821
0.633112 0.220615 0.633112
0.0536355 0.228626 0.553628
0.129412 0.241917 0.566918
0.205203 0.255207 0.580209
0.280995 0.268498 0.593484
0.356786 0.281773 0.606775
0.432578 0.295064 0.620066
0.508354 0.308354 0.633356
0.584146 0.321645 0.646647
0.659937 0.334936 0.659937
0.0804608 0.342947 0.580453
0.156237 0.356237 0.593744
0.232029 0.369528 0.607019
0.30782 0.382818 0.62031
0.383597 0.396094 0.6336
0.459388 0.409384 0.646891
0.53518 0.422675 0.660182
0.610971 0.435966 0.673457
0.686763 0.449256 0.686748
0.107271 0.457267 0.607263
0.183062 0.470558 0.620554
0.258854 0.483848 0.633844
0.33463 0.497139 0.647135
0.410422 0.51043 0.660426
0.486213 0.523705 0.673701
0.562005 0.536995 0.686992
0.637797 0.550286 0.700282
0.713573 0.563577 0.713573
0.134096 0.571588 0.634089
0.209873 0.584878 0.647379
0.285664 0.598169 0.66067
0.361456 0.61146 0.673945
0.437247 0.62475 0.687236
0.513039 0.638025 0.700526
0.588815 0.651316 0.713817
0.664607 0.664607 0.727108
0.740398 0.677897 0.740398
0.160922 0.685924 0.660914
0.236698 0.699199 0.674205
0.31249 0.712489 0.68748
0.388281 0.72578 0.700771
0.464057 0.739071 0.714061
0.539849 0.752346 0.727352
0.615641 0.765637 0.740642
0.691432 0.778927 0.753918
0.767224 0.792218 0.767208
0.187747 0.800244 0.687739
0.263523 0.813519 0.701015
0.339315 0.82681 0.714305
0.415091 0.840101 0.727596
0.490883 0.853391 0.740887
0.566674 0.866682 0.754162
0.642466 0.879957 0.767452
0.718257 0.893248 0.780743
0.794034 0.906538 0.794034
0.214557 0.914565 0.714549
0.290333 0.92784 0.72784
0.366125 0.941131 0.741131
0.441917 0.954421 0.754421
0.517708 0.967712 0.767697
0.5935 0.981003 0.780987
0.669276 0.994278 0.794278
0.745068 1 0.807568
0.820859 1 0.820859
0 0 0.624994
0.0757763 0.0132906 0.638285
0.151568 0.0265812 0.651576
0.227359 0.0398566 0.664851
0.303151 0.0531472 0.678141
0.378927 0.0664378 0.691432
0.454719 0.0797284 0.704723
0.53051 0.093019 0.718013
0.606302 0.106294 0.731289
0.0268101 0.114305 0.651804
0.102602 0.127596 0.665095
0.178378 0.140887 0.678386
0.25417 0.154162 0.691676
0.329961 0.167452 0.704967
0.405753 0.180743 0.718242
0.481544 0.194034 0.731533
0.557336 0.207324 0.744823
0.633112 0.220615 0.758114
0.0536355 0.228626 0.67863
0.129412 0.241917 0.69192
0.205203 0.255207 0.705211
0.280995 0.268498 0.718486
0.356786 0.281773 0.731777
0.432578 0.295064 0.745068
0.508354 0.308354 0.758358
0.584146 0.321645 0.771649
0.659937 0.334936 0.784939
0.0804608 0.342947 0.705455
0.156237 0.356237 0.718746
0.232029 0.369528 0.732021
0.30782 0.382818 0.745312
0.383597 0.396094 0.758602
0.459388 0.409384 0.771893
0.53518 0.422675 0.785183
0.610971 0.435966 0.798459
0.686763 0.449256 0.811749
0.107271 0.457267 0.732265
0.183062 0.470558 0.745556
0.258854 0.483848 0.758846
0.33463 0.497139 0.772137
0.410422 0.51043 0.785428
0.486213 0.523705 0.798703
0.562005 0.536995 0.811994
0.637797 0.550286 0.825284
0.713573 0.563577 0.838575
0.134096 0.571588 0.759091
0.209873 0.584878 0.772381
0.285664 0.598169 0.785672
0.361456 0.61146 0.798947
0.437247 0.62475 0.812238
0.513039 0.638025 0.825528
0.588815 0.651316 0.838819
0.664607 0.664607 0.85211
0.740398 0.677897 0.8654
0.160922 0.685924 0.785916
0.236698 0.699199 0.799207
0.31249 0.712489 0.812482
0.388281 0.72578 0.825772
0.464057 0.739071 0.839063
0.539849 0.752346 0.852354
0.615641 0.765637 0.865644
0.691432 0.778927 0.87892
0.767224 0.792218 0.89221
0.187747 0.800244 0.812741
0.263523 0.813519 0.826017
0.339315 0.82681 0.839307
0.415091 0.840101 0.852598
0.490883 0.853391 0.865888
0.566674 0.866682 0.879164
0.642466 0.879957 0.892454
0.718257 0.893248 0.905745
0.794034 0.906538 0.919036
0.214557 0.914565 0.839551
0.290333 0.92784 0.852842
0.366125 0.941131 0.866133
0.441917 0.954421 0.879423
0.517708 0.967712 0.892699
0.5935 0.981003 0.905989
0.669276 0.994278 0.91928
0.745068 1 0.93257
0.820859 1 0.945861
0 0 0.749996
0.0757763 0.0132906 0.763287
0.151568 0.0265812 0.776577
0.227359 0.0398566 0.789853
0.303151 0.0531472 0.803143
0.378927 0.0664378 0.816434
0.454719 0.0797284 0.829725
0.53051 0.093019 0.843015
0.606302 0.106294 0.856291
0.0268101 0.114305 0.776806
0.102602 0.127596 0.790097
0.178378 0.140887 0.803388
0.25417 0.154162 0.816678
0.329961 0.167452 0.829969
0.405753 0.180743 0.843244
0.481544 0.194034 0.856535
0.557336 0.207324 0.869825
0.633112 0.220615 0.883116
0.0536355 0.228626 0.803632
0.129412 0.241917 0.816922
0.205203 0.255207 0.830213
0.280995 0.268498 0.843488
0.356786 0.281773 0.856779
0.432578 0.295064 0.870069
0.508354 0.308354 0.88336
0.584146 0.321645 0.896651
0.659937 0.334936 0.909941
0.0804608 0.342947 0.830457
0.156237 0.356237 0.843748
0.232029 0.369528 0.857023
0.30782 0.382818 0.870314
0.383597 0.396094 0.883604
0.459388 0.409384 0.896895
0.53518 0.422675 0.910185
0.610971 0.435966 0.923461
0.686763 0.449256 0.936751
0.107271 0.457267 0.857267
0.183062 0.470558 0.870558
0.258854 0.483848 0.883848
0.33463 0.497139 0.897139
0.410422 0.51043 0.91043
0.486213 0.523705 0.923705
0.562005 0.536995 0.936996
0.637797 0.550286 0.950286
0.713573 0.563577 0.963577
0.134096 0.571588 0.884092
0.209873 0.584878 0.897383
0.285664 0.598169 0.910674
0.361456 0.61146 0.923949
0.437247 0.62475 0.93724
0.513039 0.638025 0.95053
0.588815 0.651316 0.963821
0.664607 0.664607 0.977111
0.740398 0.677897 0.990402
0.160922 0.685924 0.910918
0.236698 0.699199 0.924208
0.31249 0.712489 0.937484
0.388281 0.72578 0.950774
0.464057 0.739071 0.964065
0.539849 0.752346 0.977356
0.615641 0.765637 0.990646
0.691432 0.778927 1
0.767224 0.792218 1
0.187747 0.800244 0.937743
0.263523 0.813519 0.951019
0.339315 0.82681 0.964309
0.415091 0.840101 0.9776
0.490883 0.853391 0.99089
0.566674 0.866682 1
0.642466 0.879957 1
0.718257 0.893248 1
0.794034 0.906538 1
0.214557 0.914565 0.964553
0.290333 0.92784 0.977844
0.366125 0.941131 0.991135
0.441917 0.954421 1
0.517708 0.967712 1
0.5935 0.981003 1
0.669276 0.994278 1
0.745068 1 1
0.820859 1 1
0 0 0.874998
0.0757763 0.0132906 0.888289
0.151568 0.0265812 0.901579
0.227359 0.0398566 0.914855
0.303151 0.0531472 0.928145
0.378927 0.0664378 0.941436
0.454719 0.0797284 0.954726
0.53051 0.093019 0.968017
0.606302 0.106294 0.981292
0.0268101 0.114305 0.901808
0.102602 0.127596 0.915099
0.178378 0.140887 0.928389
0.25417 0.154162 0.94168
0.329961 0.167452 0.954971
0.405753 0.180743 0.968246
0.481544 0.194034 0.981537
0.557336 0.207324 0.994827
0.633112 0.220615 1
0.0536355 0.228626 0.928634
0.129412 0.241917 0.941924
0.205203 0.255207 0.955215
0.280995 0.268498 0.96849
0.356786 0.281773 0.981781
0.432578 0.295064 0.995071
0.508354 0.308354 1
0.584146 0.321645 1
0.659937 0.334936 1
0.0804608 0.342947 0.955459
0.156237 0.356237 0.96875
0.232029 0.369528 0.982025
0.30782 0.382818 0.995315
0.383597 0.396094 1
0.459388 0.409384 1
0.53518 0.422675 1
0.610971 0.435966 1
0.686763 0.449256 1
0.107271 0.457267 0.982269
0.183062 0.470558 0.99556
0.258854 0.483848 1
0.33463 0.497139 1
0.410422 0.51043 1
0.486213 0.523705 1
0.562005 0.536995 1
0.637797 0.550286 1
0.713573 0.563577 1
0.134096 0.571588 1
0.209873 0.584878 1
0.285664 0.598169 1
0.361456 0.61146 1
0.437247 0.62475 1
0.513039 0.638025 1
0.588815 0.651316 1
0.664607 0.664607 1
0.740398 0.677897 1
0.160922 0.685924 1
0.236698 0.699199 1
0.31249 0.712489 1
0.388281 0.72578 1
0.464057 0.739071 1
0.539849 0.752346 1
0.615641 0.765637 1
0.691432 0.778927 1
0.767224 0.792218 1
0.187747 0.800244 1
0.263523 0.813519 1
0.339315 0.82681 1
0.415091 0.840101 1
0.490883 0.853391 1
0.566674 0.866682 1
0.642466 0.879957 1
0.718257 0.893248 1
0.794034 0.906538 1
0.214557 0.914565 1
0.290333 0.92784 1
0.366125 0.941131 1
0.441917 0.954421 1
0.517708 0.967712 1
0.5935 0.981003 1
0.669276 0.994278 1
0.745068 1 1
0.820859 1 1
0 0 1
0.0757763 0.0132906 1
0.151568 0.0265812 1
0.227359 0.0398566 1
0.303151 0.0531472 1
0.378927 0.0664378 1
0.454719 0.0797284 1
0.53051 0.093019 1
0.606302 0.106294 1
0.0268101 0.114305 1
0.102602 0.127596 1
0.178378 0.140887 1
0.25417 0.154162 1
0.329961 0.167452 1
0.405753 0.180743 1
0.481544 0.194034 1
0.557336 0.207324 1
0.633112 0.220615 1
0.0536355 0.228626 1
0.129412 0.241917 1
0.205203 0.255207 1
0.280995 0.268498 1
0.356786 0.281773 1
0.432578 0.295064 1
0.508354 0.308354 1
0.584146 0.321645 1
0.659937 0.334936 1
0.0804608 0.342947 1
0.156237 0.356237 1
0.232029 0.369528 1
0.30782 0.382818 1
0.383597 0.396094 1
0.459388 0.409384 1
0.53518 0.422675 1
0.610971 0.435966 1
0.686763 0.449256 1
0.107271 0.457267 1
0.183062 0.470558 1
0.258854 0.483848 1
0.33463 0.497139 1
0.410422 0.51043 1
0.486213 0.523705 1
0.562005 0.536995 1
0.637797 0.550286 1
0.713573 0.563577 1
0.134096 0.571588 1
0.209873 0.584878 1
0.285664 0.598169 1
0.361456 0.61146 1
0.437247 0.62475 1
0.513039 0.638025 1
0.588815 0.651316 1
0.664607 0.664607 1
0.740398 0.677897 1
0.160922 0.685924 1
0.236698 0.699199 1
0.31249 0.712489 1
0.388281 0.72578 1
0.464057 0.739071 1
0.539849 0.752346 1
0.615641 0.765637 1
0.691432 0.778927 1
0.767224 0.792218 1
0.187747 0.800244 1
0.263523 0.813519 1
0.339315 0.82681 1
0.415091 0.840101 1
0.490883 0.853391 1
0.566674 0.866682 1
0.642466 0.879957 1
0.718257 0.893248 1
0.794034 0.906538 1
0.214557 0.914565 1
0.290333 0.92784 1
0.366125 0.941131 1
0.441917 0.954421 1
0.517708 0.967712 1
0.5935 0.981003 1
0.669276 0.994278 1
0.745068 1 1
0.820859 1 1
