vendor/NativeMatch/NativeMatch.ofx.bundle/Contents/Resources/Cubes/Warm_Fix_1.cube
TITLE "Generated by Resolve"
LUT_3D_SIZE 5
0 0 0
0.151568 0.0265812 0.0265812
0.303151 0.0531472 0.0531472
0.454719 0.0797284 0.0797284
0.606302 0.106294 0.106294
0.0536355 0.228626 0.0536355
0.205203 0.255207 0.0802167
0.356786 0.281773 0.106783
0.508354 0.308354 0.133364
0.659937 0.334936 0.159945
0.107271 0.457267 0.107271
0.258854 0.483848 0.133852
0.410422 0.51043 0.160433
0.562005 0.536995 0.186999
0.713573 0.563577 0.213581
0.160922 0.685924 0.160922
0.31249 0.712489 0.187488
0.464057 0.739071 0.214069
0.615641 0.765637 0.24065
0.767224 0.792218 0.267216
0.214557 0.914565 0.214557
0.366125 0.941131 0.241138
0.517708 0.967712 0.267704
0.669276 0.994278 0.294286
0.820859 1 0.320867
0 0 0.249989
0.151568 0.0265812 0.27657
0.303151 0.0531472 0.303136
0.454719 0.0797284 0.329717
0.606302 0.106294 0.356283
0.0536355 0.228626 0.303624
0.205203 0.255207 0.330205
0.356786 0.281773 0.356771
0.508354 0.308354 0.383352
0.659937 0.334936 0.409934
0.107271 0.457267 0.357259
0.258854 0.483848 0.383841
0.410422 0.51043 0.410422
0.562005 0.536995 0.436988
0.713573 0.563577 0.463569
0.160922 0.685924 0.41091
0.31249 0.712489 0.437476
0.464057 0.739071 0.464057
0.615641 0.765637 0.490639
0.767224 0.792218 0.517205
0.214557 0.914565 0.464546
0.366125 0.941131 0.491127
0.517708 0.967712 0.517693
0.669276 0.994278 0.544274
0.820859 1 0.570855
0 0 0.499992
0.151568 0.0265812 0.526574
0.303151 0.0531472 0.55314
0.454719 0.0797284 0.579721
0.606302 0.106294 0.606287
0.0536355 0.228626 0.553628
0.205203 0.255207 0.580209
0.356786 0.281773 0.606775
0.508354 0.308354 0.633356
0.659937 0.334936 0.659937
0.107271 0.457267 0.607263
0.258854 0.483848 0.633844
0.410422 0.51043 0.660426
0.562005 0.536995 0.686992
0.713573 0.563577 0.713573
0.160922 0.685924 0.660914
0.31249 0.712489 0.68748
0.464057 0.739071 0.714061
0.615641 0.765637 0.740642
0.767224 0.792218 0.767208
0.214557 0.914565 0.714549
0.366125 0.941131 0.741131
0.517708 0.967712 0.767697
0.669276 0.994278 0.794278
0.820859 1 0.820859
0 0 0.749996
0.151568 0.0265812 0.776577
0.303151 0.0531472 0.803143
0.454719 0.0797284 0.829725
0.606302 0.106294 0.856291
0.0536355 0.228626 0.803632
0.205203 0.255207 0.830213
0.356786 0.281773 0.856779
0.508354 0.308354 0.88336
0.659937 0.334936 0.909941
0.107271 0.457267 0.857267
0.258854 0.483848 0.883848
0.410422 0.51043 0.91043
0.562005 0.536995 0.936996
0.713573 0.563577 0.963577
0.160922 0.685924 0.910918
0.31249 0.712489 0.937484
0.464057 0.739071 0.964065
0.615641 0.765637 0.990646
0.767224 0.792218 1
0.214557 0.914565 0.964553
0.366125 0.941131 0.991135
0.517708 0.967712 1
0.669276 0.994278 1
0.820859 1 1
0 0 1
0.151568 0.0265812 1
0.303151 0.0531472 1
0.454719 0.0797284 1
0.606302 0.106294 1
0.0536355 0.228626 1
0.205203 0.255207 1
0.356786 0.281773 1
0.508354 0.308354 1
0.659937 0.334936 1
0.107271 0.457267 1
0.258854 0.483848 1
0.410422 0.51043 1
0.562005 0.536995 1
0.713573 0.563577 1
0.160922 0.685924 1
0.31249 0.712489 1
0.464057 0.739071 1
0.615641 0.765637 1
0.767224 0.792218 1
0.214557 0.914565 1
0.366125 0.941131 1
0.517708 0.967712 1
0.669276 0.994278 1
0.820859 1 1
