vendor/NativeMatch/NativeMatch.ofx.bundle/Contents/Resources/Cubes/Warm_Fix_1.cube
TITLE "Generated by Resolve"
LUT_3D_SIZE 33
0 0 0
0.0189364 0.00332647 0.00332647
0.0378882 0.00663767 0.00663767
0.0568399 0.00996414 0.00996414
0.0757763 0.0132906 0.0132906
0.094728 0.0166018 0.0166018
0.11368 0.0199283 0.0199283
0.132616 0.0232547 0.0232547
0.151568 0.0265812 0.0265812
0.17052 0.0298924 0.0298924
0.189456 0.0332189 0.0332189
0.208408 0.0365454 0.0365454
0.227359 0.0398566 0.0398566
0.246311 0.043183 0.043183
0.265248 0.0465095 0.0465095
0.284199 0.0498207 0.0498207
0.303151 0.0531472 0.0531472
0.322087 0.0564736 0.0564736
0.341039 0.0598001 0.0598001
0.359991 0.0631113 0.0631113
0.378927 0.0664378 0.0664378
0.397879 0.0697642 0.0697642
0.416831 0.0730755 0.0730755
0.435782 0.0764019 0.0764019
0.454719 0.0797284 0.0797284
0.473671 0.0830396 0.0830396
0.492622 0.0863661 0.0863661
0.511559 0.0896925 0.0896925
0.53051 0.093019 0.093019
0.549462 0.0963302 0.0963302
0.568399 0.0996567 0.0996567
0.58735 0.102983 0.102983
0.606302 0.106294 0.106294
0.00669871 0.0285649 0.00669871
0.0256352 0.0318914 0.0100252
0.0445869 0.0352026 0.0133516
0.0635386 0.038529 0.0166629
0.082475 0.0418555 0.0199893
0.101427 0.045182 0.0233158
0.120378 0.0484932 0.026627
0.13933 0.0518196 0.0299535
0.158267 0.0551461 0.0332799
0.177218 0.0584573 0.0365911
0.19617 0.0617838 0.0399176
0.215106 0.0651102 0.0432441
0.234058 0.0684215 0.0465705
0.25301 0.0717479 0.0498817
0.271946 0.0750744 0.0532082
0.290898 0.0784009 0.0565347
0.30985 0.0817121 0.0598459
0.328801 0.0850385 0.0631723
0.347738 0.088365 0.0664988
0.36669 0.0916762 0.06981
0.385641 0.0950027 0.0731365
0.404578 0.0983291 0.076463
0.423529 0.10164 0.0797894
0.442481 0.104967 0.0831006
0.461418 0.108293 0.0864271
0.480369 0.11162 0.0897536
0.499321 0.114931 0.0930648
0.518273 0.118257 0.0963912
0.537209 0.121584 0.0997177
0.556161 0.124895 0.103029
0.575113 0.128222 0.106355
0.594049 0.131548 0.109682
0.613001 0.134859 0.113008
0.0134127 0.057145 0.0134127
0.0323491 0.0604715 0.0167239
0.0512856 0.0637827 0.0200504
0.0702373 0.0671092 0.0233768
0.089189 0.0704356 0.026688
0.108141 0.0737621 0.0300145
0.127077 0.0770733 0.033341
0.146029 0.0803998 0.0366522
0.164981 0.0837262 0.0399786
0.183917 0.0870375 0.0433051
0.202869 0.0903639 0.0466316
0.22182 0.0936904 0.0499428
0.240757 0.0970016 0.0532692
0.259709 0.100328 0.0565957
0.27866 0.103655 0.0599069
0.297612 0.106981 0.0632334
0.316548 0.110292 0.0665599
0.3355 0.113619 0.0698711
0.354452 0.116945 0.0731975
0.373388 0.120256 0.076524
0.39234 0.123583 0.0798505
0.411292 0.126909 0.0831617
0.430228 0.13022 0.0864881
0.44918 0.133547 0.0898146
0.468132 0.136873 0.0931258
0.487083 0.1402 0.0964523
0.50602 0.143511 0.0997787
0.524971 0.146838 0.10309
0.543923 0.150164 0.106416
0.56286 0.153475 0.109743
0.581811 0.156802 0.113069
0.600763 0.160128 0.116381
0.619699 0.163439 0.119707
0.0201114 0.0857252 0.0201114
0.0390478 0.0890516 0.0234379
0.0579995 0.0923629 0.0267491
0.0769513 0.0956893 0.0300755
0.0958877 0.0990158 0.033402
0.114839 0.102342 0.0367132
0.133791 0.105653 0.0400397
0.152728 0.10898 0.0433661
0.171679 0.112306 0.0466926
0.190631 0.115618 0.0500038
0.209567 0.118944 0.0533303
0.228519 0.122271 0.0566567
0.247471 0.125582 0.059968
0.266423 0.128908 0.0632944
0.285359 0.132235 0.0666209
0.304311 0.135561 0.0699321
0.323262 0.138872 0.0732586
0.342199 0.142199 0.076585
0.361151 0.145525 0.0799115
0.380102 0.148836 0.0832227
0.399039 0.152163 0.0865492
0.41799 0.155489 0.0898756
0.436942 0.158801 0.0931868
0.455894 0.162127 0.0965133
0.47483 0.165454 0.0998398
0.493782 0.16878 0.103151
0.512734 0.172091 0.106477
0.53167 0.175418 0.109804
0.550622 0.178744 0.11313
0.569574 0.182055 0.116442
0.588525 0.185382 0.119768
0.607462 0.188708 0.123095
0.626413 0.192035 0.126406
0.0268101 0.114305 0.0268101
0.0457618 0.117632 0.0301366
0.0646982 0.120943 0.033463
0.08365 0.124269 0.0367742
0.102602 0.127596 0.0401007
0.121538 0.130922 0.0434272
0.14049 0.134234 0.0467536
0.159442 0.13756 0.0500649
0.178378 0.140887 0.0533913
0.19733 0.144198 0.0567178
0.216281 0.147524 0.060029
0.235233 0.150851 0.0633555
0.25417 0.154162 0.0666819
0.273121 0.157488 0.0699931
0.292073 0.160815 0.0733196
0.311009 0.164141 0.0766461
0.329961 0.167452 0.0799725
0.348913 0.170779 0.0832837
0.367864 0.174105 0.0866102
0.386801 0.177417 0.0899367
0.405753 0.180743 0.0932479
0.424704 0.18407 0.0965744
0.443641 0.187396 0.0999008
0.462593 0.190707 0.103227
0.481544 0.194034 0.106538
0.500481 0.19736 0.109865
0.519432 0.200671 0.113191
0.538384 0.203998 0.116503
0.557336 0.207324 0.119829
0.576272 0.210636 0.123156
0.595224 0.213962 0.126467
0.614176 0.217288 0.129793
0.633112 0.220615 0.13312
0.0335241 0.142885 0.0335241
0.0524605 0.146212 0.0368353
0.0714122 0.149523 0.0401617
0.0903487 0.15285 0.0434882
0.1093 0.156176 0.0468147
0.128252 0.159503 0.0501259
0.147189 0.162814 0.0534524
0.16614 0.16614 0.0567788
0.185092 0.169467 0.06009
0.204044 0.172778 0.0634165
0.22298 0.176104 0.066743
0.241932 0.179431 0.0700542
0.260884 0.182757 0.0733806
0.27982 0.186069 0.0767071
0.298772 0.189395 0.0800336
0.317723 0.192721 0.0833448
0.336675 0.196033 0.0866712
0.355612 0.199359 0.0899977
0.374563 0.202686 0.0933089
0.393515 0.205997 0.0966354
0.412451 0.209323 0.0999619
0.431403 0.21265 0.103288
0.450355 0.215976 0.1066
0.469291 0.219287 0.109926
0.488243 0.222614 0.113252
0.507195 0.22594 0.116564
0.526146 0.229252 0.11989
0.545083 0.232578 0.123217
0.564034 0.235904 0.126528
0.582986 0.239216 0.129854
0.601923 0.242542 0.133181
0.620874 0.245869 0.136507
0.639826 0.249195 0.139818
0.0402228 0.171466 0.0402228
0.0591592 0.174792 0.0435492
0.0781109 0.178103 0.0468757
0.0970626 0.18143 0.0501869
0.116014 0.184756 0.0535134
0.134951 0.188083 0.0568399
0.153903 0.191394 0.0601511
0.172854 0.19472 0.0634775
0.191791 0.198047 0.066804
0.210742 0.201358 0.0701305
0.229694 0.204685 0.0734417
0.248631 0.208011 0.0767681
0.267582 0.211337 0.0800946
0.286534 0.214649 0.0834058
0.305486 0.217975 0.0867323
0.324422 0.221302 0.0900587
0.343374 0.224613 0.09337
0.362325 0.227939 0.0966964
0.381262 0.231266 0.100023
0.400214 0.234577 0.103349
0.419165 0.237903 0.106661
0.438102 0.24123 0.109987
0.457053 0.244556 0.113313
0.476005 0.247868 0.116625
0.494957 0.251194 0.119951
0.513893 0.25452 0.123278
0.532845 0.257832 0.126589
0.551797 0.261158 0.129915
0.570733 0.264485 0.133242
0.589685 0.267796 0.136568
0.608637 0.271122 0.139879
0.627573 0.274449 0.143206
0.646525 0.277775 0.146532
0.0469368 0.200046 0.0469368
0.0658732 0.203372 0.050248
0.0848249 0.206699 0.0535744
0.103761 0.21001 0.0569009
0.122713 0.213336 0.0602121
0.141665 0.216663 0.0635386
0.160601 0.219974 0.066865
0.179553 0.223301 0.0701915
0.198505 0.226627 0.0735027
0.217441 0.229938 0.0768292
0.236393 0.233265 0.0801556
0.255344 0.236591 0.0834669
0.274296 0.239918 0.0867933
0.293233 0.243229 0.0901198
0.312184 0.246555 0.093431
0.331136 0.249882 0.0967575
0.350072 0.253193 0.100084
0.369024 0.256519 0.10341
0.387976 0.259846 0.106722
0.406912 0.263157 0.110048
0.425864 0.266484 0.113375
0.444816 0.26981 0.116686
0.463767 0.273136 0.120012
0.482704 0.276448 0.123339
0.501656 0.279774 0.12665
0.520607 0.283101 0.129976
0.539544 0.286412 0.133303
0.558495 0.289738 0.136629
0.577447 0.293065 0.13994
0.596384 0.296376 0.143267
0.615335 0.299702 0.146593
0.634287 0.303029 0.149905
0.653239 0.306355 0.153231
0.0536355 0.228626 0.0536355
0.0725719 0.231952 0.0569619
0.0915236 0.235279 0.0602731
0.110475 0.23859 0.0635996
0.129412 0.241917 0.0669261
0.148363 0.245243 0.0702525
0.167315 0.248554 0.0735637
0.186252 0.251881 0.0768902
0.205203 0.255207 0.0802167
0.224155 0.258518 0.0835279
0.243107 0.261845 0.0868544
0.262043 0.265171 0.0901808
0.280995 0.268498 0.093492
0.299947 0.271809 0.0968185
0.318883 0.275135 0.100145
0.337835 0.278462 0.103471
0.356786 0.281773 0.106783
0.375723 0.2851 0.110109
0.394675 0.288426 0.113436
0.413626 0.291737 0.116747
0.432578 0.295064 0.120073
0.451514 0.29839 0.1234
0.470466 0.301717 0.126711
0.489418 0.305028 0.130037
0.508354 0.308354 0.133364
0.527306 0.311681 0.13669
0.546258 0.314992 0.140002
0.565194 0.318318 0.143328
0.584146 0.321645 0.146654
0.603098 0.324971 0.149966
0.622049 0.328283 0.153292
0.640986 0.331609 0.156619
0.659937 0.334936 0.159945
0.0603494 0.257206 0.0603494
0.0792859 0.260533 0.0636606
0.0982223 0.263859 0.0669871
0.117174 0.26717 0.0703136
0.136126 0.270497 0.0736248
0.155062 0.273823 0.0769513
0.174014 0.277134 0.0802777
0.192966 0.280461 0.0835889
0.211917 0.283787 0.0869154
0.230854 0.287098 0.0902419
0.249805 0.290425 0.0935531
0.268757 0.293751 0.0968795
0.287694 0.297078 0.100206
0.306645 0.300389 0.103532
0.325597 0.303716 0.106844
0.344533 0.307042 0.11017
0.363485 0.310353 0.113497
0.382437 0.31368 0.116808
0.401389 0.317006 0.120134
0.420325 0.320317 0.123461
0.439277 0.323644 0.126772
0.458228 0.32697 0.130098
0.477165 0.330297 0.133425
0.496117 0.333608 0.136751
0.515068 0.336934 0.140063
0.53402 0.340261 0.143389
0.552956 0.343572 0.146715
0.571908 0.346899 0.150027
0.59086 0.350225 0.153353
0.609796 0.353552 0.15668
0.628748 0.356863 0.160006
0.6477 0.360189 0.163317
0.666636 0.363516 0.166644
0.0670481 0.285786 0.0670481
0.0859846 0.289113 0.0703746
0.104936 0.292439 0.0736858
0.123873 0.29575 0.0770123
0.142824 0.299077 0.0803388
0.161776 0.302403 0.08365
0.180728 0.305715 0.0869764
0.199664 0.309041 0.0903029
0.218616 0.312367 0.0936141
0.237568 0.315679 0.0969406
0.256504 0.319005 0.100267
0.275456 0.322332 0.103593
0.294408 0.325658 0.106905
0.313359 0.328969 0.110231
0.332296 0.332296 0.113558
0.351247 0.335622 0.116869
0.370199 0.338933 0.120195
0.389136 0.34226 0.123522
0.408087 0.345586 0.126848
0.427039 0.348913 0.130159
0.445975 0.352224 0.133486
0.464927 0.35555 0.136812
0.483879 0.358877 0.140124
0.502831 0.362188 0.14345
0.521767 0.365515 0.146777
0.540719 0.368841 0.150088
0.55967 0.372152 0.153414
0.578607 0.375479 0.156741
0.597559 0.378805 0.160067
0.61651 0.382132 0.163378
0.635447 0.385443 0.166705
0.654398 0.388769 0.170031
0.67335 0.392096 0.173342
0.0737469 0.314366 0.0737469
0.0926833 0.317693 0.0770733
0.111635 0.321019 0.0803998
0.130587 0.324331 0.083711
0.149538 0.327657 0.0870375
0.168475 0.330983 0.0903639
0.187427 0.334295 0.0936904
0.206378 0.337621 0.0970016
0.225315 0.340948 0.100328
0.244266 0.344274 0.103655
0.263218 0.347585 0.106966
0.28217 0.350912 0.110292
0.301106 0.354238 0.113619
0.320058 0.357549 0.11693
0.33901 0.360876 0.120256
0.357946 0.364202 0.123583
0.376898 0.367514 0.126909
0.39585 0.37084 0.13022
0.414786 0.374166 0.133547
0.433738 0.377493 0.136873
0.452689 0.380804 0.140185
0.471641 0.384131 0.143511
0.490578 0.387457 0.146838
0.509529 0.390768 0.150149
0.528481 0.394095 0.153475
0.547417 0.397421 0.156802
0.566369 0.400732 0.160128
0.585321 0.404059 0.163439
0.604257 0.407385 0.166766
0.623209 0.410712 0.170092
0.642161 0.414023 0.173404
0.661112 0.41735 0.17673
0.680049 0.420676 0.180056
0.0804608 0.342947 0.0804608
0.0993973 0.346273 0.083772
0.118349 0.349599 0.0870985
0.137285 0.352911 0.090425
0.156237 0.356237 0.0937514
0.175189 0.359564 0.0970626
0.194125 0.362875 0.100389
0.213077 0.366201 0.103716
0.232029 0.369528 0.107027
0.25098 0.372854 0.110353
0.269917 0.376165 0.11368
0.288869 0.379492 0.116991
0.30782 0.382818 0.120317
0.326757 0.38613 0.123644
0.345708 0.389456 0.12697
0.36466 0.392782 0.130282
0.383597 0.396094 0.133608
0.402548 0.39942 0.136934
0.4215 0.402747 0.140246
0.440452 0.406073 0.143572
0.459388 0.409384 0.146899
0.47834 0.412711 0.15021
0.497292 0.416037 0.153536
0.516228 0.419348 0.156863
0.53518 0.422675 0.160189
0.554131 0.426001 0.1635
0.573068 0.429313 0.166827
0.59202 0.432639 0.170153
0.610971 0.435966 0.173465
0.629923 0.439292 0.176791
0.648859 0.442603 0.180117
0.667811 0.44593 0.183429
0.686763 0.449256 0.186755
0.0871595 0.371527 0.0871595
0.106096 0.374853 0.090486
0.125048 0.37818 0.0938125
0.143999 0.381491 0.0971237
0.162936 0.384817 0.10045
0.181888 0.388144 0.103777
0.200839 0.391455 0.107088
0.219791 0.394781 0.110414
0.238727 0.398108 0.113741
0.257679 0.401434 0.117052
0.276631 0.404746 0.120378
0.295567 0.408072 0.123705
0.314519 0.411399 0.127031
0.333471 0.41471 0.130343
0.352407 0.418036 0.133669
0.371359 0.421363 0.136995
0.390311 0.424674 0.140307
0.409262 0.428 0.143633
0.428199 0.431327 0.14696
0.44715 0.434653 0.150271
0.466102 0.437964 0.153597
0.485039 0.441291 0.156924
0.50399 0.444617 0.16025
0.522942 0.447929 0.163561
0.541878 0.451255 0.166888
0.56083 0.454582 0.170214
0.579782 0.457893 0.173526
0.598733 0.461219 0.176852
0.61767 0.464546 0.180179
0.636622 0.467872 0.18349
0.655573 0.471183 0.186816
0.67451 0.47451 0.190143
0.693462 0.477836 0.193469
0.0938735 0.400107 0.0938735
0.11281 0.403433 0.0971847
0.131746 0.40676 0.100511
0.150698 0.410071 0.103838
0.16965 0.413397 0.107149
0.188602 0.416724 0.110475
0.207538 0.420035 0.113802
0.22649 0.423362 0.117113
0.245441 0.426688 0.120439
0.264378 0.430014 0.123766
0.28333 0.433326 0.127092
0.302281 0.436652 0.130404
0.321218 0.439979 0.13373
0.340169 0.44329 0.137057
0.359121 0.446616 0.140368
0.378073 0.449943 0.143694
0.397009 0.453254 0.147021
0.415961 0.45658 0.150332
0.434913 0.459907 0.153658
0.453849 0.463233 0.156985
0.472801 0.466545 0.160311
0.491753 0.469871 0.163622
0.510689 0.473198 0.166949
0.529641 0.476509 0.170275
0.548592 0.479835 0.173587
0.567544 0.483162 0.176913
0.58648 0.486488 0.18024
0.605432 0.489799 0.183566
0.624384 0.493126 0.186877
0.64332 0.496452 0.190204
0.662272 0.499763 0.19353
0.681224 0.50309 0.196841
0.700175 0.506416 0.200168
0.100572 0.428687 0.100572
0.119509 0.432013 0.103899
0.13846 0.43534 0.10721
0.157412 0.438651 0.110536
0.176349 0.441978 0.113863
0.1953 0.445304 0.117174
0.214252 0.448615 0.1205
0.233188 0.451942 0.123827
0.25214 0.455268 0.127153
0.271092 0.458595 0.130465
0.290028 0.461906 0.133791
0.30898 0.465232 0.137118
0.327932 0.468559 0.140429
0.346883 0.47187 0.143755
0.36582 0.475196 0.147082
0.384771 0.478523 0.150393
0.403723 0.481849 0.153719
0.42266 0.485161 0.157046
0.441611 0.488487 0.160372
0.460563 0.491814 0.163684
0.479515 0.495125 0.16701
0.498451 0.498451 0.170336
0.517403 0.501778 0.173648
0.536355 0.505089 0.176974
0.555291 0.508415 0.180301
0.574243 0.511742 0.183627
0.593194 0.515068 0.186938
0.612131 0.51838 0.190265
0.631083 0.521706 0.193591
0.650034 0.525032 0.196902
0.668986 0.528344 0.200229
0.687922 0.53167 0.203555
0.706874 0.534997 0.206867
0.107271 0.457267 0.107271
0.126223 0.460594 0.110597
0.145159 0.46392 0.113924
0.164111 0.467231 0.117235
0.183062 0.470558 0.120562
0.201999 0.473884 0.123888
0.220951 0.477195 0.127214
0.239902 0.480522 0.130526
0.258854 0.483848 0.133852
0.27779 0.487175 0.137179
0.296742 0.490486 0.14049
0.315694 0.493812 0.143816
0.33463 0.497139 0.147143
0.353582 0.50045 0.150469
0.372534 0.503777 0.15378
0.39147 0.507103 0.157107
0.410422 0.51043 0.160433
0.429374 0.513741 0.163745
0.448325 0.517067 0.167071
0.467262 0.520394 0.170397
0.486213 0.523705 0.173709
0.505165 0.527031 0.177035
0.524102 0.530358 0.180362
0.543053 0.533669 0.183688
0.562005 0.536995 0.186999
0.580941 0.540322 0.190326
0.599893 0.543648 0.193652
0.618845 0.54696 0.196963
0.637797 0.550286 0.20029
0.656733 0.553613 0.203616
0.675685 0.556924 0.206928
0.694636 0.56025 0.210254
0.713573 0.563577 0.213581
0.113985 0.485847 0.113985
0.132921 0.489174 0.117311
0.151873 0.4925 0.120623
0.170809 0.495811 0.123949
0.189761 0.499138 0.127275
0.208713 0.502464 0.130587
0.227665 0.505791 0.133913
0.246601 0.509102 0.13724
0.265553 0.512428 0.140551
0.284504 0.515755 0.143877
0.303441 0.519066 0.147204
0.322393 0.522393 0.15053
0.341344 0.525719 0.153841
0.360281 0.52903 0.157168
0.379232 0.532357 0.160494
0.398184 0.535683 0.163806
0.417136 0.53901 0.167132
0.436072 0.542321 0.170459
0.455024 0.545647 0.17377
0.473976 0.548974 0.177096
0.492912 0.552285 0.180423
0.511864 0.555611 0.183749
0.530816 0.558938 0.18706
0.549752 0.562249 0.190387
0.568704 0.565576 0.193713
0.587655 0.568902 0.197024
0.606607 0.572229 0.200351
0.625544 0.57554 0.203677
0.644495 0.578866 0.206989
0.663447 0.582193 0.210315
0.682383 0.585504 0.213642
0.701335 0.58883 0.216968
0.720287 0.592157 0.220279
0.120684 0.514427 0.120684
0.13962 0.517754 0.12401
0.158572 0.52108 0.127337
0.177523 0.524392 0.130648
0.196475 0.527718 0.133974
0.215412 0.531044 0.137301
0.234363 0.534371 0.140612
0.253315 0.537682 0.143938
0.272251 0.541009 0.147265
0.291203 0.544335 0.150591
0.310155 0.547646 0.153903
0.329091 0.550973 0.157229
0.348043 0.554299 0.160555
0.366995 0.55761 0.163867
0.385946 0.560937 0.167193
0.404883 0.564263 0.17052
0.423835 0.56759 0.173831
0.442786 0.570901 0.177157
0.461723 0.574228 0.180484
0.480674 0.577554 0.18381
0.499626 0.580865 0.187121
0.518563 0.584192 0.190448
0.537514 0.587518 0.193774
0.556466 0.590829 0.197086
0.575418 0.594156 0.200412
0.594354 0.597482 0.203738
0.613306 0.600809 0.20705
0.632258 0.60412 0.210376
0.651194 0.607446 0.213703
0.670146 0.610773 0.217029
0.689097 0.614084 0.22034
0.708034 0.617411 0.223667
0.726986 0.620737 0.226993
0.127398 0.543008 0.127398
0.146334 0.546334 0.130709
0.165286 0.549661 0.134035
0.184222 0.552972 0.137362
0.203174 0.556298 0.140673
0.222126 0.559625 0.143999
0.241062 0.562951 0.147326
0.260014 0.566262 0.150652
0.278965 0.569589 0.153964
0.297902 0.572915 0.15729
0.316854 0.576226 0.160616
0.335805 0.579553 0.163928
0.354757 0.582879 0.167254
0.373693 0.586191 0.170581
0.392645 0.589517 0.173892
0.411597 0.592844 0.177218
0.430533 0.59617 0.180545
0.449485 0.599481 0.183871
0.468437 0.602808 0.187182
0.487373 0.606134 0.190509
0.506325 0.609445 0.193835
0.525277 0.612772 0.197147
0.544228 0.616098 0.200473
0.563165 0.61941 0.2038
0.582116 0.622736 0.207111
0.601068 0.626062 0.210437
0.620005 0.629389 0.213764
0.638956 0.6327 0.21709
0.657908 0.636027 0.220401
0.67686 0.639353 0.223728
0.695796 0.642664 0.227054
0.714748 0.645991 0.230365
0.7337 0.649317 0.233692
0.134096 0.571588 0.134096
0.153033 0.574914 0.137423
0.171984 0.578241 0.140734
0.190936 0.581552 0.14406
0.209873 0.584878 0.147387
0.228824 0.588205 0.150713
0.247776 0.591531 0.154025
0.266712 0.594842 0.157351
0.285664 0.598169 0.160678
0.304616 0.601495 0.163989
0.323568 0.604807 0.167315
0.342504 0.608133 0.170642
0.361456 0.61146 0.173953
0.380407 0.614771 0.177279
0.399344 0.618097 0.180606
0.418296 0.621424 0.183932
0.437247 0.62475 0.187243
0.456184 0.628061 0.19057
0.475135 0.631388 0.193896
0.494087 0.634714 0.197208
0.513039 0.638025 0.200534
0.531975 0.641352 0.203861
0.550927 0.644678 0.207187
0.569879 0.648005 0.210498
0.588815 0.651316 0.213825
0.607767 0.654643 0.217151
0.626719 0.657969 0.220462
0.64567 0.66128 0.223789
0.664607 0.664607 0.227115
0.683558 0.667933 0.230426
0.70251 0.671244 0.233753
0.721447 0.674571 0.237079
0.740398 0.677897 0.240406
0.14081 0.600168 0.14081
0.159747 0.603494 0.144121
0.178683 0.606821 0.147448
0.197635 0.610132 0.150774
0.216587 0.613458 0.154086
0.235523 0.616785 0.157412
0.254475 0.620111 0.160739
0.273426 0.623423 0.16405
0.292378 0.626749 0.167376
0.311315 0.630076 0.170703
0.330266 0.633387 0.174029
0.349218 0.636713 0.17734
0.368154 0.64004 0.180667
0.387106 0.643366 0.183993
0.406058 0.646677 0.187304
0.42501 0.650004 0.190631
0.443946 0.65333 0.193957
0.462898 0.656641 0.197269
0.481849 0.659968 0.200595
0.500786 0.663294 0.203922
0.519738 0.666606 0.207248
0.538689 0.669932 0.210559
0.557626 0.673259 0.213886
0.576577 0.676585 0.217212
0.595529 0.679896 0.220523
0.614481 0.683223 0.22385
0.633417 0.686549 0.227176
0.652369 0.68986 0.230488
0.671321 0.693187 0.233814
0.690257 0.696513 0.23714
0.709209 0.699825 0.240467
0.728161 0.703151 0.243778
0.747097 0.706477 0.247105
0.147509 0.628763 0.147509
0.166445 0.632074 0.150835
0.185397 0.635401 0.154147
0.204349 0.638727 0.157473
0.223285 0.642039 0.1608
0.242237 0.645365 0.164111
0.261189 0.648692 0.167437
0.280125 0.652003 0.170764
0.299077 0.655329 0.17409
0.318029 0.658656 0.177401
0.336965 0.661967 0.180728
0.355917 0.665293 0.184054
0.374868 0.66862 0.187366
0.39382 0.671946 0.190692
0.412757 0.675258 0.194018
0.431708 0.678584 0.19733
0.45066 0.68191 0.200656
0.469596 0.685222 0.203983
0.488548 0.688548 0.207309
0.5075 0.691875 0.21062
0.526436 0.695186 0.213947
0.545388 0.698512 0.217273
0.56434 0.701839 0.220584
0.583291 0.705165 0.223911
0.602228 0.708476 0.227237
0.62118 0.711803 0.230549
0.640131 0.715129 0.233875
0.659068 0.718441 0.237201
0.678019 0.721767 0.240528
0.696971 0.725093 0.243839
0.715908 0.728405 0.247166
0.734859 0.731731 0.250492
0.753811 0.735058 0.253803
0.154208 0.657343 0.154208
0.173159 0.660655 0.157534
0.192096 0.663981 0.160861
0.211048 0.667308 0.164172
0.229999 0.670619 0.167498
0.248936 0.673945 0.170825
0.267887 0.677272 0.174151
0.286839 0.680583 0.177462
0.305776 0.683909 0.180789
0.324727 0.687236 0.184115
0.343679 0.690547 0.187427
0.362631 0.693874 0.190753
0.381567 0.6972 0.19408
0.400519 0.700526 0.197391
0.419471 0.703838 0.200717
0.438407 0.707164 0.204044
0.457359 0.710491 0.20737
0.47631 0.713802 0.210681
0.495247 0.717128 0.214008
0.514199 0.720455 0.217334
0.53315 0.723766 0.220645
0.552102 0.727092 0.223972
0.571038 0.730419 0.227298
0.58999 0.733745 0.23061
0.608942 0.737057 0.233936
0.627878 0.740383 0.237263
0.64683 0.743709 0.240589
0.665782 0.747021 0.2439
0.684718 0.750347 0.247227
0.70367 0.753674 0.250553
0.722622 0.756985 0.253864
0.741573 0.760311 0.257191
0.76051 0.763638 0.260517
0.160922 0.685924 0.160922
0.179858 0.689235 0.164233
0.19881 0.692561 0.167559
0.217746 0.695888 0.170886
0.236698 0.699199 0.174212
0.25565 0.702525 0.177523
0.274586 0.705852 0.18085
0.293538 0.709163 0.184176
0.31249 0.712489 0.187488
0.331441 0.715816 0.190814
0.350378 0.719127 0.194141
0.369329 0.722454 0.197452
0.388281 0.72578 0.200778
0.407218 0.729107 0.204105
0.426169 0.732418 0.207431
0.445121 0.735744 0.210742
0.464057 0.739071 0.214069
0.483009 0.742382 0.217395
0.501961 0.745708 0.220706
0.520912 0.749035 0.224033
0.539849 0.752346 0.227359
0.558801 0.755673 0.230671
0.577752 0.758999 0.233997
0.596689 0.762325 0.237324
0.615641 0.765637 0.24065
0.634592 0.768963 0.243961
0.653529 0.77229 0.247288
0.67248 0.775601 0.250614
0.691432 0.778927 0.253925
0.710384 0.782254 0.257252
0.72932 0.78558 0.260578
0.748272 0.788891 0.263905
0.767224 0.792218 0.267216
0.16762 0.714504 0.16762
0.186557 0.717815 0.170947
0.205509 0.721141 0.174273
0.22446 0.724468 0.177584
0.243397 0.727779 0.180911
0.262348 0.731106 0.184237
0.2813 0.734432 0.187549
0.300252 0.737743 0.190875
0.319188 0.74107 0.194202
0.33814 0.744396 0.197513
0.357092 0.747707 0.200839
0.376028 0.751034 0.204166
0.39498 0.75436 0.207492
0.413931 0.757687 0.210803
0.432868 0.760998 0.21413
0.45182 0.764324 0.217456
0.470771 0.767651 0.220768
0.489723 0.770962 0.224094
0.508659 0.774289 0.22742
0.527611 0.777615 0.230732
0.546563 0.780941 0.234058
0.565499 0.784253 0.237385
0.584451 0.787579 0.240711
0.603403 0.790906 0.244022
0.622354 0.794217 0.247349
0.641291 0.797543 0.250675
0.660243 0.80087 0.253986
0.679194 0.804181 0.257313
0.698131 0.807507 0.260639
0.717083 0.810834 0.263966
0.736034 0.81416 0.267277
0.754971 0.817472 0.270604
0.773922 0.820798 0.27393
0.174334 0.743084 0.174334
0.193271 0.746395 0.177646
0.212207 0.749722 0.180972
0.231159 0.753048 0.184298
0.250111 0.756359 0.18761
0.269062 0.759686 0.190936
0.287999 0.763012 0.194263
0.30695 0.766323 0.197574
0.325902 0.76965 0.2009
0.344839 0.772976 0.204227
0.36379 0.776287 0.207553
0.382742 0.779614 0.210864
0.401679 0.78294 0.214191
0.42063 0.786267 0.217517
0.439582 0.789578 0.220829
0.458534 0.792905 0.224155
0.47747 0.796231 0.227481
0.496422 0.799542 0.230808
0.515373 0.802869 0.234119
0.53431 0.806195 0.237446
0.553262 0.809522 0.240772
0.572213 0.812833 0.244083
0.591165 0.816159 0.24741
0.610101 0.819486 0.250736
0.629053 0.822797 0.254047
0.648005 0.826123 0.257374
0.666941 0.82945 0.2607
