vendor/NativeMatch/NativeMatch.ofx.bundle/Contents/Resources/Cubes/Warmth_Filter_1.cube
LUT_3D_SIZE 5
0.031776 0.020884 0.013776
0.336393 0.011803 -0.002992
0.661016 0.003414 -0.021009
0.947559 0.001848 -0.037582
1.195480 0.010524 -0.053073
0.007522 0.244542 -0.010478
0.312729 0.230017 -0.026656
0.637252 0.222552 -0.044773
0.923865 0.220338 -0.061276
1.171932 0.227673 -0.076621
-0.024159 0.536690 -0.042160
0.281210 0.520675 -0.058175
0.606412 0.506946 -0.075613
0.893269 0.502484 -0.091873
1.141963 0.504027 -0.106590
-0.055072 0.821749 -0.073072
0.250297 0.805733 -0.089088
0.575862 0.788658 -0.106163
0.863377 0.778126 -0.121764
1.112581 0.774970 -0.135972
-0.082334 1.073142 -0.100334
0.223035 1.057127 -0.116349
0.548600 1.040052 -0.133424
0.836612 1.024946 -0.148530
1.086897 1.011820 -0.161656
0.027863 0.016971 0.215810
0.333290 0.007406 0.163861
0.658874 -0.000564 0.099062
0.946778 -0.001939 0.018232
1.195938 0.006305 -0.052616
0.003609 0.240629 0.191556
0.308978 0.224613 0.175541
0.634341 0.217764 0.115225
0.921985 0.215706 0.049969
1.171555 0.222676 -0.033382
-0.028072 0.532777 0.159875
0.277297 0.516761 0.143859
0.602816 0.501511 0.119532
0.890517 0.497641 0.060959
1.140308 0.499219 -0.004883
-0.058985 0.817836 0.128962
0.246384 0.801820 0.112947
0.571949 0.784745 0.095872
0.859897 0.772997 0.066418
1.109963 0.770346 0.009561
-0.086247 1.069229 0.101701
0.219122 1.053214 0.085685
0.544688 1.036139 0.068610
0.832699 1.021033 0.053505
1.083389 1.008312 0.019462
0.022286 0.011394 0.503750
0.327864 0.000721 0.450520
0.653773 -0.007376 0.371231
0.942264 -0.009195 0.265403
1.192909 -0.001088 0.126242
-0.001968 0.235052 0.479495
0.303401 0.219036 0.463480
0.629007 0.210627 0.399884
0.917029 0.208192 0.319042
1.167283 0.214263 0.208491
-0.033649 0.527200 0.447814
0.271720 0.511185 0.431798
0.597285 0.494110 0.414724
0.885242 0.490370 0.343595
1.135452 0.491437 0.260876
-0.064562 0.812259 0.416902
0.240807 0.796243 0.400886
0.566372 0.779168 0.383811
0.854388 0.765797 0.359551
1.104723 0.763208 0.289884
-0.091823 1.063653 0.389640
0.213546 1.047637 0.373624
0.539111 1.030562 0.356549
0.827122 1.015457 0.341444
1.077752 1.002675 0.310504
0.016405 0.005513 0.807398
0.321919 -0.006458 0.763799
0.647805 -0.014945 0.687628
0.936294 -0.017670 0.586527
1.187308 -0.010758 0.436349
-0.007849 0.229171 0.783144
0.297520 0.213155 0.767129
0.623108 0.202975 0.713513
0.911123 0.199902 0.636265
1.161433 0.204644 0.529960
-0.039530 0.521319 0.751463
0.265839 0.505304 0.735447
0.591404 0.488229 0.718372
0.879352 0.482561 0.657617
1.129564 0.482828 0.578906
-0.070443 0.806378 0.720550
0.234926 0.790362 0.704535
0.560491 0.773287 0.687460
0.848502 0.758182 0.672354
1.098812 0.755488 0.604376
-0.097705 1.057771 0.693289
0.207664 1.041756 0.677273
0.533230 1.024681 0.660198
0.821241 1.009576 0.645093
1.071696 0.996619 0.623204
0.011005 0.000113 1.086209
0.316433 -0.013171 1.053372
0.642182 -0.022072 0.985667
0.930484 -0.025801 0.898494
1.181304 -0.020552 0.765878
-0.013249 0.223771 1.061955
0.292120 0.207755 1.045939
0.617649 0.195795 1.004203
0.905536 0.192085 0.936183
1.155684 0.195405 0.844767
-0.044930 0.515919 1.030273
0.260439 0.499904 1.014258
0.586004 0.482829 0.997183
0.873884 0.475229 0.949523
1.123969 0.474697 0.880862
-0.075843 0.800978 0.999361
0.229526 0.784962 0.983345
0.555091 0.767887 0.966271
0.843103 0.752782 0.951165
1.093308 0.748243 0.897517
-0.103104 1.052371 0.972099
0.202264 1.036356 0.956084
0.527830 1.019281 0.939009
0.815841 1.004176 0.923903
1.066126 0.991049 0.910777
