vendor/NativeMatch/NativeMatch.ofx.bundle/Contents/Resources/Cubes/Warmth_Filter_1.cube
LUT_3D_SIZE 9
0.031776 0.020884 0.013776
0.179182 0.016568 0.005653
0.336393 0.011803 -0.002992
0.502280 0.007018 -0.012142
0.661016 0.003414 -0.021009
0.810470 0.001474 -0.029524
0.947559 0.001848 -0.037582
1.072619 0.004946 -0.045250
1.195480 0.010524 -0.053073
0.020557 0.124343 0.002556
0.168267 0.117216 -0.005262
0.325445 0.112756 -0.013939
0.491323 0.108053 -0.023098
0.650078 0.104285 -0.031947
0.799570 0.101986 -0.040424
0.936727 0.101737 -0.048414
1.061867 0.104095 -0.056002
1.184784 0.109155 -0.063769
0.007522 0.244542 -0.010478
0.155300 0.236791 -0.018229
0.312729 0.230017 -0.026656
0.478545 0.225887 -0.035876
0.637252 0.222552 -0.044773
0.786721 0.220476 -0.053273
0.923865 0.220338 -0.061276
1.049012 0.222638 -0.068857
1.171932 0.227673 -0.076621
-0.008117 0.388754 -0.026117
0.139662 0.381004 -0.033868
0.297252 0.372738 -0.042133
0.463292 0.366543 -0.051129
0.621989 0.363302 -0.060036
0.771492 0.360910 -0.068502
0.908711 0.360084 -0.076430
1.033969 0.361361 -0.083900
1.157063 0.364782 -0.091490
-0.024159 0.536690 -0.042160
0.123619 0.528940 -0.049910
0.281210 0.520675 -0.058175
0.447523 0.511952 -0.066898
0.606412 0.506946 -0.075613
0.755956 0.504172 -0.084038
0.893269 0.502484 -0.091873
1.018671 0.502424 -0.099198
1.141963 0.504027 -0.106590
-0.039936 0.682177 -0.057937
0.107842 0.674426 -0.065687
0.265433 0.666161 -0.073952
0.431746 0.657438 -0.082675
0.590998 0.649086 -0.091027
0.740654 0.645275 -0.099340
0.878030 0.643005 -0.107111
1.003548 0.641882 -0.114321
1.127009 0.641924 -0.121544
-0.055072 0.821749 -0.073072
0.092707 0.813998 -0.080823
0.250297 0.805733 -0.089088
0.416611 0.797010 -0.097810
0.575862 0.788658 -0.106163
0.725959 0.780786 -0.114035
0.863377 0.778126 -0.121764
0.988981 0.776209 -0.128888
1.112581 0.774970 -0.135972
-0.069092 0.951038 -0.087092
0.078686 0.943287 -0.094843
0.236277 0.935022 -0.103108
0.402590 0.926299 -0.111831
0.561842 0.917947 -0.120183
0.711939 0.910075 -0.128055
0.849786 0.903456 -0.135355
0.975435 0.901123 -0.142433
1.099129 0.899025 -0.149425
-0.082334 1.073142 -0.100334
0.065445 1.065392 -0.108084
0.223035 1.057127 -0.116349
0.389349 1.048404 -0.125072
0.548600 1.040052 -0.133424
0.698697 1.032180 -0.141297
0.836612 1.024946 -0.148530
0.962725 1.018332 -0.155144
1.086897 1.011820 -0.161656
0.030000 0.019108 0.105468
0.177753 0.014526 0.082584
0.335303 0.010060 0.056638
0.501560 0.005538 0.028922
0.660724 0.002188 -0.001131
0.810585 0.000413 -0.029409
0.947709 0.000467 -0.037432
1.072807 0.003215 -0.045062
1.195713 0.008377 -0.052840
0.018781 0.122567 0.094248
0.166559 0.114817 0.086498
0.324080 0.110693 0.060155
0.490299 0.106274 0.033648
0.649432 0.102751 0.005947
0.799367 0.100684 -0.024265
0.936862 0.100487 -0.048279
1.062046 0.102448 -0.055823
1.185008 0.107094 -0.063546
0.005746 0.242766 0.081213
0.153525 0.235015 0.073463
0.311090 0.227557 0.062186
0.477251 0.223730 0.035381
0.636305 0.220656 0.009041
0.786162 0.218790 -0.018636
0.923767 0.218838 -0.048961
1.049185 0.221043 -0.068684
1.172162 0.225550 -0.076391
-0.009893 0.386978 0.065575
0.137886 0.379228 0.057824
0.295476 0.370963 0.049559
0.461719 0.364046 0.034826
0.620755 0.361135 0.008461
0.770611 0.358989 -0.017695
0.908230 0.358353 -0.045168
1.033963 0.359796 -0.075590
1.157256 0.363004 -0.091297
-0.025935 0.534914 0.049532
0.121843 0.527164 0.041782
0.279434 0.518898 0.033516
0.445747 0.510176 0.024794
0.604894 0.504512 0.007471
0.754776 0.502057 -0.018317
0.892450 0.500606 -0.044151
1.018262 0.500731 -0.071434
1.142043 0.502501 -0.102448
-0.041712 0.680401 0.033755
0.106066 0.672650 0.026005
0.263657 0.664385 0.017739
0.429971 0.655663 0.009017
0.589222 0.647310 0.000665
0.739189 0.642921 -0.019113
0.876903 0.640959 -0.044190
1.002789 0.640068 -0.069675
1.126670 0.640299 -0.097404
-0.056848 0.819973 0.018620
0.090931 0.812222 0.010869
0.248521 0.803957 0.002604
0.414835 0.795235 -0.006119
0.574086 0.786882 -0.014471
0.724183 0.779010 -0.022343
0.861961 0.775886 -0.044388
0.987905 0.774257 -0.068809
1.111878 0.773250 -0.094417
-0.070868 0.949262 0.004599
0.076910 0.941511 -0.003151
0.234501 0.933246 -0.011417
0.400815 0.924523 -0.020139
0.560066 0.916171 -0.028491
0.710163 0.908299 -0.036364
0.848077 0.901066 -0.043597
0.974068 0.898989 -0.067907
1.098104 0.897172 -0.092237
-0.084109 1.071366 -0.008642
0.063669 1.063616 -0.016393
0.221259 1.055351 -0.024658
0.387573 1.046628 -0.033380
0.546825 1.038276 -0.041733
0.696921 1.030404 -0.049605
0.834836 1.023171 -0.056838
0.960997 1.016605 -0.065948
1.085510 1.010433 -0.090057
0.027863 0.016971 0.215810
0.175670 0.011831 0.193278
0.333290 0.007406 0.163861
0.499622 0.002862 0.132789
0.658874 -0.000564 0.099062
0.808942 -0.002361 0.061223
0.946778 -0.001939 0.018232
1.072703 0.001260 -0.030158
1.195938 0.006305 -0.052616
0.016644 0.120430 0.204591
0.164422 0.112679 0.196840
0.322017 0.107934 0.170251
0.488307 0.103541 0.140348
0.647517 0.099975 0.109256
0.797544 0.097802 0.075294
0.935341 0.097633 0.037121
1.061265 0.099909 -0.006468
1.185077 0.104959 -0.055783
0.003609 0.240629 0.191556
0.151388 0.232878 0.183806
0.308978 0.224613 0.175541
0.475215 0.220838 0.144895
0.634341 0.217764 0.115225
0.784281 0.215817 0.084115
0.921985 0.215706 0.049969
1.047806 0.217961 0.011297
1.171555 0.222676 -0.033382
-0.012030 0.384841 0.175917
0.135749 0.377091 0.168167
0.293339 0.368825 0.159902
0.459629 0.361023 0.147532
0.618738 0.358192 0.117401
0.768667 0.356027 0.087958
0.906372 0.355285 0.056999
1.032210 0.356539 0.022675
1.156006 0.359857 -0.016964
-0.028072 0.532777 0.159875
0.119706 0.525027 0.152124
0.277297 0.516761 0.143859
0.443610 0.508039 0.135137
0.602816 0.501511 0.119532
0.752769 0.499124 0.090085
0.890517 0.497641 0.060959
1.016418 0.497648 0.030126
1.140308 0.499219 -0.004883
-0.043849 0.678264 0.144098
0.103929 0.670513 0.136347
0.261520 0.662248 0.128082
0.427833 0.653526 0.119360
0.587085 0.645173 0.111007
0.737120 0.639959 0.092317
0.874904 0.638055 0.063671
1.000866 0.637120 0.034866
1.124839 0.637225 0.003529
-0.058985 0.817836 0.128962
0.088794 0.810085 0.121212
0.246384 0.801820 0.112947
0.412698 0.793098 0.104224
0.571949 0.784745 0.095872
0.722046 0.776873 0.088000
0.859897 0.772997 0.066418
0.985912 0.771404 0.038515
1.109963 0.770346 0.009561
-0.073005 0.947125 0.114942
0.074773 0.939374 0.107191
0.232364 0.931109 0.098926
0.398677 0.922386 0.090204
0.557929 0.914034 0.081851
0.708026 0.906162 0.073979
0.845940 0.898929 0.066746
0.972011 0.896166 0.042285
1.096116 0.894372 0.014550
-0.086247 1.069229 0.101701
0.061532 1.061479 0.093950
0.219122 1.053214 0.085685
0.385436 1.044491 0.076962
0.544688 1.036139 0.068610
0.694784 1.028267 0.060738
0.832699 1.021033 0.053505
0.958812 1.014419 0.046891
1.083389 1.008312 0.019462
0.025216 0.014324 0.352456
0.173068 0.008614 0.330791
0.330791 0.004274 0.296155
0.497232 -0.000245 0.259876
0.656601 -0.003708 0.220902
0.806798 -0.005596 0.177572
0.944780 -0.005346 0.128627
1.070882 -0.002346 0.073056
1.194937 0.003084 0.010496
0.013997 0.117783 0.341237
0.161776 0.110033 0.333486
0.319438 0.104667 0.306934
0.485833 0.100339 0.271825
0.645154 0.096775 0.235561
0.795302 0.094537 0.196339
0.933233 0.094241 0.152592
1.059309 0.096319 0.102935
1.183313 0.101069 0.046242
0.000962 0.237982 0.328202
0.148741 0.230231 0.320452
0.306331 0.221966 0.312187
0.472665 0.217469 0.280764
0.631901 0.214414 0.245891
0.781955 0.212432 0.209639
0.919786 0.212206 0.170197
1.045750 0.214267 0.125887
1.169673 0.218648 0.074833
-0.014676 0.382195 0.312563
0.133102 0.374444 0.304813
0.290693 0.366179 0.296548
0.457006 0.357456 0.287825
0.616216 0.354751 0.252350
0.766251 0.352616 0.217799
0.904073 0.351815 0.181715
1.030042 0.352923 0.142055
1.153986 0.356012 0.096692
-0.030719 0.530131 0.296521
0.117060 0.522380 0.288770
0.274650 0.514115 0.280505
0.440964 0.505392 0.271783
0.600209 0.497974 0.258932
0.750263 0.495701 0.224189
0.888120 0.494234 0.189958
1.014138 0.494169 0.154005
1.138161 0.495582 0.113608
-0.046496 0.675617 0.280744
0.101283 0.667867 0.272993
0.258873 0.659602 0.264728
0.425187 0.650879 0.256006
0.584438 0.642527 0.247653
0.734527 0.636468 0.230840
0.872413 0.634667 0.196942
0.998485 0.633739 0.162934
1.122576 0.633762 0.126546
-0.061631 0.815189 0.265608
0.086147 0.807439 0.257858
0.243738 0.799174 0.249593
0.410051 0.790451 0.240870
0.569303 0.782099 0.232518
0.719400 0.774227 0.224646
0.857315 0.769576 0.204080
0.983432 0.768075 0.170953
1.107594 0.767017 0.136787
-0.075652 0.944478 0.251588
0.072127 0.936728 0.243837
0.229717 0.928463 0.235572
0.396031 0.919740 0.226850
0.555282 0.911388 0.218497
0.705379 0.903515 0.210625
0.843293 0.896282 0.203392
0.969437 0.892828 0.179099
1.093647 0.891104 0.146157
-0.088893 1.066583 0.238347
0.058885 1.058832 0.230596
0.216476 1.050567 0.222331
0.382790 1.041844 0.213608
0.542041 1.033492 0.205256
0.692138 1.025620 0.197384
0.830052 1.018387 0.190151
0.956165 1.011773 0.183536
1.080757 1.005680 0.155373
0.022286 0.011394 0.503750
0.170120 0.005047 0.486219
0.327864 0.000721 0.450520
0.494339 -0.003839 0.412885
0.653773 -0.007376 0.371231
0.804089 -0.009354 0.322806
0.942264 -0.009195 0.265403
1.068607 -0.006342 0.199384
1.192909 -0.001088 0.126242
0.011067 0.114853 0.492530
0.158845 0.107103 0.484780
0.316498 0.101053 0.462233
0.482918 0.096708 0.425994
0.642280 0.093087 0.388158
0.792503 0.090752 0.345918
0.930566 0.090339 0.296635
1.056846 0.092291 0.238173
1.181103 0.096808 0.170923
-0.001968 0.235052 0.479495
0.145811 0.227301 0.471745
0.303401 0.219036 0.463480
0.469740 0.213736 0.435957
0.629007 0.210627 0.399884
0.779111 0.208559 0.361824
0.917029 0.208192 0.319042
1.043141 0.210080 0.268718
1.167283 0.214263 0.208491
-0.017607 0.379264 0.463857
0.130172 0.371514 0.456106
0.287762 0.363249 0.447841
0.454076 0.354526 0.439118
0.613303 0.350922 0.407445
0.763369 0.348758 0.371613
0.901247 0.347852 0.333480
1.027314 0.348798 0.290125
1.151420 0.351687 0.238262
-0.033649 0.527200 0.447814
0.114129 0.519450 0.440064
0.271720 0.511185 0.431798
0.438034 0.502462 0.423076
0.597285 0.494110 0.414724
0.747355 0.491881 0.379056
0.885242 0.490370 0.343595
1.011323 0.490192 0.305337
1.135452 0.491437 0.260876
-0.049426 0.672687 0.432037
0.098352 0.664936 0.424287
0.255943 0.656671 0.416021
0.422257 0.647949 0.407299
0.581508 0.639596 0.398947
0.731603 0.632639 0.386466
0.869506 0.630873 0.351582
0.995611 0.629888 0.316399
1.119770 0.629794 0.277435
-0.064562 0.812259 0.416902
0.083217 0.804508 0.409151
0.240807 0.796243 0.400886
0.407121 0.787521 0.392163
0.566372 0.779168 0.383811
0.716469 0.771296 0.375939
0.854388 0.765797 0.359551
0.980525 0.764328 0.325371
1.104723 0.763208 0.289884
-0.078582 0.941548 0.402881
0.069196 0.933797 0.395131
0.226787 0.925532 0.386866
0.393101 0.916810 0.378143
0.552352 0.908457 0.369791
0.702449 0.900585 0.361919
0.840363 0.893352 0.354685
0.966505 0.889128 0.334427
1.090739 0.887408 0.300363
-0.091823 1.063653 0.389640
0.055955 1.055902 0.381889
0.213546 1.047637 0.373624
0.379859 1.038914 0.364902
0.539111 1.030562 0.356549
0.689208 1.022690 0.348677
0.827122 1.015457 0.341444
0.953235 1.008842 0.334830
1.077752 1.002675 0.310504
0.019324 0.008432 0.656674
0.167132 0.001436 0.643665
0.324877 -0.002885 0.607910
0.491353 -0.007507 0.570556
0.650790 -0.011173 0.529461
0.801112 -0.013343 0.481760
0.939306 -0.013429 0.424692
1.065748 -0.010859 0.355524
1.190304 -0.005763 0.271380
0.008105 0.111891 0.645454
0.155884 0.104141 0.637704
0.313516 0.097395 0.619648
0.479940 0.093021 0.583404
0.639304 0.089318 0.545914
0.789531 0.086826 0.504284
0.927604 0.086186 0.455714
1.053915 0.087854 0.397287
1.178301 0.092029 0.325769
-0.004930 0.232090 0.632420
0.142849 0.224339 0.624669
0.300439 0.216074 0.616404
0.466772 0.209959 0.593359
0.626046 0.206784 0.557334
0.776153 0.204601 0.519675
0.914080 0.204031 0.477535
1.040209 0.205630 0.427922
1.164396 0.209455 0.367453
-0.020568 0.376302 0.616781
0.127210 0.368552 0.609030
0.284801 0.360287 0.600765
0.451114 0.351564 0.592043
0.610346 0.347049 0.564847
0.760415 0.344844 0.529111
0.898298 0.343800 0.491416
1.024376 0.344513 0.448734
1.148503 0.347078 0.397574
-0.036611 0.524238 0.600738
0.111168 0.516488 0.592988
0.268758 0.508223 0.584723
0.435072 0.499500 0.576000
0.594323 0.491148 0.567648
0.744397 0.488011 0.536458
0.882287 0.486448 0.501144
1.008375 0.486117 0.463365
1.132516 0.487116 0.419596
-0.052388 0.669725 0.584961
0.095391 0.661975 0.577211
0.252981 0.653710 0.568946
0.419295 0.644987 0.560223
0.578546 0.636635 0.551871
0.728643 0.628763 0.543999
0.866545 0.627030 0.508988
0.992653 0.625976 0.474010
1.116819 0.625719 0.435566
-0.067524 0.809297 0.569826
0.080255 0.801547 0.562075
0.237845 0.793282 0.553810
0.404159 0.784559 0.545087
0.563411 0.776207 0.536735
0.713508 0.768335 0.528863
0.851424 0.761973 0.517027
0.977559 0.760531 0.482781
1.101760 0.759331 0.447566
-0.081544 0.938586 0.555805
0.066235 0.930836 0.548055
0.223825 0.922571 0.539790
0.390139 0.913848 0.531067
0.549390 0.905496 0.522715
0.699487 0.897623 0.514843
0.837401 0.890390 0.507609
0.963533 0.885384 0.491855
1.087768 0.883658 0.457778
-0.094785 1.060691 0.542564
0.052993 1.052940 0.534813
0.210584 1.044675 0.526548
0.376897 1.035952 0.517826
0.536149 1.027600 0.509473
0.686246 1.019728 0.501601
0.824160 1.012495 0.494368
0.950273 1.005881 0.487754
1.074705 0.999628 0.467830
0.016405 0.005513 0.807398
0.164187 -0.002139 0.798978
0.321919 -0.006458 0.763799
0.488382 -0.011146 0.727372
0.647805 -0.014945 0.687628
0.798112 -0.017317 0.641642
0.936294 -0.017670 0.586527
1.062737 -0.015469 0.519215
1.187308 -0.010758 0.436349
0.005186 0.108972 0.796179
0.152964 0.101222 0.788428
0.310575 0.093771 0.775027
0.476988 0.089366 0.739446
0.636340 0.085579 0.702936
0.786554 0.082928 0.662719
0.924615 0.082051 0.615920
1.050918 0.083411 0.559465
1.175315 0.087137 0.489771
-0.007849 0.229171 0.783144
0.139930 0.221420 0.775394
0.297520 0.213155 0.767129
0.463842 0.206216 0.748824
0.623108 0.202975 0.713513
0.773204 0.200678 0.676934
0.911123 0.199902 0.636265
1.037245 0.201203 0.588478
1.161433 0.204644 0.529960
-0.023488 0.373383 0.767505
0.124291 0.365633 0.759755
0.281881 0.357367 0.751490
0.448195 0.348645 0.742767
0.607425 0.343209 0.720407
0.757481 0.340965 0.685432
0.895355 0.339784 0.648909
1.021426 0.340262 0.607766
1.145549 0.342496 0.558462
-0.039530 0.521319 0.751463
0.108248 0.513569 0.743712
0.265839 0.505304 0.735447
0.432153 0.496581 0.726725
0.591404 0.488229 0.718372
0.741473 0.484175 0.692115
0.879352 0.482561 0.657617
1.005430 0.482078 0.621065
1.129564 0.482828 0.578906
-0.055307 0.666806 0.735686
0.092471 0.659055 0.727935
0.250062 0.650790 0.719670
0.416376 0.642068 0.710948
0.575627 0.633715 0.702595
0.725724 0.625843 0.694723
0.863617 0.623221 0.664751
0.989713 0.622099 0.630646
1.113869 0.621679 0.593488
-0.070443 0.806378 0.720550
0.077336 0.798627 0.712800
0.234926 0.790362 0.704535
0.401240 0.781640 0.695812
0.560491 0.773287 0.687460
0.710588 0.765415 0.679588
0.848502 0.758182 0.672354
0.974622 0.756767 0.638668
1.098812 0.755488 0.604376
-0.084463 0.935667 0.706530
0.063315 0.927916 0.698779
0.220906 0.919651 0.690514
0.387220 0.910928 0.681792
0.546471 0.902576 0.673439
0.696568 0.894704 0.665567
0.834482 0.887471 0.658334
0.960603 0.881664 0.647235
1.084823 0.879941 0.613809
-0.097705 1.057771 0.693289
0.050074 1.050021 0.685538
0.207664 1.041756 0.677273
0.373978 1.033033 0.668550
0.533230 1.024681 0.660198
0.683326 1.016809 0.652326
0.821241 1.009576 0.645093
0.947354 1.002961 0.638478
1.071696 0.996619 0.623204
0.013613 0.002721 0.951561
0.161392 -0.005030 0.943810
0.319078 -0.009913 0.913675
0.485510 -0.014672 0.879036
0.644901 -0.018613 0.841479
0.795175 -0.021193 0.798112
0.933322 -0.021825 0.746103
1.059732 -0.020013 0.682296
1.184276 -0.015719 0.602842
0.002394 0.106180 0.940341
0.150172 0.098429 0.932591
0.307764 0.090270 0.923694
0.474149 0.085830 0.889610
0.633472 0.081954 0.854924
0.783656 0.079137 0.816956
0.921686 0.078017 0.772864
1.047955 0.079055 0.719599
1.172328 0.082314 0.653416
-0.010641 0.226379 0.927307
0.137138 0.218628 0.919556
0.294728 0.210363 0.911291
0.461040 0.202593 0.897720
0.620279 0.199283 0.864022
0.770349 0.196871 0.829274
0.908240 0.195886 0.790918
1.034336 0.196885 0.745929
1.158497 0.199929 0.690719
-0.026280 0.370591 0.911668
0.121499 0.362841 0.903917
0.279089 0.354575 0.895652
0.445403 0.345853 0.886930
0.604628 0.339489 0.869537
0.754654 0.337203 0.836233
0.892502 0.335885 0.801620
1.018548 0.336127 0.762843
1.142646 0.338023 0.716438
-0.042322 0.518527 0.895625
0.105456 0.510777 0.887875
0.263047 0.502511 0.879610
0.429360 0.493789 0.870887
0.588612 0.485437 0.862535
0.738672 0.480457 0.841479
0.876519 0.478791 0.808683
1.002570 0.478155 0.774188
1.126680 0.478654 0.734444
-0.058099 0.664014 0.879848
0.089679 0.656263 0.872098
0.247270 0.647998 0.863833
0.413583 0.639276 0.855110
0.572835 0.630923 0.846758
0.722932 0.623051 0.838886
0.860807 0.619524 0.814358
0.986873 0.618338 0.781992
1.111002 0.617753 0.746962
-0.073235 0.803586 0.864713
0.074544 0.795835 0.856962
0.232134 0.787570 0.848697
0.398448 0.778847 0.839975
0.557699 0.770495 0.831622
0.707796 0.762623 0.823750
0.845710 0.755390 0.816517
0.971802 0.753122 0.788526
1.095963 0.751760 0.756016
-0.087255 0.932875 0.850692
0.060523 0.925125 0.842942
0.218114 0.916859 0.834677
0.384427 0.908136 0.825954
0.543679 0.899784 0.817602
0.693776 0.891912 0.809730
0.831690 0.884679 0.802497
0.957803 0.878065 0.795882
1.081992 0.876342 0.763933
-0.100497 1.054979 0.837451
0.047282 1.047229 0.829700
0.204872 1.038964 0.821435
0.371186 1.030241 0.812713
0.530437 1.021889 0.804361
0.680534 1.014017 0.796488
0.818449 1.006783 0.789255
0.944562 1.000169 0.782641
1.068814 0.993737 0.771987
0.011005 0.000113 1.086209
0.158784 -0.007638 1.078458
0.316433 -0.013171 1.053372
0.482833 -0.017993 1.020568
0.642182 -0.022072 0.985667
0.792403 -0.024872 0.945944
0.930484 -0.025801 0.898494
1.056827 -0.024400 0.839902
1.181304 -0.020552 0.765878
-0.000214 0.103572 1.074990
0.147564 0.095821 1.067239
0.305155 0.087556 1.058974
0.471509 0.082493 1.029540
0.630797 0.078537 0.996825
0.780939 0.075555 0.961666
0.918916 0.074182 0.921364
1.045122 0.074881 0.872794
1.169433 0.077650 0.812009
-0.013249 0.223771 1.061955
0.134530 0.216020 1.054204
0.292120 0.207755 1.045939
0.458433 0.199156 1.036618
0.617649 0.195795 1.004203
0.767686 0.193277 0.971568
0.905536 0.192085 0.936183
1.031582 0.192773 0.895137
1.155684 0.195405 0.844767
-0.028888 0.367983 1.046316
0.118891 0.360233 1.038566
0.276481 0.351968 1.030300
0.442795 0.343245 1.021578
0.602028 0.335957 1.008627
0.752025 0.333648 0.976723
0.889840 0.332203 0.944315
1.015844 0.332207 0.908676
1.139893 0.333759 0.866369
-0.044930 0.515919 1.030273
0.102848 0.508169 1.022523
0.260439 0.499904 1.014258
0.426752 0.491181 1.005535
0.586004 0.482829 0.997183
0.736066 0.476931 0.980760
0.873884 0.475229 0.949523
0.999902 0.474450 0.917295
1.123969 0.474697 0.880862
-0.060707 0.661406 1.014497
0.087071 0.653656 1.006746
0.244662 0.645390 0.998481
0.410976 0.636668 0.989758
0.570227 0.628315 0.981406
0.720324 0.620443 0.973534
0.858195 0.616020 0.953837
0.984230 0.614787 0.923158
1.108324 0.614044 0.890572
-0.075843 0.800978 0.999361
0.071936 0.793227 0.991611
0.229526 0.784962 0.983345
0.395840 0.776240 0.974623
0.555091 0.767887 0.966271
0.705188 0.760015 0.958398
0.843103 0.752782 0.951165
0.969179 0.749675 0.928211
1.093308 0.748243 0.897517
-0.089863 0.930267 0.985341
0.057915 0.922516 0.977590
0.215506 0.914251 0.969325
0.381820 0.905529 0.960602
0.541071 0.897176 0.952250
0.691168 0.889304 0.944378
0.829082 0.882071 0.937145
0.955195 0.875457 0.930531
1.079358 0.872944 0.903835
-0.103104 1.052371 0.972099
0.044674 1.044621 0.964349
0.202264 1.036356 0.956084
0.368578 1.027633 0.947361
0.527830 1.019281 0.939009
0.677927 1.011409 0.931137
0.815841 1.004176 0.923903
0.941954 0.997561 0.917289
1.066126 0.991049 0.910777
