vendor/NativeMatch/NativeMatch.ofx.bundle/Contents/Resources/Cubes/Warmth_Filter_1.cube
LUT_3D_SIZE 33
0.031776 0.020884 0.013776
0.071833 0.019651 0.011575
0.107829 0.018618 0.009589
0.143295 0.017605 0.007632
0.179182 0.016568 0.005653
0.216082 0.015483 0.003620
0.254447 0.014330 0.001509
0.294656 0.013096 -0.000700
0.336393 0.011803 -0.002992
0.378438 0.010521 -0.005303
0.420116 0.009292 -0.007599
0.461405 0.008122 -0.009878
0.502280 0.007018 -0.012142
0.542711 0.005988 -0.014387
0.582666 0.005038 -0.016614
0.622113 0.004178 -0.018822
0.661016 0.003414 -0.021009
0.699340 0.002754 -0.023174
0.737048 0.002205 -0.025315
0.774103 0.001776 -0.027433
0.810470 0.001474 -0.029524
0.846099 0.001307 -0.031588
0.880866 0.001294 -0.033619
0.914658 0.001483 -0.035617
0.947559 0.001848 -0.037582
0.979691 0.002376 -0.039522
1.011170 0.003069 -0.041441
1.042109 0.003925 -0.043349
1.072619 0.004946 -0.045250
1.102809 0.006131 -0.047151
1.132911 0.007474 -0.049065
1.164171 0.008915 -0.051058
1.195480 0.010524 -0.053073
0.029090 0.045655 0.011090
0.069225 0.043695 0.008968
0.105219 0.042687 0.006979
0.140681 0.041707 0.005018
0.176565 0.040697 0.003036
0.213463 0.039634 0.001001
0.251826 0.038499 -0.001112
0.292034 0.037279 -0.003323
0.333769 0.035995 -0.005615
0.375814 0.034718 -0.007927
0.417492 0.033489 -0.010223
0.458781 0.032316 -0.012502
0.499657 0.031206 -0.014764
0.540089 0.030165 -0.017009
0.580046 0.029203 -0.019235
0.619494 0.028326 -0.021440
0.658400 0.027542 -0.023625
0.696726 0.026860 -0.025788
0.734436 0.026286 -0.027927
0.771495 0.025830 -0.030041
0.807864 0.025499 -0.032129
0.843497 0.025301 -0.034190
0.878268 0.025249 -0.036217
0.912069 0.025359 -0.038206
0.944977 0.025655 -0.040164
0.977114 0.026135 -0.042098
1.008599 0.026777 -0.044012
1.039544 0.027581 -0.045914
1.070060 0.028548 -0.047809
1.100255 0.029678 -0.049704
1.130364 0.030965 -0.051612
1.161629 0.032351 -0.053599
1.192945 0.033898 -0.055608
0.026322 0.071180 0.008322
0.066473 0.069074 0.006216
0.102531 0.067478 0.004291
0.137991 0.066514 0.002328
0.173873 0.065523 0.000344
0.210769 0.064483 -0.001694
0.249130 0.063367 -0.003808
0.289336 0.062160 -0.006021
0.331070 0.060885 -0.008314
0.373115 0.059612 -0.010627
0.414793 0.058383 -0.012922
0.456082 0.057206 -0.015201
0.496959 0.056087 -0.017463
0.537392 0.055034 -0.019706
0.577351 0.054055 -0.021930
0.616802 0.053158 -0.024133
0.655709 0.052352 -0.026316
0.694038 0.051643 -0.028475
0.731752 0.051040 -0.030611
0.768814 0.050551 -0.032722
0.805188 0.050184 -0.034806
0.840824 0.049948 -0.036863
0.875600 0.049856 -0.038885
0.909405 0.049918 -0.040869
0.942322 0.050142 -0.042819
0.974467 0.050550 -0.044746
1.005955 0.051154 -0.046656
1.036904 0.051919 -0.048553
1.067425 0.052846 -0.050444
1.097624 0.053935 -0.052335
1.127738 0.055181 -0.054238
1.159008 0.056525 -0.056221
1.190328 0.058031 -0.058225
0.023483 0.097359 0.005483
0.063634 0.095253 0.003377
0.099724 0.093360 0.001484
0.135233 0.091950 -0.000430
0.171112 0.090983 -0.002417
0.208007 0.089952 -0.004456
0.246365 0.088864 -0.006573
0.286568 0.087680 -0.008788
0.328301 0.086423 -0.011084
0.370344 0.085164 -0.013397
0.412021 0.083944 -0.015694
0.453310 0.082770 -0.017974
0.494186 0.081652 -0.020235
0.534620 0.080595 -0.022478
0.574580 0.079609 -0.024701
0.614032 0.078701 -0.026903
0.652941 0.077880 -0.029084
0.691272 0.077154 -0.031242
0.728988 0.076530 -0.033375
0.766052 0.076018 -0.035484
0.802429 0.075626 -0.037565
0.838068 0.075361 -0.039619
0.872847 0.075238 -0.041638
0.906656 0.075269 -0.043618
0.939577 0.075454 -0.045564
0.971729 0.075800 -0.047484
1.003225 0.076331 -0.049386
1.034177 0.077072 -0.051281
1.064700 0.077974 -0.053169
1.094902 0.079038 -0.055057
1.125018 0.080260 -0.056958
1.156291 0.081580 -0.058938
1.187614 0.083063 -0.060940
0.020557 0.124343 0.002556
0.060708 0.122237 0.000451
0.096798 0.120344 -0.001442
0.132356 0.118479 -0.003307
0.168267 0.117216 -0.005262
0.205158 0.116222 -0.007305
0.243515 0.115141 -0.009423
0.283716 0.113983 -0.011641
0.325445 0.112756 -0.013939
0.367486 0.111520 -0.016256
0.409160 0.110319 -0.018554
0.450448 0.109161 -0.020835
0.491323 0.108053 -0.023098
0.531756 0.107003 -0.025341
0.571716 0.106019 -0.027565
0.611168 0.105110 -0.029767
0.650078 0.104285 -0.031947
0.688409 0.103552 -0.034104
0.726126 0.102918 -0.036237
0.763192 0.102393 -0.038344
0.799570 0.101986 -0.040424
0.835212 0.101705 -0.042475
0.869992 0.101563 -0.044493
0.903804 0.101573 -0.046471
0.936727 0.101737 -0.048414
0.968881 0.102055 -0.050331
1.000383 0.102532 -0.052228
1.031343 0.103203 -0.054115
1.061867 0.104095 -0.056002
1.092070 0.105151 -0.057889
1.122187 0.106364 -0.059789
1.153461 0.107677 -0.061768
1.184784 0.109155 -0.063769
0.017521 0.152332 -0.000479
0.057673 0.150226 -0.002585
0.093763 0.148333 -0.004477
0.129321 0.146468 -0.006342
0.165300 0.144581 -0.008229
0.202205 0.143449 -0.010257
0.240558 0.142412 -0.012380
0.280757 0.141268 -0.014599
0.322484 0.140064 -0.016901
0.364520 0.138865 -0.019221
0.406192 0.137694 -0.021523
0.447477 0.136561 -0.023807
0.488350 0.135474 -0.026072
0.528781 0.134441 -0.028317
0.568739 0.133470 -0.030542
0.608190 0.132571 -0.032745
0.647099 0.131752 -0.034926
0.685430 0.131021 -0.037083
0.723147 0.130388 -0.039216
0.760213 0.129861 -0.041322
0.796592 0.129450 -0.043402
0.832234 0.129162 -0.045453
0.867016 0.129013 -0.047469
0.900828 0.129014 -0.049447
0.933752 0.129168 -0.051389
0.965908 0.129476 -0.053305
0.997412 0.129938 -0.055200
1.028376 0.130560 -0.057081
1.058907 0.131390 -0.058962
1.089110 0.132450 -0.060849
1.119226 0.133670 -0.062750
1.150499 0.134991 -0.064730
1.181821 0.136479 -0.066732
0.014354 0.181542 -0.003646
0.054505 0.179436 -0.005752
0.090595 0.177544 -0.007645
0.126153 0.175679 -0.009510
0.162132 0.173792 -0.011397
0.199125 0.171852 -0.013337
0.237474 0.170846 -0.015464
0.277668 0.169753 -0.017688
0.319393 0.168570 -0.019992
0.361427 0.167394 -0.022315
0.403094 0.166266 -0.024621
0.444374 0.165170 -0.026909
0.485244 0.164115 -0.029177
0.525672 0.163109 -0.031426
0.565627 0.162162 -0.033653
0.605076 0.161282 -0.035859
0.643984 0.160479 -0.038041
0.682314 0.159762 -0.040200
0.720029 0.159139 -0.042334
0.757095 0.158620 -0.044441
0.793472 0.158214 -0.046521
0.829114 0.157931 -0.048573
0.863896 0.157785 -0.050590
0.897708 0.157788 -0.052567
0.930632 0.157943 -0.054510
0.962787 0.158252 -0.056425
0.994291 0.158715 -0.058320
1.025256 0.159334 -0.060202
1.055792 0.160114 -0.062077
1.086000 0.161125 -0.063959
1.116115 0.162363 -0.065862
1.147385 0.163706 -0.067844
1.178705 0.165219 -0.069849
0.011029 0.212201 -0.006971
0.051180 0.210095 -0.009077
0.087270 0.208203 -0.010970
0.122828 0.206338 -0.012835
0.158808 0.204451 -0.014722
0.195801 0.202510 -0.016662
0.234243 0.200645 -0.018695
0.274429 0.199617 -0.020927
0.316148 0.198493 -0.023237
0.358179 0.197345 -0.025563
0.399843 0.196240 -0.027872
0.441119 0.195193 -0.030165
0.481983 0.194181 -0.032438
0.522407 0.193214 -0.034690
0.562359 0.192301 -0.036922
0.601805 0.191452 -0.039130
0.640709 0.190675 -0.041316
0.679037 0.189980 -0.043477
0.716750 0.189377 -0.045613
0.753814 0.188876 -0.047722
0.790190 0.188486 -0.049804
0.825830 0.188216 -0.051857
0.860610 0.188082 -0.053875
0.894421 0.188097 -0.055854
0.927344 0.188263 -0.057798
0.959498 0.188583 -0.059714
0.991000 0.189058 -0.061611
1.021964 0.189688 -0.063493
1.052500 0.190479 -0.065369
1.082714 0.191432 -0.067245
1.112832 0.192640 -0.069145
1.144098 0.194015 -0.071131
1.175414 0.195564 -0.073140
0.007522 0.244542 -0.010478
0.047673 0.242436 -0.012584
0.083763 0.240543 -0.014477
0.119321 0.238678 -0.016342
0.155300 0.236791 -0.018229
0.192293 0.234851 -0.020169
0.230752 0.232834 -0.022186
0.271019 0.231068 -0.024338
0.312729 0.230017 -0.026656
0.354753 0.228934 -0.028988
0.396414 0.227863 -0.031301
0.437686 0.226843 -0.033597
0.478545 0.225887 -0.035876
0.518964 0.224969 -0.038134
0.558911 0.224102 -0.040370
0.598352 0.223292 -0.042583
0.637252 0.222552 -0.044773
0.675576 0.221890 -0.046937
0.713287 0.221316 -0.049076
0.750347 0.220842 -0.051189
0.786721 0.220476 -0.053273
0.822358 0.220229 -0.055329
0.857136 0.220117 -0.057349
0.890945 0.220151 -0.059330
0.923865 0.220338 -0.061276
0.956018 0.220678 -0.063195
0.987518 0.221173 -0.065093
1.018479 0.221825 -0.066978
1.049012 0.222638 -0.068857
1.079224 0.223614 -0.070735
1.109349 0.224750 -0.072627
1.140618 0.226102 -0.074610
1.171932 0.227673 -0.076621
0.003807 0.278801 -0.014193
0.043958 0.276695 -0.016299
0.080048 0.274803 -0.018192
0.115606 0.272938 -0.020057
0.151585 0.271051 -0.021944
0.188578 0.269111 -0.023884
0.227037 0.267094 -0.025901
0.267341 0.264980 -0.028015
0.309114 0.263353 -0.030271
0.351129 0.262351 -0.032612
0.392782 0.261354 -0.034933
0.434051 0.260369 -0.037233
0.474906 0.259441 -0.039515
0.515319 0.258576 -0.041779
0.555261 0.257755 -0.044020
0.594698 0.256987 -0.046237
0.633594 0.256283 -0.048430
0.671915 0.255653 -0.050599
0.709622 0.255108 -0.052741
0.746680 0.254658 -0.054856
0.783051 0.254313 -0.056943
0.818687 0.254085 -0.059000
0.853463 0.253989 -0.061022
0.887270 0.254039 -0.063004
0.920189 0.254239 -0.064952
0.952340 0.254591 -0.066872
0.983839 0.255098 -0.068772
1.014799 0.255763 -0.070659
1.045330 0.256588 -0.072538
1.075541 0.257576 -0.074418
1.105665 0.258726 -0.076311
1.136945 0.259980 -0.078284
1.168271 0.261431 -0.080282
-0.000117 0.314983 -0.018117
0.040034 0.312877 -0.020223
0.076124 0.310985 -0.022116
0.111682 0.309120 -0.023981
0.147662 0.307233 -0.025868
0.184655 0.305293 -0.027808
0.223113 0.303276 -0.029825
0.263418 0.301162 -0.031939
0.305252 0.298968 -0.034133
0.347311 0.297565 -0.036431
0.388955 0.296647 -0.038760
0.430216 0.295734 -0.041068
0.471068 0.294836 -0.043353
0.511481 0.293972 -0.045617
0.551423 0.293150 -0.047858
0.590860 0.292374 -0.050075
0.629759 0.291654 -0.052266
0.668081 0.291002 -0.054432
0.705792 0.290429 -0.056571
0.742854 0.289943 -0.058682
0.779229 0.289557 -0.060765
0.814870 0.289281 -0.062817
0.849652 0.289131 -0.064833
0.883466 0.289120 -0.066809
0.916392 0.289253 -0.068749
0.948551 0.289533 -0.070662
0.980058 0.289962 -0.072553
1.011027 0.290543 -0.074430
1.041569 0.291278 -0.076300
1.071790 0.292171 -0.078170
1.101924 0.293218 -0.080052
1.133216 0.294365 -0.082013
1.164557 0.295676 -0.083996
-0.004109 0.351792 -0.022109
0.036043 0.349686 -0.024215
0.072133 0.347793 -0.026107
0.107691 0.345929 -0.027972
0.143670 0.344042 -0.029859
0.180663 0.342101 -0.031799
0.219122 0.340084 -0.033816
0.259426 0.337970 -0.035930
0.301260 0.335776 -0.038124
0.343407 0.333566 -0.040335
0.385077 0.332403 -0.042638
0.426335 0.331516 -0.044948
0.467186 0.330637 -0.047236
0.507598 0.329777 -0.049500
0.547541 0.328947 -0.051740
0.586980 0.328158 -0.053955
0.625880 0.327417 -0.056144
0.664206 0.326738 -0.058307
0.701921 0.326129 -0.060442
0.738987 0.325601 -0.062549
0.775368 0.325165 -0.064626
0.811015 0.324833 -0.066672
0.845804 0.324619 -0.068682
0.879625 0.324538 -0.070650
0.912560 0.324594 -0.072582
0.944727 0.324789 -0.074485
0.976245 0.325127 -0.076366
1.007225 0.325610 -0.078233
1.037777 0.326240 -0.080092
1.068010 0.327021 -0.081949
1.098158 0.327949 -0.083818
1.129464 0.328967 -0.085765
1.160819 0.330146 -0.087734
-0.008117 0.388754 -0.026117
0.032034 0.386648 -0.028223
0.068124 0.384755 -0.030116
0.103682 0.382891 -0.031980
0.139662 0.381004 -0.033868
0.176655 0.379063 -0.035808
0.215113 0.377046 -0.037825
0.255418 0.374933 -0.039939
0.297252 0.372738 -0.042133
0.339398 0.370528 -0.044343
0.381180 0.368337 -0.046534
0.422443 0.367407 -0.048840
0.463292 0.366543 -0.051129
0.503704 0.365690 -0.053394
0.543647 0.364858 -0.055634
0.583087 0.364058 -0.057848
0.621989 0.363302 -0.060036
0.660317 0.362598 -0.062196
0.698035 0.361958 -0.064328
0.735106 0.361392 -0.066430
0.771492 0.360910 -0.068502
0.807144 0.360525 -0.070543
0.841940 0.360251 -0.072546
0.875768 0.360103 -0.074506
0.908711 0.360084 -0.076430
0.940888 0.360198 -0.078325
0.972415 0.360447 -0.080197
1.003405 0.360834 -0.082053
1.033969 0.361361 -0.083900
1.064214 0.362032 -0.085746
1.094374 0.362843 -0.087602
1.125693 0.363737 -0.089536
1.157063 0.364782 -0.091490
-0.012132 0.425779 -0.030132
0.028019 0.423673 -0.032238
0.064109 0.421780 -0.034131
0.099667 0.419916 -0.035996
0.135647 0.418028 -0.037883
0.172640 0.416088 -0.039823
0.211098 0.414071 -0.041840
0.251403 0.411957 -0.043954
0.293237 0.409763 -0.046148
0.335383 0.407553 -0.048358
0.377165 0.405362 -0.050550
0.418546 0.403341 -0.052737
0.459393 0.402495 -0.055028
0.499804 0.401653 -0.057294
0.539746 0.400825 -0.059534
0.579187 0.400021 -0.061748
0.618091 0.399252 -0.063934
0.656421 0.398528 -0.066092
0.694142 0.397861 -0.068221
0.731216 0.397260 -0.070320
0.767606 0.396738 -0.072387
0.803264 0.396303 -0.074423
0.838066 0.395973 -0.076419
0.871901 0.395761 -0.078373
0.904852 0.395672 -0.080289
0.937037 0.395707 -0.082175
0.968573 0.395871 -0.084038
0.999573 0.396165 -0.085884
1.030148 0.396592 -0.087721
1.060405 0.397156 -0.089555
1.090578 0.397852 -0.091399
1.121909 0.398624 -0.093319
1.153294 0.399540 -0.095259
-0.016148 0.462813 -0.034148
0.024003 0.460707 -0.036254
0.060093 0.458814 -0.038147
0.095651 0.456949 -0.040012
0.131631 0.455062 -0.041899
0.168624 0.453122 -0.043839
0.207082 0.451105 -0.045856
0.247387 0.448991 -0.047970
0.289221 0.446797 -0.050164
0.331367 0.444587 -0.052374
0.373149 0.442395 -0.054566
0.414547 0.440224 -0.056737
0.455495 0.438439 -0.058926
0.495904 0.437612 -0.061194
0.535846 0.436792 -0.063435
0.575286 0.435989 -0.065649
0.614191 0.435214 -0.067834
0.652523 0.434475 -0.069991
0.690246 0.433784 -0.072117
0.727324 0.433154 -0.074212
0.763718 0.432593 -0.076276
0.799381 0.432114 -0.078306
0.834188 0.431731 -0.080297
0.868030 0.431460 -0.082244
0.900988 0.431303 -0.084153
0.933181 0.431264 -0.086031
0.964726 0.431346 -0.087885
0.995736 0.431551 -0.089722
1.026321 0.431881 -0.091548
1.056589 0.432340 -0.093370
1.086774 0.432925 -0.095202
1.118119 0.433578 -0.097110
1.149517 0.434367 -0.099036
-0.020159 0.499801 -0.038159
0.019992 0.497695 -0.040265
0.056082 0.495802 -0.042158
0.091640 0.493938 -0.044023
0.127620 0.492051 -0.045910
0.164612 0.490110 -0.047850
0.203071 0.488093 -0.049867
0.243376 0.485979 -0.051981
0.285210 0.483785 -0.054175
0.327356 0.481575 -0.056385
0.369138 0.479384 -0.058577
0.410536 0.477212 -0.060748
0.451524 0.475063 -0.062898
0.492011 0.473512 -0.065087
0.531951 0.472705 -0.067329
0.571391 0.471907 -0.069544
0.610296 0.471130 -0.071729
0.648629 0.470382 -0.073884
0.686354 0.469673 -0.076009
0.723435 0.469016 -0.078101
0.759833 0.468423 -0.080161
0.795500 0.467903 -0.082187
0.830312 0.467472 -0.084173
0.864160 0.467145 -0.086114
0.897125 0.466925 -0.088016
0.929326 0.466816 -0.089887
0.960879 0.466819 -0.091732
0.991899 0.466938 -0.093559
1.022494 0.467176 -0.095375
1.052773 0.467534 -0.097187
1.082969 0.468011 -0.099007
1.114327 0.468548 -0.100902
1.145739 0.469213 -0.102815
-0.024159 0.536690 -0.042160
0.015992 0.534584 -0.044265
0.052082 0.532691 -0.046158
0.087640 0.530827 -0.048023
0.123619 0.528940 -0.049910
0.160612 0.526999 -0.051850
0.199071 0.524982 -0.053867
0.239375 0.522869 -0.055981
0.281210 0.520675 -0.058175
0.323356 0.518464 -0.060386
0.365138 0.516273 -0.062577
0.406535 0.514102 -0.064748
0.447523 0.511952 -0.066898
0.488073 0.509825 -0.069025
0.528069 0.508509 -0.071212
0.567508 0.507721 -0.073427
0.606412 0.506946 -0.075613
0.644745 0.506195 -0.077768
0.682472 0.505473 -0.079891
0.719555 0.504795 -0.081981
0.755956 0.504172 -0.084038
0.791627 0.503616 -0.086060
0.826444 0.503141 -0.088041
0.860298 0.502762 -0.089977
0.893269 0.502484 -0.091873
0.925477 0.502309 -0.093735
0.957038 0.502239 -0.095573
0.988066 0.502276 -0.097391
1.018671 0.502424 -0.099198
1.048961 0.502686 -0.100998
1.079169 0.503058 -0.102807
1.110539 0.503482 -0.104690
1.141963 0.504027 -0.106590
-0.028143 0.573426 -0.046143
0.012008 0.571320 -0.048249
0.048098 0.569428 -0.050142
0.083656 0.567563 -0.052007
0.119635 0.565676 -0.053894
0.156628 0.563735 -0.055834
0.195087 0.561718 -0.057851
0.235392 0.559605 -0.059965
0.277226 0.557410 -0.062159
0.319372 0.555200 -0.064369
0.361154 0.553009 -0.066561
0.402552 0.550838 -0.068732
0.443540 0.548688 -0.070882
0.484089 0.546561 -0.073008
0.524170 0.544459 -0.075110
0.563641 0.543375 -0.077294
0.602545 0.542607 -0.079480
0.640878 0.541855 -0.081635
0.678605 0.541129 -0.083758
0.715690 0.540434 -0.085846
0.752094 0.539786 -0.087900
0.787769 0.539198 -0.089918
0.822590 0.538684 -0.091895
0.856448 0.538259 -0.093826
0.889425 0.537926 -0.095716
0.921640 0.537689 -0.097572
0.953209 0.537549 -0.099402
0.984246 0.537510 -0.101212
1.014860 0.537573 -0.103009
1.045159 0.537742 -0.104800
1.075378 0.538013 -0.106598
1.106760 0.538330 -0.108469
1.138197 0.538758 -0.110356
-0.032104 0.609955 -0.050105
0.008047 0.607849 -0.052210
0.044137 0.605956 -0.054103
0.079695 0.604092 -0.055968
0.115674 0.602205 -0.057855
0.152667 0.600264 -0.059795
0.191126 0.598247 -0.061812
0.231430 0.596133 -0.063926
0.273265 0.593940 -0.066120
0.315411 0.591729 -0.068331
0.357193 0.589538 -0.070522
0.398590 0.587367 -0.072693
0.439578 0.585217 -0.074843
0.480128 0.583090 -0.076970
0.520209 0.580988 -0.079072
0.559788 0.578912 -0.081147
0.598700 0.578059 -0.083325
0.637033 0.577310 -0.085480
0.674761 0.576581 -0.087602
0.711846 0.575879 -0.089690
0.748252 0.575212 -0.091742
0.783930 0.574596 -0.093757
0.818755 0.574047 -0.095730
0.852618 0.573579 -0.097656
0.885601 0.573197 -0.099541
0.917822 0.572902 -0.101391
0.949398 0.572697 -0.103213
0.980442 0.572585 -0.105016
1.011065 0.572568 -0.106804
1.041374 0.572649 -0.108586
1.071603 0.572824 -0.110373
1.102996 0.573037 -0.112233
1.134445 0.573354 -0.114108
-0.036037 0.646223 -0.054038
0.004114 0.644118 -0.056143
0.040204 0.642225 -0.058036
0.075762 0.640360 -0.059901
0.111741 0.638473 -0.061788
0.148734 0.636533 -0.063728
0.187193 0.634516 -0.065745
0.227497 0.632402 -0.067859
0.269332 0.630208 -0.070053
0.311478 0.627997 -0.072264
0.353260 0.625806 -0.074455
0.394657 0.623635 -0.076626
0.435645 0.621485 -0.078776
0.476195 0.619358 -0.080903
0.516276 0.617256 -0.083005
0.555854 0.615180 -0.085081
0.594884 0.613249 -0.087141
0.633217 0.612507 -0.089297
0.670944 0.611778 -0.091419
0.708030 0.611072 -0.093506
0.744437 0.610393 -0.095557
0.780117 0.609754 -0.097570
0.814946 0.609174 -0.099539
0.848813 0.608669 -0.101462
0.881800 0.608242 -0.103341
0.914027 0.607894 -0.105185
0.945609 0.607629 -0.107002
0.976661 0.607449 -0.108796
1.007292 0.607356 -0.110577
1.037610 0.607353 -0.112349
1.067850 0.607437 -0.114127
1.099253 0.607551 -0.115976
1.130714 0.607760 -0.117839
-0.039936 0.682177 -0.057937
0.000215 0.680071 -0.060042
0.036305 0.678178 -0.061935
0.071863 0.676313 -0.063800
0.107842 0.674426 -0.065687
0.144835 0.672486 -0.067627
0.183294 0.670469 -0.069644
0.223598 0.668355 -0.071758
0.265433 0.666161 -0.073952
0.307579 0.663951 -0.076163
0.349361 0.661759 -0.078354
0.390758 0.659588 -0.080525
0.431746 0.657438 -0.082675
0.472296 0.655312 -0.084802
0.512377 0.653210 -0.086904
0.551956 0.651134 -0.088979
0.590998 0.649086 -0.091027
0.629434 0.647391 -0.093080
0.667161 0.646666 -0.095202
0.704247 0.645957 -0.097289
0.740654 0.645275 -0.099340
0.776337 0.644617 -0.101350
0.811168 0.644012 -0.103317
0.845039 0.643473 -0.105236
0.878030 0.643005 -0.107111
0.910262 0.642610 -0.108950
0.941851 0.642289 -0.110760
0.972909 0.642046 -0.112548
1.003548 0.641882 -0.114321
1.033875 0.641801 -0.116085
1.064124 0.641798 -0.117853
1.095537 0.641817 -0.119692
1.127009 0.641924 -0.121544
-0.043795 0.717762 -0.061795
-0.003644 0.715656 -0.063901
0.032446 0.713763 -0.065794
0.068004 0.711898 -0.067659
0.103983 0.710011 -0.069546
0.140976 0.708071 -0.071486
0.179435 0.706054 -0.073503
0.219739 0.703940 -0.075617
0.261574 0.701746 -0.077811
0.303720 0.699536 -0.080022
0.345502 0.697344 -0.082213
0.386899 0.695173 -0.084384
0.427887 0.693024 -0.086534
0.468437 0.690897 -0.088661
0.508518 0.688795 -0.090763
0.548097 0.686719 -0.092838
0.587139 0.684671 -0.094886
0.625610 0.682654 -0.096904
0.663417 0.681191 -0.098946
0.700503 0.680483 -0.101033
0.736911 0.679796 -0.103083
0.772594 0.679133 -0.105093
0.807427 0.678505 -0.107058
0.841301 0.677938 -0.108973
0.874297 0.677433 -0.110844
0.906533 0.676995 -0.112679
0.938128 0.676623 -0.114483
0.969193 0.676321 -0.116265
0.999838 0.676092 -0.118030
1.030173 0.675937 -0.119786
1.060431 0.675853 -0.121546
1.091854 0.675782 -0.123375
1.123337 0.675792 -0.125217
-0.047608 0.752924 -0.065609
-0.007457 0.750818 -0.067714
0.028633 0.748926 -0.069607
0.064191 0.747061 -0.071472
0.100170 0.745174 -0.073359
0.137163 0.743233 -0.075299
0.175622 0.741216 -0.077316
0.215926 0.739103 -0.079430
0.257761 0.736909 -0.081624
0.299907 0.734698 -0.083835
0.341689 0.732507 -0.086026
0.383086 0.730336 -0.088197
0.424074 0.728186 -0.090347
0.464624 0.726059 -0.092474
0.504705 0.723957 -0.094576
0.544284 0.721881 -0.096651
0.583326 0.719834 -0.098699
0.621797 0.717816 -0.100717
0.659660 0.715830 -0.102703
0.696803 0.714596 -0.104733
0.733212 0.713906 -0.106782
0.768895 0.713240 -0.108792
0.803730 0.712599 -0.110755
0.837607 0.712007 -0.112668
0.870606 0.711471 -0.114536
0.902847 0.710993 -0.116366
0.934446 0.710576 -0.118165
0.965516 0.710220 -0.119941
0.996169 0.709930 -0.121700
1.026511 0.709706 -0.123448
1.056777 0.709545 -0.125199
1.088209 0.709390 -0.127019
1.119702 0.709307 -0.128851
-0.051370 0.787610 -0.069370
-0.011219 0.785504 -0.071476
0.024871 0.783612 -0.073369
0.060429 0.781747 -0.075233
0.096409 0.779860 -0.077121
0.133402 0.777919 -0.079061
0.171860 0.775902 -0.081078
0.212165 0.773788 -0.083192
0.253999 0.771594 -0.085386
0.296145 0.769384 -0.087596
0.337927 0.767192 -0.089787
0.379325 0.765021 -0.091959
0.420313 0.762872 -0.094108
0.460863 0.760745 -0.096235
0.500944 0.758643 -0.098337
0.540522 0.756567 -0.100413
0.579564 0.754519 -0.102461
0.618035 0.752502 -0.104478
0.655899 0.750516 -0.106464
0.693120 0.748564 -0.108416
0.729563 0.747554 -0.110431
0.765247 0.746882 -0.112440
0.800082 0.746240 -0.114403
0.833961 0.745626 -0.116314
0.866963 0.745062 -0.118178
0.899208 0.744549 -0.120005
0.930811 0.744089 -0.121800
0.961888 0.743684 -0.123570
0.992546 0.743337 -0.125323
1.022895 0.743049 -0.127064
1.053169 0.742816 -0.128807
1.084610 0.742581 -0.130619
1.116112 0.742410 -0.132441
-0.055072 0.821749 -0.073072
-0.014921 0.819643 -0.075178
0.021169 0.817750 -0.077071
0.056727 0.815885 -0.078936
0.092707 0.813998 -0.080823
0.129700 0.812058 -0.082763
0.168158 0.810041 -0.084780
0.208463 0.807927 -0.086894
0.250297 0.805733 -0.089088
0.292443 0.803523 -0.091298
0.334225 0.801331 -0.093489
0.375623 0.799160 -0.095661
0.416611 0.797010 -0.097810
0.457161 0.794884 -0.099937
0.497241 0.792782 -0.102039
0.536820 0.790706 -0.104115
0.575862 0.788658 -0.106163
0.614333 0.786641 -0.108180
0.652197 0.784655 -0.110166
0.689418 0.782703 -0.112118
0.725959 0.780786 -0.114035
0.761656 0.779994 -0.116031
0.796492 0.779346 -0.117993
0.830372 0.778721 -0.119902
0.863377 0.778126 -0.121764
0.895626 0.777576 -0.123586
0.927235 0.777072 -0.125376
0.958316 0.776616 -0.127141
0.988981 0.776209 -0.128888
1.019338 0.775855 -0.130622
1.049619 0.775548 -0.132357
1.081069 0.775231 -0.134159
1.112581 0.774970 -0.135972
-0.058691 0.855119 -0.076691
-0.018539 0.853013 -0.078797
0.017551 0.851120 -0.080689
0.053108 0.849255 -0.082554
0.089088 0.847368 -0.084441
0.126081 0.845428 -0.086381
0.164540 0.843411 -0.088399
0.204844 0.841297 -0.090512
0.246678 0.839103 -0.092706
0.288824 0.836893 -0.094917
0.330607 0.834701 -0.097108
0.372004 0.832530 -0.099279
0.412992 0.830380 -0.101429
0.453542 0.828254 -0.103556
0.493623 0.826152 -0.105658
0.533201 0.824076 -0.107734
0.572244 0.822028 -0.109781
0.610714 0.820010 -0.111799
0.648578 0.818025 -0.113785
0.685799 0.816073 -0.115737
0.722340 0.814156 -0.117653
0.758147 0.812355 -0.119540
0.792984 0.811695 -0.121501
0.826864 0.811067 -0.123410
0.859872 0.810449 -0.125269
0.892124 0.809869 -0.127088
0.923737 0.809328 -0.128874
0.954823 0.808827 -0.130634
0.985494 0.808370 -0.132375
1.015856 0.807957 -0.134103
1.046145 0.807584 -0.135831
