vendor/ColorGradr/colorgradr.ofx.bundle/Contents/Resources/Cubes/Cold_Fix_1.cube
TITLE "Generated by Resolve"
LUT_3D_SIZE 33
0 0 0
0.0394141 0 0
0.0788586 0 0
0.118303 0 0
0.157733 0 0
0.197177 0 0
0.236606 0 0
0.276051 0 0
0.31548 0 0
0.354925 0 0
0.394369 0 0
0.433799 0 0
0.473243 0 0
0.512673 0 0
0.552117 0 0
0.591562 0 0
0.630991 0 0
0.670436 0 0
0.709865 0 0
0.74931 0 0
0.788754 0 0
0.828183 0 0
0.867628 0 0
0.907057 0 0
0.946502 0 0
0.985946 0 0
1 0 0
1 0 0
1 0 0
1 0 0
1 0 0
1 0 0
1 0 0
0 0.0312352 0
0.0394141 0.0291142 0
0.0788586 0.0269932 0
0.118303 0.0248569 0
0.157733 0.0227359 0
0.197177 0.0206149 0
0.236606 0.0184939 0
0.276051 0.0163577 0
0.31548 0.0142367 0
0.354925 0.0121157 0
0.394369 0.00999466 0
0.433799 0.0078584 0
0.473243 0.00573739 0
0.512673 0.00361639 0
0.552117 0.00149538 0
0.591562 0 0
0.630991 0 0
0.670436 0 0
0.709865 0 0
0.74931 0 0
0.788754 0 0
0.828183 0 0
0.867628 0 0
0.907057 0 0
0.946502 0 0
0.985946 0 0
1 0 0
1 0 0
1 0 0
1 0 0
1 0 0
1 0 0
1 0 0
0 0.0624857 0
0.0394141 0.0603647 0
0.0788586 0.0582437 0
0.118303 0.0561074 0
0.157733 0.0539864 0
0.197177 0.0518654 0
0.236606 0.0497444 0
0.276051 0.0476081 0
0.31548 0.0454871 0
0.354925 0.0433661 0
0.394369 0.0412451 0
0.433799 0.0391089 0
0.473243 0.0369879 0
0.512673 0.0348669 0
0.552117 0.0327459 0
0.591562 0.0306096 0
0.630991 0.0284886 0
0.670436 0.0263676 0
0.709865 0.0242466 0
0.74931 0.0221103 0
0.788754 0.0199893 0
0.828183 0.0178683 0
0.867628 0.0157473 0
0.907057 0.013611 0
0.946502 0.01149 0
0.985946 0.00936904 0
1 0.00724804 0
1 0.00511177 0
1 0.00299077 0
1 0.000869764 0
1 0 0
1 0 0
1 0 0
0 0.0937362 0
0.0394141 0.0916152 0
0.0788586 0.0894942 0
0.118303 0.0873579 0
0.157733 0.0852369 0
0.197177 0.0831159 0
0.236606 0.0809949 0
0.276051 0.0788586 0
0.31548 0.0767376 0
0.354925 0.0746166 0
0.394369 0.0724956 0
0.433799 0.0703593 0
0.473243 0.0682383 0
0.512673 0.0661173 0
0.552117 0.0639963 0
0.591562 0.0618601 0
0.630991 0.0597391 0
0.670436 0.0576181 0
0.709865 0.0554971 0
0.74931 0.0533608 0
0.788754 0.0512398 0
0.828183 0.0491188 0
0.867628 0.0469978 0
0.907057 0.0448615 0
0.946502 0.0427405 0
0.985946 0.0406195 0
1 0.0384985 0
1 0.0363622 0
1 0.0342412 0
1 0.0321202 0
1 0.0299992 0
1 0.027863 0
1 0.025742 0
0 0.124987 0
0.0394141 0.122866 0
0.0788586 0.120745 0
0.118303 0.118608 0
0.157733 0.116487 0
0.197177 0.114366 0
0.236606 0.112245 0
0.276051 0.110109 0
0.31548 0.107988 0
0.354925 0.105867 0
0.394369 0.103746 0
0.433799 0.10161 0
0.473243 0.0994888 0
0.512673 0.0973678 0
0.552117 0.0952468 0
0.591562 0.0931106 0
0.630991 0.0909895 0
0.670436 0.0888685 0
0.709865 0.0867475 0
0.74931 0.0846113 0
0.788754 0.0824903 0
0.828183 0.0803693 0
0.867628 0.0782483 0
0.907057 0.076112 0
0.946502 0.073991 0
0.985946 0.07187 0
1 0.069749 0
1 0.0676127 0
1 0.0654917 0
1 0.0633707 0
1 0.0612497 0
1 0.0591135 0
1 0.0569924 0
0 0.156237 0
0.0394141 0.154116 0
0.0788586 0.151995 0
0.118303 0.149859 0
0.157733 0.147738 0
0.197177 0.145617 0
0.236606 0.143496 0
0.276051 0.14136 0
0.31548 0.139239 0
0.354925 0.137118 0
0.394369 0.134997 0
0.433799 0.13286 0
0.473243 0.130739 0
0.512673 0.128618 0
0.552117 0.126497 0
0.591562 0.124361 0
0.630991 0.12224 0
0.670436 0.120119 0
0.709865 0.117998 0
0.74931 0.115862 0
0.788754 0.113741 0
0.828183 0.11162 0
0.867628 0.109499 0
0.907057 0.107362 0
0.946502 0.105241 0
0.985946 0.10312 0
1 0.100999 0
1 0.0988632 0
1 0.0967422 0
1 0.0946212 0
1 0.0925002 0
1 0.0903639 0
1 0.0882429 0
0 0.187488 0
0.0394141 0.185367 0
0.0788586 0.183246 0
0.118303 0.181109 0
0.157733 0.178988 0
0.197177 0.176867 0
0.236606 0.174746 0
0.276051 0.17261 0
0.31548 0.170489 0
0.354925 0.168368 0
0.394369 0.166247 0
0.433799 0.164111 0
0.473243 0.16199 0
0.512673 0.159869 0
0.552117 0.157748 0
0.591562 0.155612 0
0.630991 0.15349 0
0.670436 0.151369 0
0.709865 0.149248 0
0.74931 0.147112 0
0.788754 0.144991 0
0.828183 0.14287 0
0.867628 0.140749 0
0.907057 0.138613 0
0.946502 0.136492 0
0.985946 0.134371 0
1 0.13225 0
1 0.130114 0
1 0.127993 0
1 0.125872 0
1 0.123751 0
1 0.121614 0
1 0.119493 0
0 0.218738 0
0.0394141 0.216617 0
0.0788586 0.214496 0
0.118303 0.21236 0
0.157733 0.210239 0
0.197177 0.208118 0
0.236606 0.205997 0
0.276051 0.203861 0
0.31548 0.20174 0
0.354925 0.199619 0
0.394369 0.197498 0
0.433799 0.195361 0
0.473243 0.19324 0
0.512673 0.191119 0
0.552117 0.188998 0
0.591562 0.186862 0
0.630991 0.184741 0
0.670436 0.18262 0
0.709865 0.180499 0
0.74931 0.178363 0
0.788754 0.176242 0
0.828183 0.174121 0
0.867628 0.172 0
0.907057 0.169863 0
0.946502 0.167742 0
0.985946 0.165621 0
1 0.1635 0
1 0.161364 0
1 0.159243 0
1 0.157122 0
1 0.155001 0
1 0.152865 0
1 0.150744 0
0 0.249989 0
0.0394141 0.247868 0
0.0788586 0.245747 0
0.118303 0.24361 0
0.157733 0.241489 0
0.197177 0.239368 0
0.236606 0.237247 0
0.276051 0.235111 0
0.31548 0.23299 0
0.354925 0.230869 0
0.394369 0.228748 0
0.433799 0.226612 0
0.473243 0.224491 0
0.512673 0.22237 0
0.552117 0.220249 0
0.591562 0.218112 0
0.630991 0.215991 0
0.670436 0.21387 0
0.709865 0.211749 0
0.74931 0.209613 0
0.788754 0.207492 0
0.828183 0.205371 0
0.867628 0.20325 0
0.907057 0.201114 0
0.946502 0.198993 0
0.985946 0.196872 0
1 0.194751 0
1 0.192615 0
1 0.190494 0
1 0.188373 0
1 0.186252 0
1 0.184115 0
1 0.181994 0
0 0.281239 0
0.0394141 0.279118 0
0.0788586 0.276997 0
0.118303 0.274861 0
0.157733 0.27274 0
0.197177 0.270619 0
0.236606 0.268498 0
0.276051 0.266361 0
0.31548 0.26424 0
0.354925 0.262119 0
0.394369 0.259998 0
0.433799 0.257862 0
0.473243 0.255741 0
0.512673 0.25362 0
0.552117 0.251499 0
0.591562 0.249363 0
0.630991 0.247242 0
0.670436 0.245121 0
0.709865 0.243 0
0.74931 0.240864 0
0.788754 0.238743 0
0.828183 0.236622 0
0.867628 0.234501 0
0.907057 0.232364 0
0.946502 0.230243 0
0.985946 0.228122 0
1 0.226001 0
1 0.223865 0
1 0.221744 0
1 0.219623 0
1 0.217502 0
1 0.215366 0
1 0.213245 0
0 0.31249 0
0.0394141 0.310369 0
0.0788586 0.308248 0
0.118303 0.306111 0
0.157733 0.30399 0
0.197177 0.301869 0
0.236606 0.299748 0
0.276051 0.297612 0
0.31548 0.295491 0
0.354925 0.29337 0
0.394369 0.291249 0
0.433799 0.289113 0
0.473243 0.286992 0
0.512673 0.284871 0
0.552117 0.28275 0
0.591562 0.280613 0
0.630991 0.278492 0
0.670436 0.276371 0
0.709865 0.27425 0
0.74931 0.272114 0
0.788754 0.269993 0
0.828183 0.267872 0
0.867628 0.265751 0
0.907057 0.263615 0
0.946502 0.261494 0
0.985946 0.259373 0
1 0.257252 0
1 0.255116 0
1 0.252995 0
1 0.250874 0
1 0.248753 0
1 0.246616 0
1 0.244495 0
0 0.34374 0
0.0394141 0.341619 0
0.0788586 0.339498 0
0.118303 0.337362 0
0.157733 0.335241 0
0.197177 0.33312 0
0.236606 0.330999 0
0.276051 0.328862 0
0.31548 0.326741 0
0.354925 0.32462 0
0.394369 0.322499 0
0.433799 0.320363 0
0.473243 0.318242 0
0.512673 0.316121 0
0.552117 0.314 0
0.591562 0.311864 0
0.630991 0.309743 0
0.670436 0.307622 0
0.709865 0.305501 0
0.74931 0.303365 0
0.788754 0.301244 0
0.828183 0.299123 0
0.867628 0.297002 0
0.907057 0.294865 0
0.946502 0.292744 0
0.985946 0.290623 0
1 0.288502 0
1 0.286366 0
1 0.284245 0
1 0.282124 0
1 0.280003 0
1 0.277867 0
1 0.275746 0
0 0.37499 0
0.0394141 0.372869 0
0.0788586 0.370748 0
0.118303 0.368612 0
0.157733 0.366491 0
0.197177 0.36437 0
0.236606 0.362249 0
0.276051 0.360113 0
0.31548 0.357992 0
0.354925 0.355871 0
0.394369 0.35375 0
0.433799 0.351614 0
0.473243 0.349493 0
0.512673 0.347372 0
0.552117 0.345251 0
0.591562 0.343114 0
0.630991 0.340993 0
0.670436 0.338872 0
0.709865 0.336751 0
0.74931 0.334615 0
0.788754 0.332494 0
0.828183 0.330373 0
0.867628 0.328252 0
0.907057 0.326116 0
0.946502 0.323995 0
0.985946 0.321874 0
1 0.319753 0
1 0.317617 0
1 0.315496 0
1 0.313375 0
1 0.311254 0
1 0.309117 0
1 0.306996 0
0 0.406241 0
0.0394141 0.40412 0
0.0788586 0.401999 0
0.118303 0.399863 0
0.157733 0.397742 0
0.197177 0.395621 0
0.236606 0.3935 0
0.276051 0.391363 0
0.31548 0.389242 0
0.354925 0.387121 0
0.394369 0.385 0
0.433799 0.382864 0
0.473243 0.380743 0
0.512673 0.378622 0
0.552117 0.376501 0
0.591562 0.374365 0
0.630991 0.372244 0
0.670436 0.370123 0
0.709865 0.368002 0
0.74931 0.365866 0
0.788754 0.363745 0
0.828183 0.361624 0
0.867628 0.359503 0
0.907057 0.357366 0
0.946502 0.355245 0
0.985946 0.353124 0
1 0.351003 0
1 0.348867 0
1 0.346746 0
1 0.344625 0
1 0.342504 0
1 0.340368 0
1 0.338247 0
0 0.437491 0
0.0394141 0.43537 0
0.0788586 0.433249 0
0.118303 0.431113 0
0.157733 0.428992 0
0.197177 0.426871 0
0.236606 0.42475 0
0.276051 0.422614 0
0.31548 0.420493 0
0.354925 0.418372 0
0.394369 0.416251 0
0.433799 0.414115 0
0.473243 0.411994 0
0.512673 0.409873 0
0.552117 0.407752 0
0.591562 0.405615 0
0.630991 0.403494 0
0.670436 0.401373 0
0.709865 0.399252 0
0.74931 0.397116 0
0.788754 0.394995 0
0.828183 0.392874 0
0.867628 0.390753 0
0.907057 0.388617 0
0.946502 0.386496 0
0.985946 0.384375 0
1 0.382254 0
1 0.380118 0
1 0.377997 0
1 0.375875 0
1 0.373754 0
1 0.371618 0
1 0.369497 0
0 0.468742 0
0.0394141 0.466621 0
0.0788586 0.4645 0
0.118303 0.462364 0
0.157733 0.460243 0
0.197177 0.458122 0
0.236606 0.456001 0
0.276051 0.453864 0
0.31548 0.451743 0
0.354925 0.449622 0
0.394369 0.447501 0
0.433799 0.445365 0
0.473243 0.443244 0
0.512673 0.441123 0
0.552117 0.439002 0
0.591562 0.436866 0
0.630991 0.434745 0
0.670436 0.432624 0
0.709865 0.430503 0
0.74931 0.428367 0
0.788754 0.426246 0
0.828183 0.424125 0
0.867628 0.422004 0
0.907057 0.419867 0
0.946502 0.417746 0
0.985946 0.415625 0
1 0.413504 0
1 0.411368 0
1 0.409247 0
1 0.407126 0
1 0.405005 0
1 0.402869 0
1 0.400748 0
0 0.499992 0
0.0394141 0.497871 0
0.0788586 0.49575 0
0.118303 0.493614 0
0.157733 0.491493 0
0.197177 0.489372 0
0.236606 0.487251 0
0.276051 0.485115 0
0.31548 0.482994 0
0.354925 0.480873 0
0.394369 0.478752 0
0.433799 0.476616 0
0.473243 0.474495 0
0.512673 0.472374 0
0.552117 0.470253 0
0.591562 0.468116 0
0.630991 0.465995 0
0.670436 0.463874 0
0.709865 0.461753 0
0.74931 0.459617 0
0.788754 0.457496 0
0.828183 0.455375 0
0.867628 0.453254 0
0.907057 0.451118 0
0.946502 0.448997 0
0.985946 0.446876 0
1 0.444755 0
1 0.442618 0
1 0.440497 0
1 0.438376 0
1 0.436255 0
1 0.434119 0
1 0.431998 0
0 0.531243 0
0.0394141 0.529122 0
0.0788586 0.527001 0
0.118303 0.524865 0
0.157733 0.522744 0
0.197177 0.520623 0
0.236606 0.518502 0
0.276051 0.516365 0
0.31548 0.514244 0
0.354925 0.512123 0
0.394369 0.510002 0
0.433799 0.507866 0
0.473243 0.505745 0
0.512673 0.503624 0
0.552117 0.501503 0
0.591562 0.499367 0
0.630991 0.497246 0
0.670436 0.495125 0
0.709865 0.493004 0
0.74931 0.490867 0
0.788754 0.488746 0
0.828183 0.486625 0
0.867628 0.484504 0
0.907057 0.482368 0
0.946502 0.480247 0
0.985946 0.478126 0
1 0.476005 0
1 0.473869 0
1 0.471748 0
1 0.469627 0
1 0.467506 0
1 0.46537 0
1 0.463249 0
0 0.562493 0
0.0394141 0.560372 0
0.0788586 0.558251 0
0.118303 0.556115 0
0.157733 0.553994 0
0.197177 0.551873 0
0.236606 0.549752 0
0.276051 0.547616 0
0.31548 0.545495 0
0.354925 0.543374 0
0.394369 0.541253 0
0.433799 0.539117 0
0.473243 0.536995 0
0.512673 0.534874 0
0.552117 0.532753 0
0.591562 0.530617 0
0.630991 0.528496 0
0.670436 0.526375 0
0.709865 0.524254 0
0.74931 0.522118 0
0.788754 0.519997 0
0.828183 0.517876 0
0.867628 0.515755 0
0.907057 0.513619 0
0.946502 0.511498 0
0.985946 0.509377 0
1 0.507256 0
1 0.505119 0
1 0.502998 0
1 0.500877 0
1 0.498756 0
1 0.49662 0
1 0.494499 0
0 0.593744 0
0.0394141 0.591623 0
0.0788586 0.589502 0
0.118303 0.587366 0
0.157733 0.585245 0
0.197177 0.583124 0
0.236606 0.581003 0
0.276051 0.578866 0
0.31548 0.576745 0
0.354925 0.574624 0
0.394369 0.572503 0
0.433799 0.570367 0
0.473243 0.568246 0
0.512673 0.566125 0
0.552117 0.564004 0
0.591562 0.561868 0
0.630991 0.559747 0
0.670436 0.557626 0
0.709865 0.555505 0
0.74931 0.553368 0
0.788754 0.551247 0
0.828183 0.549126 0
0.867628 0.547005 0
0.907057 0.544869 0
0.946502 0.542748 0
0.985946 0.540627 0
1 0.538506 0
1 0.53637 0
1 0.534249 0
1 0.532128 0
1 0.530007 0
1 0.527871 0
1 0.52575 0
0 0.624994 0
0.0394141 0.622873 0
0.0788586 0.620752 0
0.118303 0.618616 0
0.157733 0.616495 0
0.197177 0.614374 0
0.236606 0.612253 0
0.276051 0.610117 0
0.31548 0.607996 0
0.354925 0.605875 0
0.394369 0.603754 0
0.433799 0.601617 0
0.473243 0.599496 0
0.512673 0.597375 0
0.552117 0.595254 0
0.591562 0.593118 0
0.630991 0.590997 0
0.670436 0.588876 0
0.709865 0.586755 0
0.74931 0.584619 0
0.788754 0.582498 0
0.828183 0.580377 0
0.867628 0.578256 0
0.907057 0.57612 0
0.946502 0.573999 0
0.985946 0.571878 0
1 0.569757 0
1 0.56762 0
1 0.565499 0
1 0.563378 0
1 0.561257 0
1 0.559121 0
1 0.557 0
0 0.656245 0
0.0394141 0.654124 0
0.0788586 0.652003 0
0.118303 0.649866 0
0.157733 0.647745 0
0.197177 0.645624 0
0.236606 0.643503 0
0.276051 0.641367 0
0.31548 0.639246 0
0.354925 0.637125 0
0.394369 0.635004 0
0.433799 0.632868 0
0.473243 0.630747 0
0.512673 0.628626 0
0.552117 0.626505 0
0.591562 0.624369 0
0.630991 0.622248 0
0.670436 0.620127 0
0.709865 0.618006 0
0.74931 0.615869 0
0.788754 0.613748 0
0.828183 0.611627 0
0.867628 0.609506 0
0.907057 0.60737 0
0.946502 0.605249 0
0.985946 0.603128 0
1 0.601007 0
1 0.598871 0
1 0.59675 0
1 0.594629 0
1 0.592508 0
1 0.590372 0
1 0.588251 0
0 0.687495 0
0.0394141 0.685374 0
0.0788586 0.683253 0
0.118303 0.681117 0
0.157733 0.678996 0
0.197177 0.676875 0
0.236606 0.674754 0
0.276051 0.672618 0
0.31548 0.670497 0
0.354925 0.668376 0
0.394369 0.666255 0
0.433799 0.664118 0
0.473243 0.661997 0
0.512673 0.659876 0
0.552117 0.657755 0
0.591562 0.655619 0
0.630991 0.653498 0
0.670436 0.651377 0
0.709865 0.649256 0
0.74931 0.64712 0
0.788754 0.644999 0
0.828183 0.642878 0
0.867628 0.640757 0
0.907057 0.638621 0
0.946502 0.6365 0
0.985946 0.634379 0
1 0.632258 0
1 0.630121 0
1 0.628 0
1 0.625879 0
1 0.623758 0
1 0.621622 0
1 0.619501 0
0 0.718746 0
0.0394141 0.716625 0
0.0788586 0.714504 0
0.118303 0.712367 0
0.157733 0.710246 0
0.197177 0.708125 0
0.236606 0.706004 0
0.276051 0.703868 0
0.31548 0.701747 0
0.354925 0.699626 0
0.394369 0.697505 0
0.433799 0.695369 0
0.473243 0.693248 0
0.512673 0.691127 0
0.552117 0.689006 0
0.591562 0.68687 0
0.630991 0.684749 0
0.670436 0.682628 0
0.709865 0.680507 0
0.74931 0.67837 0
0.788754 0.676249 0
0.828183 0.674128 0
0.867628 0.672007 0
0.907057 0.669871 0
0.946502 0.66775 0
0.985946 0.665629 0
1 0.663508 0
1 0.661372 0
1 0.659251 0
1 0.65713 0
1 0.655009 0
1 0.652873 0
1 0.650752 0
0 0.749996 0
0.0394141 0.747875 0
0.0788586 0.745754 0
0.118303 0.743618 0
0.157733 0.741497 0
0.197177 0.739376 0
0.236606 0.737255 0
0.276051 0.735119 0
0.31548 0.732998 0
0.354925 0.730877 0
0.394369 0.728756 0
0.433799 0.726619 0
0.473243 0.724498 0
0.512673 0.722377 0
0.552117 0.720256 0
0.591562 0.71812 0
0.630991 0.715999 0
0.670436 0.713878 0
0.709865 0.711757 0
0.74931 0.709621 0
0.788754 0.7075 0
0.828183 0.705379 0
0.867628 0.703258 0
0.907057 0.701122 0
0.946502 0.699001 0
0.985946 0.69688 0
1 0.694759 0
1 0.692622 0
1 0.690501 0
1 0.68838 0
1 0.686259 0
1 0.684123 0
1 0.682002 0
0 0.781247 0
0.0394141 0.779126 0
0.0788586 0.777005 0
0.118303 0.774868 0
0.157733 0.772747 0
0.197177 0.770626 0
0.236606 0.768505 0
0.276051 0.766369 0
0.31548 0.764248 0
0.354925 0.762127 0
0.394369 0.760006 0
0.433799 0.75787 0
0.473243 0.755749 0
0.512673 0.753628 0
0.552117 0.751507 0
0.591562 0.749371 0
0.630991 0.74725 0
0.670436 0.745129 0
0.709865 0.743008 0
0.74931 0.740871 0
0.788754 0.73875 0
0.828183 0.736629 0
0.867628 0.734508 0
0.907057 0.732372 0
0.946502 0.730251 0
0.985946 0.72813 0
1 0.726009 0
1 0.723873 0
1 0.721752 0
1 0.719631 0
1 0.71751 0
1 0.715373 0
1 0.713252 0
0 0.812497 0
0.0394141 0.810376 0
0.0788586 0.808255 0
0.118303 0.806119 0
0.157733 0.803998 0
0.197177 0.801877 0
0.236606 0.799756 0
0.276051 0.79762 0
0.31548 0.795499 0
0.354925 0.793378 0
0.394369 0.791257 0
0.433799 0.78912 0
0.473243 0.786999 0
0.512673 0.784878 0
0.552117 0.782757 0
0.591562 0.780621 0
0.630991 0.7785 0
0.670436 0.776379 0
0.709865 0.774258 0
0.74931 0.772122 0
0.788754 0.770001 0
0.828183 0.76788 0
0.867628 0.765759 0
0.907057 0.763622 0
0.946502 0.761501 0
0.985946 0.75938 0
1 0.757259 0
1 0.755123 0
1 0.753002 0
1 0.750881 0
1 0.74876 0
1 0.746624 0
1 0.744503 0
0 0.843748 0
0.0394141 0.841627 0
0.0788586 0.839506 0
0.118303 0.837369 0
0.157733 0.835248 0
0.197177 0.833127 0
0.236606 0.831006 0
0.276051 0.82887 0
0.31548 0.826749 0
