vendor/ColorGradr/colorgradr.ofx.bundle/Contents/Resources/Cubes/Cold_Fix_1.cube
TITLE "Generated by Resolve"
LUT_3D_SIZE 9
0 0 0
0.157733 0 0
0.31548 0 0
0.473243 0 0
0.630991 0 0
0.788754 0 0
0.946502 0 0
1 0 0
1 0 0
0 0.124987 0
0.157733 0.116487 0
0.31548 0.107988 0
0.473243 0.0994888 0
0.630991 0.0909895 0
0.788754 0.0824903 0
0.946502 0.073991 0
1 0.0654917 0
1 0.0569924 0
0 0.249989 0
0.157733 0.241489 0
0.31548 0.23299 0
0.473243 0.224491 0
0.630991 0.215991 0
0.788754 0.207492 0
0.946502 0.198993 0
1 0.190494 0
1 0.181994 0
0 0.37499 0
0.157733 0.366491 0
0.31548 0.357992 0
0.473243 0.349493 0
0.630991 0.340993 0
0.788754 0.332494 0
0.946502 0.323995 0
1 0.315496 0
1 0.306996 0
0 0.499992 0
0.157733 0.491493 0
0.31548 0.482994 0
0.473243 0.474495 0
0.630991 0.465995 0
0.788754 0.457496 0
0.946502 0.448997 0
1 0.440497 0
1 0.431998 0
0 0.624994 0
0.157733 0.616495 0
0.31548 0.607996 0
0.473243 0.599496 0
0.630991 0.590997 0
0.788754 0.582498 0
0.946502 0.573999 0
1 0.565499 0
1 0.557 0
0 0.749996 0
0.157733 0.741497 0
0.31548 0.732998 0
0.473243 0.724498 0
0.630991 0.715999 0
0.788754 0.7075 0
0.946502 0.699001 0
1 0.690501 0
1 0.682002 0
0 0.874998 0
0.157733 0.866499 0
0.31548 0.858 0
0.473243 0.8495 0
0.630991 0.841001 0
0.788754 0.832502 0
0.946502 0.824002 0
1 0.815503 0
1 0.807004 0
0 1 0
0.157733 0.991501 0
0.31548 0.983001 0
0.473243 0.974502 0
0.630991 0.966003 0
0.788754 0.957504 0
0.946502 0.949004 0
1 0.940505 0
1 0.932006 0
0 0.00323491 0.0982223
0.155962 0 0.0859693
0.31371 0 0.0737163
0.471473 0 0.0614786
0.629221 0 0.0492256
0.786984 0 0.0369726
0.944732 0 0.0247196
1 0 0.0124819
1 0 0.000228885
0 0.128222 0.0982223
0.155962 0.119722 0.0859693
0.31371 0.111223 0.0737163
0.471473 0.102724 0.0614786
0.629221 0.0942245 0.0492256
0.786984 0.0857252 0.0369726
0.944732 0.0772259 0.0247196
1 0.0687266 0.0124819
1 0.0602274 0.000228885
0 0.253223 0.0982223
0.155962 0.244724 0.0859693
0.31371 0.236225 0.0737163
0.471473 0.227726 0.0614786
0.629221 0.219226 0.0492256
0.786984 0.210727 0.0369726
0.944732 0.202228 0.0247196
1 0.193729 0.0124819
1 0.185229 0.000228885
0 0.378225 0.0982223
0.155962 0.369726 0.0859693
0.31371 0.361227 0.0737163
0.471473 0.352728 0.0614786
0.629221 0.344228 0.0492256
0.786984 0.335729 0.0369726
0.944732 0.32723 0.0247196
1 0.31873 0.0124819
1 0.310231 0.000228885
0 0.503227 0.0982223
0.155962 0.494728 0.0859693
0.31371 0.486229 0.0737163
0.471473 0.477729 0.0614786
0.629221 0.46923 0.0492256
0.786984 0.460731 0.0369726
0.944732 0.452232 0.0247196
1 0.443732 0.0124819
1 0.435233 0.000228885
0 0.628229 0.0982223
0.155962 0.61973 0.0859693
0.31371 0.611231 0.0737163
0.471473 0.602731 0.0614786
0.629221 0.594232 0.0492256
0.786984 0.585733 0.0369726
0.944732 0.577234 0.0247196
1 0.568734 0.0124819
1 0.560235 0.000228885
0 0.753231 0.0982223
0.155962 0.744732 0.0859693
0.31371 0.736233 0.0737163
0.471473 0.727733 0.0614786
0.629221 0.719234 0.0492256
0.786984 0.710735 0.0369726
0.944732 0.702235 0.0247196
1 0.693736 0.0124819
1 0.685237 0.000228885
0 0.878233 0.0982223
0.155962 0.869734 0.0859693
0.31371 0.861234 0.0737163
0.471473 0.852735 0.0614786
0.629221 0.844236 0.0492256
0.786984 0.835737 0.0369726
0.944732 0.827237 0.0247196
1 0.818738 0.0124819
1 0.810239 0.000228885
0 1 0.0982223
0.155962 0.994736 0.0859693
0.31371 0.986236 0.0737163
0.471473 0.977737 0.0614786
0.629221 0.969238 0.0492256
0.786984 0.960739 0.0369726
0.944732 0.952239 0.0247196
1 0.94374 0.0124819
1 0.935241 0.000228885
0 0.00645457 0.196445
0.154192 0 0.184207
0.31194 0 0.171954
0.469703 0 0.159701
0.627451 0 0.147448
0.785199 0 0.13521
0.942962 0 0.122957
1 0 0.110704
1 0 0.0984512
0 0.131441 0.196445
0.154192 0.122942 0.184207
0.31194 0.114443 0.171954
0.469703 0.105943 0.159701
0.627451 0.0974441 0.147448
0.785199 0.0889448 0.13521
0.942962 0.0804456 0.122957
1 0.0719463 0.110704
1 0.063447 0.0984512
0 0.256443 0.196445
0.154192 0.247944 0.184207
0.31194 0.239445 0.171954
0.469703 0.230945 0.159701
0.627451 0.222446 0.147448
0.785199 0.213947 0.13521
0.942962 0.205447 0.122957
1 0.196948 0.110704
1 0.188449 0.0984512
0 0.381445 0.196445
0.154192 0.372946 0.184207
0.31194 0.364446 0.171954
0.469703 0.355947 0.159701
0.627451 0.347448 0.147448
0.785199 0.338949 0.13521
0.942962 0.330449 0.122957
1 0.32195 0.110704
1 0.313451 0.0984512
0 0.506447 0.196445
0.154192 0.497948 0.184207
0.31194 0.489448 0.171954
0.469703 0.480949 0.159701
0.627451 0.47245 0.147448
0.785199 0.463951 0.13521
0.942962 0.455451 0.122957
1 0.446952 0.110704
1 0.438453 0.0984512
0 0.631449 0.196445
0.154192 0.62295 0.184207
0.31194 0.61445 0.171954
0.469703 0.605951 0.159701
0.627451 0.597452 0.147448
0.785199 0.588952 0.13521
0.942962 0.580453 0.122957
1 0.571954 0.110704
1 0.563455 0.0984512
0 0.756451 0.196445
0.154192 0.747951 0.184207
0.31194 0.739452 0.171954
0.469703 0.730953 0.159701
0.627451 0.722454 0.147448
0.785199 0.713954 0.13521
0.942962 0.705455 0.122957
1 0.696956 0.110704
1 0.688457 0.0984512
0 0.881453 0.196445
0.154192 0.872953 0.184207
0.31194 0.864454 0.171954
0.469703 0.855955 0.159701
0.627451 0.847456 0.147448
0.785199 0.838956 0.13521
0.942962 0.830457 0.122957
1 0.821958 0.110704
1 0.813458 0.0984512
0 1 0.196445
0.154192 0.997955 0.184207
0.31194 0.989456 0.171954
0.469703 0.980957 0.159701
0.627451 0.972457 0.147448
0.785199 0.963958 0.13521
0.942962 0.955459 0.122957
1 0.94696 0.110704
1 0.93846 0.0984512
0 0.00968948 0.294682
0.152422 0.0011902 0.282429
0.31017 0 0.270176
0.467933 0 0.257939
0.625681 0 0.245686
0.783429 0 0.233433
0.941192 0 0.22118
1 0 0.208942
1 0 0.196689
0 0.134676 0.294682
0.152422 0.126177 0.282429
0.31017 0.117678 0.270176
0.467933 0.109178 0.257939
0.625681 0.100679 0.245686
0.783429 0.0921798 0.233433
0.941192 0.0836805 0.22118
1 0.0751812 0.208942
1 0.0666819 0.196689
0 0.259678 0.294682
0.152422 0.251179 0.282429
0.31017 0.242679 0.270176
0.467933 0.23418 0.257939
0.625681 0.225681 0.245686
0.783429 0.217182 0.233433
0.941192 0.208682 0.22118
1 0.200183 0.208942
1 0.191684 0.196689
0 0.38468 0.294682
0.152422 0.376181 0.282429
0.31017 0.367681 0.270176
0.467933 0.359182 0.257939
0.625681 0.350683 0.245686
0.783429 0.342184 0.233433
0.941192 0.333684 0.22118
1 0.325185 0.208942
1 0.316686 0.196689
0 0.509682 0.294682
0.152422 0.501183 0.282429
0.31017 0.492683 0.270176
0.467933 0.484184 0.257939
0.625681 0.475685 0.245686
0.783429 0.467185 0.233433
0.941192 0.458686 0.22118
1 0.450187 0.208942
1 0.441688 0.196689
0 0.634684 0.294682
0.152422 0.626184 0.282429
0.31017 0.617685 0.270176
0.467933 0.609186 0.257939
0.625681 0.600687 0.245686
0.783429 0.592187 0.233433
0.941192 0.583688 0.22118
1 0.575189 0.208942
1 0.56669 0.196689
0 0.759686 0.294682
0.152422 0.751186 0.282429
0.31017 0.742687 0.270176
0.467933 0.734188 0.257939
0.625681 0.725689 0.245686
0.783429 0.717189 0.233433
0.941192 0.70869 0.22118
1 0.700191 0.208942
1 0.691691 0.196689
0 0.884688 0.294682
0.152422 0.876188 0.282429
0.31017 0.867689 0.270176
0.467933 0.85919 0.257939
0.625681 0.85069 0.245686
0.783429 0.842191 0.233433
0.941192 0.833692 0.22118
1 0.825193 0.208942
1 0.816693 0.196689
0 1 0.294682
0.152422 1 0.282429
0.31017 0.992691 0.270176
0.467933 0.984192 0.257939
0.625681 0.975692 0.245686
0.783429 0.967193 0.233433
0.941192 0.958694 0.22118
1 0.950195 0.208942
1 0.941695 0.196689
0 0.0129091 0.392905
0.150652 0.00442512 0.380667
0.3084 0 0.368414
0.466163 0 0.356161
0.623911 0 0.343908
0.781659 0 0.33167
0.939422 0 0.319417
1 0 0.307164
1 0 0.294911
0 0.137896 0.392905
0.150652 0.129412 0.380667
0.3084 0.120912 0.368414
0.466163 0.112413 0.356161
0.623911 0.103914 0.343908
0.781659 0.0954147 0.33167
0.939422 0.0869154 0.319417
1 0.0784161 0.307164
1 0.0699168 0.294911
0 0.262898 0.392905
0.150652 0.254414 0.380667
0.3084 0.245914 0.368414
0.466163 0.237415 0.356161
0.623911 0.228916 0.343908
0.781659 0.220417 0.33167
0.939422 0.211917 0.319417
1 0.203418 0.307164
1 0.194919 0.294911
0 0.3879 0.392905
0.150652 0.379416 0.380667
0.3084 0.370916 0.368414
0.466163 0.362417 0.356161
0.623911 0.353918 0.343908
0.781659 0.345418 0.33167
0.939422 0.336919 0.319417
1 0.32842 0.307164
1 0.319921 0.294911
0 0.512901 0.392905
0.150652 0.504417 0.380667
0.3084 0.495918 0.368414
0.466163 0.487419 0.356161
0.623911 0.47892 0.343908
0.781659 0.47042 0.33167
0.939422 0.461921 0.319417
1 0.453422 0.307164
1 0.444923 0.294911
0 0.637903 0.392905
0.150652 0.629419 0.380667
0.3084 0.62092 0.368414
0.466163 0.612421 0.356161
0.623911 0.603922 0.343908
0.781659 0.595422 0.33167
0.939422 0.586923 0.319417
1 0.578424 0.307164
1 0.569924 0.294911
0 0.762905 0.392905
0.150652 0.754421 0.380667
0.3084 0.745922 0.368414
0.466163 0.737423 0.356161
0.623911 0.728923 0.343908
0.781659 0.720424 0.33167
0.939422 0.711925 0.319417
1 0.703426 0.307164
1 0.694926 0.294911
0 0.887907 0.392905
0.150652 0.879423 0.380667
0.3084 0.870924 0.368414
0.466163 0.862425 0.356161
0.623911 0.853925 0.343908
0.781659 0.845426 0.33167
0.939422 0.836927 0.319417
1 0.828428 0.307164
1 0.819928 0.294911
0 1 0.392905
0.150652 1 0.380667
0.3084 0.995926 0.368414
0.466163 0.987427 0.356161
0.623911 0.978927 0.343908
0.781659 0.970428 0.33167
0.939422 0.961929 0.319417
1 0.953429 0.307164
1 0.94493 0.294911
0 0.016144 0.491142
0.148882 0.00764477 0.478889
0.30663 0 0.466636
0.464393 0 0.454398
0.622141 0 0.442145
0.779889 0 0.429892
0.937652 0 0.417639
1 0 0.405402
1 0 0.393149
0 0.141131 0.491142
0.148882 0.132631 0.478889
0.30663 0.124132 0.466636
0.464393 0.115633 0.454398
0.622141 0.107134 0.442145
0.779889 0.0986343 0.429892
0.937652 0.090135 0.417639
1 0.0816358 0.405402
1 0.0731365 0.393149
0 0.266133 0.491142
0.148882 0.257633 0.478889
0.30663 0.249134 0.466636
0.464393 0.240635 0.454398
0.622141 0.232136 0.442145
0.779889 0.223636 0.429892
0.937652 0.215137 0.417639
1 0.206638 0.405402
1 0.198138 0.393149
0 0.391135 0.491142
0.148882 0.382635 0.478889
0.30663 0.374136 0.466636
0.464393 0.365637 0.454398
0.622141 0.357137 0.442145
0.779889 0.348638 0.429892
0.937652 0.340139 0.417639
1 0.33164 0.405402
1 0.32314 0.393149
0 0.516136 0.491142
0.148882 0.507637 0.478889
0.30663 0.499138 0.466636
0.464393 0.490639 0.454398
0.622141 0.482139 0.442145
0.779889 0.47364 0.429892
0.937652 0.465141 0.417639
1 0.456641 0.405402
1 0.448142 0.393149
0 0.641138 0.491142
0.148882 0.632639 0.478889
0.30663 0.62414 0.466636
0.464393 0.615641 0.454398
0.622141 0.607141 0.442145
0.779889 0.598642 0.429892
0.937652 0.590143 0.417639
1 0.581643 0.405402
1 0.573144 0.393149
0 0.76614 0.491142
0.148882 0.757641 0.478889
0.30663 0.749142 0.466636
0.464393 0.740642 0.454398
0.622141 0.732143 0.442145
0.779889 0.723644 0.429892
0.937652 0.715145 0.417639
1 0.706645 0.405402
1 0.698146 0.393149
0 0.891142 0.491142
0.148882 0.882643 0.478889
0.30663 0.874144 0.466636
0.464393 0.865644 0.454398
0.622141 0.857145 0.442145
0.779889 0.848646 0.429892
0.937652 0.840146 0.417639
1 0.831647 0.405402
1 0.823148 0.393149
0 1 0.491142
0.148882 1 0.478889
0.30663 0.999146 0.466636
0.464393 0.990646 0.454398
0.622141 0.982147 0.442145
0.779889 0.973648 0.429892
0.937652 0.965148 0.417639
1 0.956649 0.405402
1 0.94815 0.393149
0 0.019379 0.589364
0.147112 0.0108797 0.577127
0.30486 0.00238041 0.564874
0.462608 0 0.552621
0.620371 0 0.540383
0.778119 0 0.52813
0.935882 0 0.515877
1 0 0.503624
1 0 0.491386
0 0.144366 0.589364
0.147112 0.135866 0.577127
0.30486 0.127367 0.564874
0.462608 0.118868 0.552621
0.620371 0.110369 0.540383
0.778119 0.101869 0.52813
0.935882 0.09337 0.515877
1 0.0848707 0.503624
1 0.0763714 0.491386
0 0.269368 0.589364
0.147112 0.260868 0.577127
0.30486 0.252369 0.564874
0.462608 0.24387 0.552621
0.620371 0.23537 0.540383
0.778119 0.226871 0.52813
0.935882 0.218372 0.515877
1 0.209873 0.503624
1 0.201373 0.491386
0 0.394369 0.589364
0.147112 0.38587 0.577127
0.30486 0.377371 0.564874
0.462608 0.368872 0.552621
0.620371 0.360372 0.540383
0.778119 0.351873 0.52813
0.935882 0.343374 0.515877
1 0.334874 0.503624
1 0.326375 0.491386
0 0.519371 0.589364
0.147112 0.510872 0.577127
0.30486 0.502373 0.564874
0.462608 0.493874 0.552621
0.620371 0.485374 0.540383
0.778119 0.476875 0.52813
0.935882 0.468376 0.515877
1 0.459876 0.503624
1 0.451377 0.491386
0 0.644373 0.589364
0.147112 0.635874 0.577127
0.30486 0.627375 0.564874
0.462608 0.618875 0.552621
0.620371 0.610376 0.540383
0.778119 0.601877 0.52813
0.935882 0.593378 0.515877
1 0.584878 0.503624
1 0.576379 0.491386
0 0.769375 0.589364
0.147112 0.760876 0.577127
0.30486 0.752377 0.564874
0.462608 0.743877 0.552621
0.620371 0.735378 0.540383
0.778119 0.726879 0.52813
0.935882 0.718379 0.515877
1 0.70988 0.503624
1 0.701381 0.491386
0 0.894377 0.589364
0.147112 0.885878 0.577127
0.30486 0.877379 0.564874
0.462608 0.868879 0.552621
0.620371 0.86038 0.540383
0.778119 0.851881 0.52813
0.935882 0.843381 0.515877
1 0.834882 0.503624
1 0.826383 0.491386
0 1 0.589364
0.147112 1 0.577127
0.30486 1 0.564874
0.462608 0.993881 0.552621
0.620371 0.985382 0.540383
0.778119 0.976883 0.52813
0.935882 0.968383 0.515877
1 0.959884 0.503624
1 0.951385 0.491386
0 0.0225986 0.687602
0.145342 0.0140993 0.675349
0.30309 0.00560006 0.663111
0.460838 0 0.650858
0.618601 0 0.638605
0.776349 0 0.626352
0.934112 0 0.614115
1 0 0.601862
1 0 0.589609
0 0.147585 0.687602
0.145342 0.139086 0.675349
0.30309 0.130587 0.663111
0.460838 0.122087 0.650858
0.618601 0.113588 0.638605
0.776349 0.105089 0.626352
0.934112 0.0965896 0.614115
1 0.0880903 0.601862
1 0.0795911 0.589609
0 0.272587 0.687602
0.145342 0.264088 0.675349
0.30309 0.255589 0.663111
0.460838 0.247089 0.650858
0.618601 0.23859 0.638605
0.776349 0.230091 0.626352
0.934112 0.221592 0.614115
1 0.213092 0.601862
1 0.204593 0.589609
0 0.397589 0.687602
0.145342 0.38909 0.675349
0.30309 0.380591 0.663111
0.460838 0.372091 0.650858
0.618601 0.363592 0.638605
0.776349 0.355093 0.626352
0.934112 0.346593 0.614115
1 0.338094 0.601862
1 0.329595 0.589609
0 0.522591 0.687602
0.145342 0.514092 0.675349
0.30309 0.505592 0.663111
0.460838 0.497093 0.650858
0.618601 0.488594 0.638605
0.776349 0.480095 0.626352
0.934112 0.471595 0.614115
1 0.463096 0.601862
1 0.454597 0.589609
0 0.647593 0.687602
0.145342 0.639094 0.675349
0.30309 0.630594 0.663111
0.460838 0.622095 0.650858
0.618601 0.613596 0.638605
0.776349 0.605097 0.626352
0.934112 0.596597 0.614115
1 0.588098 0.601862
1 0.579599 0.589609
0 0.772595 0.687602
0.145342 0.764096 0.675349
0.30309 0.755596 0.663111
0.460838 0.747097 0.650858
0.618601 0.738598 0.638605
0.776349 0.730098 0.626352
0.934112 0.721599 0.614115
1 0.7131 0.601862
1 0.704601 0.589609
0 0.897597 0.687602
0.145342 0.889097 0.675349
0.30309 0.880598 0.663111
0.460838 0.872099 0.650858
0.618601 0.8636 0.638605
0.776349 0.8551 0.626352
0.934112 0.846601 0.614115
1 0.838102 0.601862
1 0.829602 0.589609
0 1 0.687602
0.145342 1 0.675349
0.30309 1 0.663111
0.460838 0.997101 0.650858
0.618601 0.988602 0.638605
0.776349 0.980102 0.626352
0.934112 0.971603 0.614115
1 0.963104 0.601862
1 0.954604 0.589609
0 0.0258335 0.78584
0.143572 0.0173342 0.773587
0.30132 0.00883497 0.761334
0.459068 0.000335698 0.749081
0.616831 0 0.736843
0.774578 0 0.72459
0.932326 0 0.712337
1 0 0.700084
1 0 0.687846
0 0.15082 0.78584
0.143572 0.142321 0.773587
0.30132 0.133822 0.761334
0.459068 0.125322 0.749081
0.616831 0.116823 0.736843
0.774578 0.108324 0.72459
0.932326 0.0998245 0.712337
1 0.0913252 0.700084
1 0.082826 0.687846
0 0.275822 0.78584
0.143572 0.267323 0.773587
0.30132 0.258824 0.761334
0.459068 0.250324 0.749081
0.616831 0.241825 0.736843
0.774578 0.233326 0.72459
0.932326 0.224826 0.712337
1 0.216327 0.700084
1 0.207828 0.687846
0 0.400824 0.78584
0.143572 0.392325 0.773587
0.30132 0.383825 0.761334
0.459068 0.375326 0.749081
0.616831 0.366827 0.736843
0.774578 0.358328 0.72459
0.932326 0.349828 0.712337
1 0.341329 0.700084
1 0.33283 0.687846
0 0.525826 0.78584
0.143572 0.517327 0.773587
0.30132 0.508827 0.761334
0.459068 0.500328 0.749081
0.616831 0.491829 0.736843
0.774578 0.48333 0.72459
0.932326 0.47483 0.712337
1 0.466331 0.700084
1 0.457832 0.687846
0 0.650828 0.78584
0.143572 0.642329 0.773587
0.30132 0.633829 0.761334
0.459068 0.62533 0.749081
0.616831 0.616831 0.736843
0.774578 0.608331 0.72459
0.932326 0.599832 0.712337
1 0.591333 0.700084
1 0.582834 0.687846
0 0.77583 0.78584
0.143572 0.76733 0.773587
0.30132 0.758831 0.761334
0.459068 0.750332 0.749081
0.616831 0.741833 0.736843
0.774578 0.733333 0.72459
0.932326 0.724834 0.712337
1 0.716335 0.700084
1 0.707835 0.687846
0 0.900832 0.78584
0.143572 0.892332 0.773587
0.30132 0.883833 0.761334
0.459068 0.875334 0.749081
0.616831 0.866835 0.736843
0.774578 0.858335 0.72459
0.932326 0.849836 0.712337
1 0.841337 0.700084
1 0.832837 0.687846
0 1 0.78584
0.143572 1 0.773587
0.30132 1 0.761334
0.459068 1 0.749081
0.616831 0.991836 0.736843
0.774578 0.983337 0.72459
0.932326 0.974838 0.712337
1 0.966339 0.700084
1 0.957839 0.687846
