vendor/ColorGradr/colorgradr.ofx.bundle/Contents/Resources/Cubes/Cold_Fix_1.cube
TITLE "Generated by Resolve"
LUT_3D_SIZE 5
0 0 0
0.31548 0 0
0.630991 0 0
0.946502 0 0
1 0 0
0 0.249989 0
0.31548 0.23299 0
0.630991 0.215991 0
0.946502 0.198993 0
1 0.181994 0
0 0.499992 0
0.31548 0.482994 0
0.630991 0.465995 0
0.946502 0.448997 0
1 0.431998 0
0 0.749996 0
0.31548 0.732998 0
0.630991 0.715999 0
0.946502 0.699001 0
1 0.682002 0
0 1 0
0.31548 0.983001 0
0.630991 0.966003 0
0.946502 0.949004 0
1 0.932006 0
0 0.00645457 0.196445
0.31194 0 0.171954
0.627451 0 0.147448
0.942962 0 0.122957
1 0 0.0984512
0 0.256443 0.196445
0.31194 0.239445 0.171954
0.627451 0.222446 0.147448
0.942962 0.205447 0.122957
1 0.188449 0.0984512
0 0.506447 0.196445
0.31194 0.489448 0.171954
0.627451 0.47245 0.147448
0.942962 0.455451 0.122957
1 0.438453 0.0984512
0 0.756451 0.196445
0.31194 0.739452 0.171954
0.627451 0.722454 0.147448
0.942962 0.705455 0.122957
1 0.688457 0.0984512
0 1 0.196445
0.31194 0.989456 0.171954
0.627451 0.972457 0.147448
0.942962 0.955459 0.122957
1 0.93846 0.0984512
0 0.0129091 0.392905
0.3084 0 0.368414
0.623911 0 0.343908
0.939422 0 0.319417
1 0 0.294911
0 0.262898 0.392905
0.3084 0.245914 0.368414
0.623911 0.228916 0.343908
0.939422 0.211917 0.319417
1 0.194919 0.294911
0 0.512901 0.392905
0.3084 0.495918 0.368414
0.623911 0.47892 0.343908
0.939422 0.461921 0.319417
1 0.444923 0.294911
0 0.762905 0.392905
0.3084 0.745922 0.368414
0.623911 0.728923 0.343908
0.939422 0.711925 0.319417
1 0.694926 0.294911
0 1 0.392905
0.3084 0.995926 0.368414
0.623911 0.978927 0.343908
0.939422 0.961929 0.319417
1 0.94493 0.294911
0 0.019379 0.589364
0.30486 0.00238041 0.564874
0.620371 0 0.540383
0.935882 0 0.515877
1 0 0.491386
0 0.269368 0.589364
0.30486 0.252369 0.564874
0.620371 0.23537 0.540383
0.935882 0.218372 0.515877
1 0.201373 0.491386
0 0.519371 0.589364
0.30486 0.502373 0.564874
0.620371 0.485374 0.540383
0.935882 0.468376 0.515877
1 0.451377 0.491386
0 0.769375 0.589364
0.30486 0.752377 0.564874
0.620371 0.735378 0.540383
0.935882 0.718379 0.515877
1 0.701381 0.491386
0 1 0.589364
0.30486 1 0.564874
0.620371 0.985382 0.540383
0.935882 0.968383 0.515877
1 0.951385 0.491386
0 0.0258335 0.78584
0.30132 0.00883497 0.761334
0.616831 0 0.736843
0.932326 0 0.712337
1 0 0.687846
0 0.275822 0.78584
0.30132 0.258824 0.761334
0.616831 0.241825 0.736843
0.932326 0.224826 0.712337
1 0.207828 0.687846
0 0.525826 0.78584
0.30132 0.508827 0.761334
0.616831 0.491829 0.736843
0.932326 0.47483 0.712337
1 0.457832 0.687846
0 0.77583 0.78584
0.30132 0.758831 0.761334
0.616831 0.741833 0.736843
0.932326 0.724834 0.712337
1 0.707835 0.687846
0 1 0.78584
0.30132 1 0.761334
0.616831 0.991836 0.736843
0.932326 0.974838 0.712337
1 0.957839 0.687846
