vendor/ColorGradr/colorgradr.ofx.bundle/Contents/Resources/Cubes/Magenta_Fix_1.cube
LUT_3D_SIZE 5
0.000000 0.000000 0.000000
0.249934 0.000040 -0.000516
0.499746 0.000092 -0.001178
0.749561 0.000138 -0.001770
0.999425 0.000183 -0.002359
0.000000 0.250000 0.000000
0.250000 0.250000 0.000000
0.500000 0.250000 0.000000
0.750000 0.250000 0.000000
0.999864 0.250685 -0.000557
0.000000 0.500000 0.000000
0.250000 0.500000 0.000000
0.500000 0.500000 0.000000
0.750000 0.500000 0.000000
1.000000 0.500000 0.000000
0.000000 0.750000 0.000000
0.250000 0.750000 0.000000
0.500000 0.750000 0.000000
0.750000 0.750000 0.000000
1.000000 0.750000 0.000000
0.000000 1.000000 0.000000
0.250000 1.000000 0.000000
0.500000 1.000000 0.000000
0.750000 1.000000 0.000000
1.000000 1.000000 0.000000
0.000010 0.000007 0.248900
0.249650 0.000213 0.218708
0.499268 0.000264 0.211195
0.749039 0.000301 0.205692
0.998928 0.000342 0.199751
0.000000 0.250000 0.250000
0.250000 0.250000 0.250000
0.499476 0.252986 0.222229
0.749313 0.253409 0.218304
0.999324 0.253409 0.218304
0.000000 0.500000 0.250000
0.250000 0.500000 0.250000
0.500000 0.500000 0.250000
0.750000 0.500000 0.250000
1.000000 0.500000 0.250000
0.000000 0.750000 0.250000
0.250000 0.750000 0.250000
0.500000 0.750000 0.250000
0.750000 0.750000 0.250000
1.000000 0.750000 0.250000
0.000000 1.000000 0.250000
0.250000 1.000000 0.250000
0.500000 1.000000 0.250000
0.750000 1.000000 0.250000
1.000000 1.000000 0.250000
0.000024 0.000017 0.496741
0.249666 0.000203 0.462136
0.498816 0.000426 0.420346
0.748428 0.000493 0.407943
0.998346 0.000527 0.401532
0.000000 0.250000 0.500000
0.249829 0.251645 0.480568
0.497922 0.261839 0.360167
0.748309 0.258384 0.400966
0.998669 0.256711 0.420737
0.000000 0.500000 0.500000
0.250000 0.500000 0.500000
0.500000 0.500000 0.500000
0.749430 0.503316 0.466598
0.999395 0.503573 0.464014
0.000000 0.750000 0.500000
0.250000 0.750000 0.500000
0.500000 0.750000 0.500000
0.750000 0.750000 0.500000
1.000000 0.750000 0.500000
0.000000 1.000000 0.500000
0.250000 1.000000 0.500000
0.500000 1.000000 0.500000
0.750000 1.000000 0.500000
1.000000 1.000000 0.500000
0.000036 0.000026 0.745489
0.249705 0.000179 0.719286
0.498741 0.000453 0.672245
0.747961 0.000639 0.640401
0.997878 0.000676 0.634020
0.000000 0.250000 0.750000
0.249800 0.251918 0.729204
0.498425 0.258972 0.652728
0.747612 0.261839 0.621646
0.998022 0.259967 0.641939
0.000000 0.500000 0.750000
0.250000 0.500000 0.750000
0.499716 0.501895 0.732484
0.747782 0.512897 0.630767
0.998543 0.508609 0.670408
0.000000 0.750000 0.750000
0.250000 0.750000 0.750000
0.500000 0.750000 0.750000
0.750000 0.750000 0.750000
0.999587 0.752219 0.727435
0.000000 1.000000 0.750000
0.250000 1.000000 0.750000
0.500000 1.000000 0.750000
0.750000 1.000000 0.750000
1.000000 1.000000 0.750000
0.000048 0.000035 0.995968
0.249719 0.000171 0.980363
0.498876 0.000405 0.953405
0.747787 0.000694 0.920121
0.997651 0.000749 0.913825
0.000000 0.250000 1.000000
0.249800 0.251918 0.986038
0.498842 0.256600 0.951958
0.747745 0.261179 0.918629
0.997651 0.261839 0.913825
0.000000 0.500000 1.000000
0.250000 0.500000 1.000000
0.499675 0.502168 0.986540
0.748352 0.509581 0.940527
0.997986 0.511906 0.926097
0.000000 0.750000 1.000000
0.250000 0.750000 1.000000
0.500000 0.750000 1.000000
0.749757 0.751284 0.991234
0.998405 0.758570 0.941492
0.000000 1.000000 1.000000
0.250000 1.000000 1.000000
0.500000 1.000000 1.000000
0.750000 1.000000 1.000000
1.000000 1.000000 1.000000
