vendor/ColorGradr/colorgradr.ofx.bundle/Contents/Resources/Cubes/Magenta_Fix_1.cube
LUT_3D_SIZE 33
0.000000 0.000000 0.000000
0.031250 0.000001 -0.000009
0.062500 0.000003 -0.000035
0.093748 0.000006 -0.000076
0.124994 0.000010 -0.000132
0.156236 0.000016 -0.000204
0.187473 0.000023 -0.000293
0.218706 0.000031 -0.000397
0.249934 0.000040 -0.000516
0.281156 0.000051 -0.000654
0.312384 0.000057 -0.000738
0.343613 0.000063 -0.000811
0.374840 0.000069 -0.000883
0.406067 0.000075 -0.000959
0.437293 0.000080 -0.001032
0.468520 0.000086 -0.001105
0.499746 0.000092 -0.001178
0.530971 0.000097 -0.001254
0.562198 0.000103 -0.001327
0.593424 0.000109 -0.001400
0.624650 0.000115 -0.001476
0.655877 0.000120 -0.001548
0.687105 0.000126 -0.001621
0.718333 0.000132 -0.001694
0.749561 0.000138 -0.001770
0.780791 0.000143 -0.001843
0.812022 0.000149 -0.001916
0.843252 0.000155 -0.001992
0.874485 0.000160 -0.002064
0.905718 0.000166 -0.002137
0.936953 0.000172 -0.002210
0.968188 0.000178 -0.002286
0.999425 0.000183 -0.002359
0.000000 0.031250 0.000000
0.031250 0.031250 0.000000
0.062500 0.031250 0.000000
0.093750 0.031250 0.000000
0.124998 0.031267 -0.000042
0.156242 0.031297 -0.000115
0.187481 0.031332 -0.000204
0.218716 0.031375 -0.000309
0.249945 0.031424 -0.000430
0.281170 0.031477 -0.000562
0.312390 0.031532 -0.000699
0.343618 0.031565 -0.000779
0.374844 0.031600 -0.000865
0.406070 0.031631 -0.000942
0.437295 0.031663 -0.001022
0.468521 0.031695 -0.001101
0.499746 0.031726 -0.001179
0.530972 0.031756 -0.001253
0.562197 0.031786 -0.001328
0.593422 0.031818 -0.001407
0.624648 0.031849 -0.001484
0.655876 0.031878 -0.001555
0.687102 0.031910 -0.001635
0.718329 0.031941 -0.001710
0.749558 0.031970 -0.001783
0.780788 0.032000 -0.001857
0.812017 0.032031 -0.001934
0.843248 0.032061 -0.002009
0.874480 0.032092 -0.002084
0.905712 0.032123 -0.002161
0.936948 0.032151 -0.002230
0.968183 0.032182 -0.002307
0.999418 0.032213 -0.002385
0.000000 0.062500 0.000000
0.031250 0.062500 0.000000
0.062500 0.062500 0.000000
0.093750 0.062500 0.000000
0.125000 0.062500 0.000000
0.156250 0.062500 0.000000
0.187500 0.062500 0.000000
0.218745 0.062527 -0.000044
0.249979 0.062600 -0.000165
0.281207 0.062683 -0.000302
0.312429 0.062773 -0.000450
0.343652 0.062851 -0.000578
0.374876 0.062915 -0.000684
0.406100 0.062976 -0.000785
0.437324 0.063034 -0.000881
0.468547 0.063090 -0.000973
0.499771 0.063144 -0.001062
0.530995 0.063196 -0.001147
0.562220 0.063246 -0.001229
0.593442 0.063301 -0.001321
0.624669 0.063348 -0.001398
0.655894 0.063397 -0.001479
0.687120 0.063446 -0.001560
0.718346 0.063497 -0.001643
0.749572 0.063548 -0.001728
0.780800 0.063596 -0.001807
0.812029 0.063643 -0.001885
0.843259 0.063691 -0.001964
0.874490 0.063740 -0.002044
0.905723 0.063784 -0.002117
0.936955 0.063834 -0.002200
0.968193 0.063874 -0.002266
0.999441 0.063889 -0.002291
0.000000 0.093750 0.000000
0.031250 0.093750 0.000000
0.062500 0.093750 0.000000
0.093750 0.093750 0.000000
0.125000 0.093750 0.000000
0.156250 0.093750 0.000000
0.187500 0.093750 0.000000
0.218750 0.093750 0.000000
0.250000 0.093750 0.000000
0.281250 0.093750 0.000000
0.312497 0.093764 -0.000018
0.343719 0.093888 -0.000180
0.374941 0.094000 -0.000327
0.406161 0.094104 -0.000464
0.437383 0.094198 -0.000587
0.468604 0.094286 -0.000702
0.499824 0.094373 -0.000815
0.531044 0.094459 -0.000928
0.562266 0.094534 -0.001026
0.593487 0.094613 -0.001129
0.624711 0.094681 -0.001219
0.655932 0.094758 -0.001320
0.687158 0.094823 -0.001404
0.718380 0.094897 -0.001502
0.749605 0.094967 -0.001594
0.780833 0.095029 -0.001675
0.812061 0.095092 -0.001757
0.843290 0.095157 -0.001842
0.874524 0.095207 -0.001907
0.905766 0.095235 -0.001944
0.937012 0.095254 -0.001969
0.968260 0.095273 -0.001994
0.999505 0.095301 -0.002031
0.000000 0.125000 0.000000
0.031250 0.125000 0.000000
0.062500 0.125000 0.000000
0.093750 0.125000 0.000000
0.125000 0.125000 0.000000
0.156250 0.125000 0.000000
0.187500 0.125000 0.000000
0.218750 0.125000 0.000000
0.250000 0.125000 0.000000
0.281250 0.125000 0.000000
0.312500 0.125000 0.000000
0.343750 0.125000 0.000000
0.375000 0.125000 0.000000
0.406250 0.125000 0.000000
0.437473 0.125121 -0.000135
0.468690 0.125259 -0.000290
0.499906 0.125389 -0.000436
0.531123 0.125510 -0.000571
0.562340 0.125628 -0.000704
0.593558 0.125734 -0.000823
0.624778 0.125835 -0.000936
0.655996 0.125941 -0.001054
0.687219 0.126030 -0.001155
0.718437 0.126135 -0.001272
0.749661 0.126221 -0.001368
0.780892 0.126281 -0.001436
0.812126 0.126337 -0.001498
0.843363 0.126381 -0.001548
0.874601 0.126425 -0.001597
0.905843 0.126458 -0.001634
0.937083 0.126502 -0.001684
0.968327 0.126536 -0.001721
0.999571 0.126569 -0.001758
0.000000 0.156250 0.000000
0.031250 0.156250 0.000000
0.062500 0.156250 0.000000
0.093750 0.156250 0.000000
0.125000 0.156250 0.000000
0.156250 0.156250 0.000000
0.187500 0.156250 0.000000
0.218750 0.156250 0.000000
0.250000 0.156250 0.000000
0.281250 0.156250 0.000000
0.312500 0.156250 0.000000
0.343750 0.156250 0.000000
0.375000 0.156250 0.000000
0.406250 0.156250 0.000000
0.437500 0.156250 0.000000
0.468750 0.156250 0.000000
0.500000 0.156250 0.000000
0.531230 0.156339 -0.000089
0.562443 0.156502 -0.000252
0.593657 0.156650 -0.000401
0.624871 0.156795 -0.000545
0.656086 0.156930 -0.000681
0.687307 0.157042 -0.000792
0.718531 0.157141 -0.000892
0.749758 0.157227 -0.000978
0.780988 0.157302 -0.001053
0.812219 0.157376 -0.001127
0.843450 0.157450 -0.001201
0.874685 0.157512 -0.001263
0.905920 0.157574 -0.001325
0.937160 0.157623 -0.001374
0.968400 0.157673 -0.001424
0.999641 0.157722 -0.001474
0.000000 0.187500 0.000000
0.031250 0.187500 0.000000
0.062500 0.187500 0.000000
0.093750 0.187500 0.000000
0.125000 0.187500 0.000000
0.156250 0.187500 0.000000
0.187500 0.187500 0.000000
0.218750 0.187500 0.000000
0.250000 0.187500 0.000000
0.281250 0.187500 0.000000
0.312500 0.187500 0.000000
0.343750 0.187500 0.000000
0.375000 0.187500 0.000000
0.406250 0.187500 0.000000
0.437500 0.187500 0.000000
0.468750 0.187500 0.000000
0.500000 0.187500 0.000000
0.531250 0.187500 0.000000
0.562500 0.187500 0.000000
0.593750 0.187500 0.000000
0.624991 0.187540 -0.000037
0.656205 0.187702 -0.000186
0.687422 0.187851 -0.000322
0.718640 0.187985 -0.000446
0.749862 0.188107 -0.000557
0.781087 0.188215 -0.000656
0.812311 0.188323 -0.000755
0.843540 0.188417 -0.000842
0.874771 0.188498 -0.000916
0.906003 0.188579 -0.000991
0.937239 0.188646 -0.001053
0.968476 0.188714 -0.001114
0.999713 0.188781 -0.001176
0.000000 0.218750 0.000000
0.031250 0.218750 0.000000
0.062500 0.218750 0.000000
0.093750 0.218750 0.000000
0.125000 0.218750 0.000000
0.156250 0.218750 0.000000
0.187500 0.218750 0.000000
0.218750 0.218750 0.000000
0.250000 0.218750 0.000000
0.281250 0.218750 0.000000
0.312500 0.218750 0.000000
0.343750 0.218750 0.000000
0.375000 0.218750 0.000000
0.406250 0.218750 0.000000
0.437500 0.218750 0.000000
0.468750 0.218750 0.000000
0.500000 0.218750 0.000000
0.531250 0.218750 0.000000
0.562500 0.218750 0.000000
0.593750 0.218750 0.000000
0.625000 0.218750 0.000000
0.656250 0.218750 0.000000
0.687500 0.218750 0.000000
0.718750 0.218750 0.000000
0.749969 0.218894 -0.000124
0.781188 0.219039 -0.000248
0.812410 0.219168 -0.000359
0.843632 0.219298 -0.000471
0.874861 0.219399 -0.000557
0.906090 0.219500 -0.000644
0.937319 0.219601 -0.000731
0.968552 0.219688 -0.000805
0.999786 0.219774 -0.000879
0.000000 0.250000 0.000000
0.031250 0.250000 0.000000
0.062500 0.250000 0.000000
0.093750 0.250000 0.000000
0.125000 0.250000 0.000000
0.156250 0.250000 0.000000
0.187500 0.250000 0.000000
0.218750 0.250000 0.000000
0.250000 0.250000 0.000000
0.281250 0.250000 0.000000
0.312500 0.250000 0.000000
0.343750 0.250000 0.000000
0.375000 0.250000 0.000000
0.406250 0.250000 0.000000
0.437500 0.250000 0.000000
0.468750 0.250000 0.000000
0.500000 0.250000 0.000000
0.531250 0.250000 0.000000
0.562500 0.250000 0.000000
0.593750 0.250000 0.000000
0.625000 0.250000 0.000000
0.656250 0.250000 0.000000
0.687500 0.250000 0.000000
0.718750 0.250000 0.000000
0.750000 0.250000 0.000000
0.781250 0.250000 0.000000
0.812500 0.250000 0.000000
0.843731 0.250091 -0.000074
0.874954 0.250228 -0.000186
0.906176 0.250365 -0.000297
0.937405 0.250472 -0.000384
0.968631 0.250593 -0.000483
0.999864 0.250685 -0.000557
0.000000 0.281250 0.000000
0.031250 0.281250 0.000000
0.062500 0.281250 0.000000
0.093750 0.281250 0.000000
0.125000 0.281250 0.000000
0.156250 0.281250 0.000000
0.187500 0.281250 0.000000
0.218750 0.281250 0.000000
0.250000 0.281250 0.000000
0.281250 0.281250 0.000000
0.312500 0.281250 0.000000
0.343750 0.281250 0.000000
0.375000 0.281250 0.000000
0.406250 0.281250 0.000000
0.437500 0.281250 0.000000
0.468750 0.281250 0.000000
0.500000 0.281250 0.000000
0.531250 0.281250 0.000000
0.562500 0.281250 0.000000
0.593750 0.281250 0.000000
0.625000 0.281250 0.000000
0.656250 0.281250 0.000000
0.687500 0.281250 0.000000
0.718750 0.281250 0.000000
0.750000 0.281250 0.000000
0.781250 0.281250 0.000000
0.812500 0.281250 0.000000
0.843750 0.281250 0.000000
0.875000 0.281250 0.000000
0.906250 0.281250 0.000000
0.937491 0.281298 -0.000037
0.968717 0.281425 -0.000136
0.999943 0.281552 -0.000235
0.000000 0.312500 0.000000
0.031250 0.312500 0.000000
0.062500 0.312500 0.000000
0.093750 0.312500 0.000000
0.125000 0.312500 0.000000
0.156250 0.312500 0.000000
0.187500 0.312500 0.000000
0.218750 0.312500 0.000000
0.250000 0.312500 0.000000
0.281250 0.312500 0.000000
0.312500 0.312500 0.000000
0.343750 0.312500 0.000000
0.375000 0.312500 0.000000
0.406250 0.312500 0.000000
0.437500 0.312500 0.000000
0.468750 0.312500 0.000000
0.500000 0.312500 0.000000
0.531250 0.312500 0.000000
0.562500 0.312500 0.000000
0.593750 0.312500 0.000000
0.625000 0.312500 0.000000
0.656250 0.312500 0.000000
0.687500 0.312500 0.000000
0.718750 0.312500 0.000000
0.750000 0.312500 0.000000
0.781250 0.312500 0.000000
0.812500 0.312500 0.000000
0.843750 0.312500 0.000000
0.875000 0.312500 0.000000
0.906250 0.312500 0.000000
0.937500 0.312500 0.000000
0.968750 0.312500 0.000000
1.000000 0.312500 0.000000
0.000000 0.343750 0.000000
0.031250 0.343750 0.000000
0.062500 0.343750 0.000000
0.093750 0.343750 0.000000
0.125000 0.343750 0.000000
0.156250 0.343750 0.000000
0.187500 0.343750 0.000000
0.218750 0.343750 0.000000
0.250000 0.343750 0.000000
0.281250 0.343750 0.000000
0.312500 0.343750 0.000000
0.343750 0.343750 0.000000
0.375000 0.343750 0.000000
0.406250 0.343750 0.000000
0.437500 0.343750 0.000000
0.468750 0.343750 0.000000
0.500000 0.343750 0.000000
0.531250 0.343750 0.000000
0.562500 0.343750 0.000000
0.593750 0.343750 0.000000
0.625000 0.343750 0.000000
0.656250 0.343750 0.000000
0.687500 0.343750 0.000000
0.718750 0.343750 0.000000
0.750000 0.343750 0.000000
0.781250 0.343750 0.000000
0.812500 0.343750 0.000000
0.843750 0.343750 0.000000
0.875000 0.343750 0.000000
0.906250 0.343750 0.000000
0.937500 0.343750 0.000000
0.968750 0.343750 0.000000
1.000000 0.343750 0.000000
0.000000 0.375000 0.000000
0.031250 0.375000 0.000000
0.062500 0.375000 0.000000
0.093750 0.375000 0.000000
0.125000 0.375000 0.000000
0.156250 0.375000 0.000000
0.187500 0.375000 0.000000
0.218750 0.375000 0.000000
0.250000 0.375000 0.000000
0.281250 0.375000 0.000000
0.312500 0.375000 0.000000
0.343750 0.375000 0.000000
0.375000 0.375000 0.000000
0.406250 0.375000 0.000000
0.437500 0.375000 0.000000
0.468750 0.375000 0.000000
0.500000 0.375000 0.000000
0.531250 0.375000 0.000000
0.562500 0.375000 0.000000
0.593750 0.375000 0.000000
0.625000 0.375000 0.000000
0.656250 0.375000 0.000000
0.687500 0.375000 0.000000
0.718750 0.375000 0.000000
0.750000 0.375000 0.000000
0.781250 0.375000 0.000000
0.812500 0.375000 0.000000
0.843750 0.375000 0.000000
0.875000 0.375000 0.000000
0.906250 0.375000 0.000000
0.937500 0.375000 0.000000
0.968750 0.375000 0.000000
1.000000 0.375000 0.000000
0.000000 0.406250 0.000000
0.031250 0.406250 0.000000
0.062500 0.406250 0.000000
0.093750 0.406250 0.000000
0.125000 0.406250 0.000000
0.156250 0.406250 0.000000
0.187500 0.406250 0.000000
0.218750 0.406250 0.000000
0.250000 0.406250 0.000000
0.281250 0.406250 0.000000
0.312500 0.406250 0.000000
0.343750 0.406250 0.000000
0.375000 0.406250 0.000000
0.406250 0.406250 0.000000
0.437500 0.406250 0.000000
0.468750 0.406250 0.000000
0.500000 0.406250 0.000000
0.531250 0.406250 0.000000
0.562500 0.406250 0.000000
0.593750 0.406250 0.000000
0.625000 0.406250 0.000000
0.656250 0.406250 0.000000
0.687500 0.406250 0.000000
0.718750 0.406250 0.000000
0.750000 0.406250 0.000000
0.781250 0.406250 0.000000
0.812500 0.406250 0.000000
0.843750 0.406250 0.000000
0.875000 0.406250 0.000000
0.906250 0.406250 0.000000
0.937500 0.406250 0.000000
0.968750 0.406250 0.000000
1.000000 0.406250 0.000000
0.000000 0.437500 0.000000
0.031250 0.437500 0.000000
0.062500 0.437500 0.000000
0.093750 0.437500 0.000000
0.125000 0.437500 0.000000
0.156250 0.437500 0.000000
0.187500 0.437500 0.000000
0.218750 0.437500 0.000000
0.250000 0.437500 0.000000
0.281250 0.437500 0.000000
0.312500 0.437500 0.000000
0.343750 0.437500 0.000000
0.375000 0.437500 0.000000
0.406250 0.437500 0.000000
0.437500 0.437500 0.000000
0.468750 0.437500 0.000000
0.500000 0.437500 0.000000
0.531250 0.437500 0.000000
0.562500 0.437500 0.000000
0.593750 0.437500 0.000000
0.625000 0.437500 0.000000
0.656250 0.437500 0.000000
0.687500 0.437500 0.000000
0.718750 0.437500 0.000000
0.750000 0.437500 0.000000
0.781250 0.437500 0.000000
0.812500 0.437500 0.000000
0.843750 0.437500 0.000000
0.875000 0.437500 0.000000
0.906250 0.437500 0.000000
0.937500 0.437500 0.000000
0.968750 0.437500 0.000000
1.000000 0.437500 0.000000
0.000000 0.468750 0.000000
0.031250 0.468750 0.000000
0.062500 0.468750 0.000000
0.093750 0.468750 0.000000
0.125000 0.468750 0.000000
0.156250 0.468750 0.000000
0.187500 0.468750 0.000000
0.218750 0.468750 0.000000
0.250000 0.468750 0.000000
0.281250 0.468750 0.000000
0.312500 0.468750 0.000000
0.343750 0.468750 0.000000
0.375000 0.468750 0.000000
0.406250 0.468750 0.000000
0.437500 0.468750 0.000000
0.468750 0.468750 0.000000
0.500000 0.468750 0.000000
0.531250 0.468750 0.000000
0.562500 0.468750 0.000000
0.593750 0.468750 0.000000
0.625000 0.468750 0.000000
0.656250 0.468750 0.000000
0.687500 0.468750 0.000000
0.718750 0.468750 0.000000
0.750000 0.468750 0.000000
0.781250 0.468750 0.000000
0.812500 0.468750 0.000000
0.843750 0.468750 0.000000
0.875000 0.468750 0.000000
0.906250 0.468750 0.000000
0.937500 0.468750 0.000000
0.968750 0.468750 0.000000
1.000000 0.468750 0.000000
0.000000 0.500000 0.000000
0.031250 0.500000 0.000000
0.062500 0.500000 0.000000
0.093750 0.500000 0.000000
0.125000 0.500000 0.000000
0.156250 0.500000 0.000000
0.187500 0.500000 0.000000
0.218750 0.500000 0.000000
0.250000 0.500000 0.000000
0.281250 0.500000 0.000000
0.312500 0.500000 0.000000
0.343750 0.500000 0.000000
0.375000 0.500000 0.000000
0.406250 0.500000 0.000000
0.437500 0.500000 0.000000
0.468750 0.500000 0.000000
0.500000 0.500000 0.000000
0.531250 0.500000 0.000000
0.562500 0.500000 0.000000
0.593750 0.500000 0.000000
0.625000 0.500000 0.000000
0.656250 0.500000 0.000000
0.687500 0.500000 0.000000
0.718750 0.500000 0.000000
0.750000 0.500000 0.000000
0.781250 0.500000 0.000000
0.812500 0.500000 0.000000
0.843750 0.500000 0.000000
0.875000 0.500000 0.000000
0.906250 0.500000 0.000000
0.937500 0.500000 0.000000
0.968750 0.500000 0.000000
1.000000 0.500000 0.000000
0.000000 0.531250 0.000000
0.031250 0.531250 0.000000
0.062500 0.531250 0.000000
0.093750 0.531250 0.000000
0.125000 0.531250 0.000000
0.156250 0.531250 0.000000
0.187500 0.531250 0.000000
0.218750 0.531250 0.000000
0.250000 0.531250 0.000000
0.281250 0.531250 0.000000
0.312500 0.531250 0.000000
0.343750 0.531250 0.000000
0.375000 0.531250 0.000000
0.406250 0.531250 0.000000
0.437500 0.531250 0.000000
0.468750 0.531250 0.000000
0.500000 0.531250 0.000000
0.531250 0.531250 0.000000
0.562500 0.531250 0.000000
0.593750 0.531250 0.000000
0.625000 0.531250 0.000000
0.656250 0.531250 0.000000
0.687500 0.531250 0.000000
0.718750 0.531250 0.000000
0.750000 0.531250 0.000000
0.781250 0.531250 0.000000
0.812500 0.531250 0.000000
0.843750 0.531250 0.000000
0.875000 0.531250 0.000000
0.906250 0.531250 0.000000
0.937500 0.531250 0.000000
0.968750 0.531250 0.000000
1.000000 0.531250 0.000000
0.000000 0.562500 0.000000
0.031250 0.562500 0.000000
0.062500 0.562500 0.000000
0.093750 0.562500 0.000000
0.125000 0.562500 0.000000
0.156250 0.562500 0.000000
0.187500 0.562500 0.000000
0.218750 0.562500 0.000000
0.250000 0.562500 0.000000
0.281250 0.562500 0.000000
0.312500 0.562500 0.000000
0.343750 0.562500 0.000000
0.375000 0.562500 0.000000
0.406250 0.562500 0.000000
0.437500 0.562500 0.000000
0.468750 0.562500 0.000000
0.500000 0.562500 0.000000
0.531250 0.562500 0.000000
0.562500 0.562500 0.000000
0.593750 0.562500 0.000000
0.625000 0.562500 0.000000
0.656250 0.562500 0.000000
0.687500 0.562500 0.000000
0.718750 0.562500 0.000000
0.750000 0.562500 0.000000
0.781250 0.562500 0.000000
0.812500 0.562500 0.000000
0.843750 0.562500 0.000000
0.875000 0.562500 0.000000
0.906250 0.562500 0.000000
0.937500 0.562500 0.000000
0.968750 0.562500 0.000000
1.000000 0.562500 0.000000
0.000000 0.593750 0.000000
0.031250 0.593750 0.000000
0.062500 0.593750 0.000000
0.093750 0.593750 0.000000
0.125000 0.593750 0.000000
0.156250 0.593750 0.000000
0.187500 0.593750 0.000000
0.218750 0.593750 0.000000
0.250000 0.593750 0.000000
0.281250 0.593750 0.000000
0.312500 0.593750 0.000000
0.343750 0.593750 0.000000
0.375000 0.593750 0.000000
0.406250 0.593750 0.000000
0.437500 0.593750 0.000000
0.468750 0.593750 0.000000
0.500000 0.593750 0.000000
0.531250 0.593750 0.000000
0.562500 0.593750 0.000000
0.593750 0.593750 0.000000
0.625000 0.593750 0.000000
0.656250 0.593750 0.000000
0.687500 0.593750 0.000000
0.718750 0.593750 0.000000
0.750000 0.593750 0.000000
0.781250 0.593750 0.000000
0.812500 0.593750 0.000000
0.843750 0.593750 0.000000
0.875000 0.593750 0.000000
0.906250 0.593750 0.000000
0.937500 0.593750 0.000000
0.968750 0.593750 0.000000
1.000000 0.593750 0.000000
0.000000 0.625000 0.000000
0.031250 0.625000 0.000000
0.062500 0.625000 0.000000
0.093750 0.625000 0.000000
0.125000 0.625000 0.000000
0.156250 0.625000 0.000000
0.187500 0.625000 0.000000
0.218750 0.625000 0.000000
0.250000 0.625000 0.000000
0.281250 0.625000 0.000000
0.312500 0.625000 0.000000
0.343750 0.625000 0.000000
0.375000 0.625000 0.000000
0.406250 0.625000 0.000000
0.437500 0.625000 0.000000
0.468750 0.625000 0.000000
0.500000 0.625000 0.000000
0.531250 0.625000 0.000000
0.562500 0.625000 0.000000
0.593750 0.625000 0.000000
0.625000 0.625000 0.000000
0.656250 0.625000 0.000000
0.687500 0.625000 0.000000
0.718750 0.625000 0.000000
0.750000 0.625000 0.000000
0.781250 0.625000 0.000000
0.812500 0.625000 0.000000
0.843750 0.625000 0.000000
0.875000 0.625000 0.000000
0.906250 0.625000 0.000000
0.937500 0.625000 0.000000
0.968750 0.625000 0.000000
1.000000 0.625000 0.000000
0.000000 0.656250 0.000000
0.031250 0.656250 0.000000
0.062500 0.656250 0.000000
0.093750 0.656250 0.000000
0.125000 0.656250 0.000000
0.156250 0.656250 0.000000
0.187500 0.656250 0.000000
0.218750 0.656250 0.000000
0.250000 0.656250 0.000000
0.281250 0.656250 0.000000
0.312500 0.656250 0.000000
0.343750 0.656250 0.000000
0.375000 0.656250 0.000000
0.406250 0.656250 0.000000
0.437500 0.656250 0.000000
0.468750 0.656250 0.000000
0.500000 0.656250 0.000000
0.531250 0.656250 0.000000
0.562500 0.656250 0.000000
0.593750 0.656250 0.000000
0.625000 0.656250 0.000000
0.656250 0.656250 0.000000
0.687500 0.656250 0.000000
0.718750 0.656250 0.000000
0.750000 0.656250 0.000000
0.781250 0.656250 0.000000
0.812500 0.656250 0.000000
0.843750 0.656250 0.000000
0.875000 0.656250 0.000000
0.906250 0.656250 0.000000
0.937500 0.656250 0.000000
0.968750 0.656250 0.000000
1.000000 0.656250 0.000000
0.000000 0.687500 0.000000
0.031250 0.687500 0.000000
0.062500 0.687500 0.000000
0.093750 0.687500 0.000000
0.125000 0.687500 0.000000
0.156250 0.687500 0.000000
0.187500 0.687500 0.000000
0.218750 0.687500 0.000000
0.250000 0.687500 0.000000
0.281250 0.687500 0.000000
0.312500 0.687500 0.000000
0.343750 0.687500 0.000000
0.375000 0.687500 0.000000
0.406250 0.687500 0.000000
0.437500 0.687500 0.000000
0.468750 0.687500 0.000000
0.500000 0.687500 0.000000
0.531250 0.687500 0.000000
0.562500 0.687500 0.000000
0.593750 0.687500 0.000000
0.625000 0.687500 0.000000
0.656250 0.687500 0.000000
0.687500 0.687500 0.000000
0.718750 0.687500 0.000000
0.750000 0.687500 0.000000
0.781250 0.687500 0.000000
0.812500 0.687500 0.000000
0.843750 0.687500 0.000000
0.875000 0.687500 0.000000
0.906250 0.687500 0.000000
0.937500 0.687500 0.000000
0.968750 0.687500 0.000000
1.000000 0.687500 0.000000
0.000000 0.718750 0.000000
0.031250 0.718750 0.000000
0.062500 0.718750 0.000000
0.093750 0.718750 0.000000
0.125000 0.718750 0.000000
0.156250 0.718750 0.000000
0.187500 0.718750 0.000000
0.218750 0.718750 0.000000
0.250000 0.718750 0.000000
0.281250 0.718750 0.000000
0.312500 0.718750 0.000000
0.343750 0.718750 0.000000
0.375000 0.718750 0.000000
0.406250 0.718750 0.000000
0.437500 0.718750 0.000000
0.468750 0.718750 0.000000
0.500000 0.718750 0.000000
0.531250 0.718750 0.000000
0.562500 0.718750 0.000000
0.593750 0.718750 0.000000
0.625000 0.718750 0.000000
0.656250 0.718750 0.000000
0.687500 0.718750 0.000000
0.718750 0.718750 0.000000
0.750000 0.718750 0.000000
0.781250 0.718750 0.000000
0.812500 0.718750 0.000000
0.843750 0.718750 0.000000
0.875000 0.718750 0.000000
0.906250 0.718750 0.000000
0.937500 0.718750 0.000000
0.968750 0.718750 0.000000
1.000000 0.718750 0.000000
0.000000 0.750000 0.000000
0.031250 0.750000 0.000000
0.062500 0.750000 0.000000
0.093750 0.750000 0.000000
0.125000 0.750000 0.000000
0.156250 0.750000 0.000000
0.187500 0.750000 0.000000
0.218750 0.750000 0.000000
0.250000 0.750000 0.000000
0.281250 0.750000 0.000000
0.312500 0.750000 0.000000
0.343750 0.750000 0.000000
0.375000 0.750000 0.000000
0.406250 0.750000 0.000000
0.437500 0.750000 0.000000
0.468750 0.750000 0.000000
0.500000 0.750000 0.000000
0.531250 0.750000 0.000000
0.562500 0.750000 0.000000
0.593750 0.750000 0.000000
0.625000 0.750000 0.000000
0.656250 0.750000 0.000000
0.687500 0.750000 0.000000
0.718750 0.750000 0.000000
0.750000 0.750000 0.000000
0.781250 0.750000 0.000000
0.812500 0.750000 0.000000
0.843750 0.750000 0.000000
0.875000 0.750000 0.000000
0.906250 0.750000 0.000000
0.937500 0.750000 0.000000
0.968750 0.750000 0.000000
1.000000 0.750000 0.000000
0.000000 0.781250 0.000000
0.031250 0.781250 0.000000
0.062500 0.781250 0.000000
0.093750 0.781250 0.000000
0.125000 0.781250 0.000000
0.156250 0.781250 0.000000
0.187500 0.781250 0.000000
0.218750 0.781250 0.000000
0.250000 0.781250 0.000000
0.281250 0.781250 0.000000
0.312500 0.781250 0.000000
0.343750 0.781250 0.000000
0.375000 0.781250 0.000000
0.406250 0.781250 0.000000
0.437500 0.781250 0.000000
0.468750 0.781250 0.000000
0.500000 0.781250 0.000000
0.531250 0.781250 0.000000
0.562500 0.781250 0.000000
0.593750 0.781250 0.000000
0.625000 0.781250 0.000000
0.656250 0.781250 0.000000
0.687500 0.781250 0.000000
0.718750 0.781250 0.000000
0.750000 0.781250 0.000000
0.781250 0.781250 0.000000
0.812500 0.781250 0.000000
0.843750 0.781250 0.000000
0.875000 0.781250 0.000000
0.906250 0.781250 0.000000
0.937500 0.781250 0.000000
0.968750 0.781250 0.000000
1.000000 0.781250 0.000000
0.000000 0.812500 0.000000
0.031250 0.812500 0.000000
0.062500 0.812500 0.000000
0.093750 0.812500 0.000000
0.125000 0.812500 0.000000
0.156250 0.812500 0.000000
0.187500 0.812500 0.000000
0.218750 0.812500 0.000000
0.250000 0.812500 0.000000
0.281250 0.812500 0.000000
0.312500 0.812500 0.000000
0.343750 0.812500 0.000000
0.375000 0.812500 0.000000
0.406250 0.812500 0.000000
0.437500 0.812500 0.000000
0.468750 0.812500 0.000000
0.500000 0.812500 0.000000
0.531250 0.812500 0.000000
0.562500 0.812500 0.000000
0.593750 0.812500 0.000000
0.625000 0.812500 0.000000
0.656250 0.812500 0.000000
0.687500 0.812500 0.000000
