vendor/ColorGradr/colorgradr.ofx.bundle/Contents/Resources/Cubes/Magenta_Fix_1.cube
LUT_3D_SIZE 9
0.000000 0.000000 0.000000
0.124994 0.000010 -0.000132
0.249934 0.000040 -0.000516
0.374840 0.000069 -0.000883
0.499746 0.000092 -0.001178
0.624650 0.000115 -0.001476
0.749561 0.000138 -0.001770
0.874485 0.000160 -0.002064
0.999425 0.000183 -0.002359
0.000000 0.125000 0.000000
0.125000 0.125000 0.000000
0.250000 0.125000 0.000000
0.375000 0.125000 0.000000
0.499906 0.125389 -0.000436
0.624778 0.125835 -0.000936
0.749661 0.126221 -0.001368
0.874601 0.126425 -0.001597
0.999571 0.126569 -0.001758
0.000000 0.250000 0.000000
0.125000 0.250000 0.000000
0.250000 0.250000 0.000000
0.375000 0.250000 0.000000
0.500000 0.250000 0.000000
0.625000 0.250000 0.000000
0.750000 0.250000 0.000000
0.874954 0.250228 -0.000186
0.999864 0.250685 -0.000557
0.000000 0.375000 0.000000
0.125000 0.375000 0.000000
0.250000 0.375000 0.000000
0.375000 0.375000 0.000000
0.500000 0.375000 0.000000
0.625000 0.375000 0.000000
0.750000 0.375000 0.000000
0.875000 0.375000 0.000000
1.000000 0.375000 0.000000
0.000000 0.500000 0.000000
0.125000 0.500000 0.000000
0.250000 0.500000 0.000000
0.375000 0.500000 0.000000
0.500000 0.500000 0.000000
0.625000 0.500000 0.000000
0.750000 0.500000 0.000000
0.875000 0.500000 0.000000
1.000000 0.500000 0.000000
0.000000 0.625000 0.000000
0.125000 0.625000 0.000000
0.250000 0.625000 0.000000
0.375000 0.625000 0.000000
0.500000 0.625000 0.000000
0.625000 0.625000 0.000000
0.750000 0.625000 0.000000
0.875000 0.625000 0.000000
1.000000 0.625000 0.000000
0.000000 0.750000 0.000000
0.125000 0.750000 0.000000
0.250000 0.750000 0.000000
0.375000 0.750000 0.000000
0.500000 0.750000 0.000000
0.625000 0.750000 0.000000
0.750000 0.750000 0.000000
0.875000 0.750000 0.000000
1.000000 0.750000 0.000000
0.000000 0.875000 0.000000
0.125000 0.875000 0.000000
0.250000 0.875000 0.000000
0.375000 0.875000 0.000000
0.500000 0.875000 0.000000
0.625000 0.875000 0.000000
0.750000 0.875000 0.000000
0.875000 0.875000 0.000000
1.000000 0.875000 0.000000
0.000000 1.000000 0.000000
0.125000 1.000000 0.000000
0.250000 1.000000 0.000000
0.375000 1.000000 0.000000
0.500000 1.000000 0.000000
0.625000 1.000000 0.000000
0.750000 1.000000 0.000000
0.875000 1.000000 0.000000
1.000000 1.000000 0.000000
0.000003 0.000002 0.124812
0.124966 0.000055 0.119673
0.249816 0.000112 0.114208
0.374649 0.000151 0.110455
0.499526 0.000171 0.108505
0.624414 0.000192 0.106447
0.749318 0.000214 0.104352
0.874243 0.000236 0.102256
0.999189 0.000259 0.100032
0.000000 0.125000 0.125000
0.125000 0.125000 0.125000
0.249904 0.125672 0.119349
0.374687 0.126544 0.112013
0.499510 0.127025 0.107967
0.624392 0.127288 0.105758
0.749313 0.127475 0.104190
0.874308 0.127475 0.104190
0.999324 0.127475 0.104190
0.000000 0.250000 0.125000
0.125000 0.250000 0.125000
0.250000 0.250000 0.125000
0.375000 0.250000 0.125000
0.500000 0.250000 0.125000
0.624868 0.250685 0.120819
0.749739 0.251293 0.117103
0.874657 0.251689 0.114688
0.999611 0.251963 0.113016
0.000000 0.375000 0.125000
0.125000 0.375000 0.125000
0.250000 0.375000 0.125000
0.375000 0.375000 0.125000
0.500000 0.375000 0.125000
0.625000 0.375000 0.125000
0.750000 0.375000 0.125000
0.875000 0.375000 0.125000
0.999955 0.375258 0.123606
0.000000 0.500000 0.125000
0.125000 0.500000 0.125000
0.250000 0.500000 0.125000
0.375000 0.500000 0.125000
0.500000 0.500000 0.125000
0.625000 0.500000 0.125000
0.750000 0.500000 0.125000
0.875000 0.500000 0.125000
1.000000 0.500000 0.125000
0.000000 0.625000 0.125000
0.125000 0.625000 0.125000
0.250000 0.625000 0.125000
0.375000 0.625000 0.125000
0.500000 0.625000 0.125000
0.625000 0.625000 0.125000
0.750000 0.625000 0.125000
0.875000 0.625000 0.125000
1.000000 0.625000 0.125000
0.000000 0.750000 0.125000
0.125000 0.750000 0.125000
0.250000 0.750000 0.125000
0.375000 0.750000 0.125000
0.500000 0.750000 0.125000
0.625000 0.750000 0.125000
0.750000 0.750000 0.125000
0.875000 0.750000 0.125000
1.000000 0.750000 0.125000
0.000000 0.875000 0.125000
0.125000 0.875000 0.125000
0.250000 0.875000 0.125000
0.375000 0.875000 0.125000
0.500000 0.875000 0.125000
0.625000 0.875000 0.125000
0.750000 0.875000 0.125000
0.875000 0.875000 0.125000
1.000000 0.875000 0.125000
0.000000 1.000000 0.125000
0.125000 1.000000 0.125000
0.250000 1.000000 0.125000
0.375000 1.000000 0.125000
0.500000 1.000000 0.125000
0.625000 1.000000 0.125000
0.750000 1.000000 0.125000
0.875000 1.000000 0.125000
1.000000 1.000000 0.125000
0.000010 0.000007 0.248900
0.124949 0.000084 0.237609
0.249650 0.000213 0.218708
0.374426 0.000247 0.213710
0.499268 0.000264 0.211195
0.624140 0.000282 0.208557
0.749039 0.000301 0.205692
0.873968 0.000321 0.202763
0.998928 0.000342 0.199751
0.000000 0.125000 0.250000
0.124983 0.125328 0.245801
0.249591 0.127853 0.213459
0.374217 0.128862 0.200537
0.498993 0.129166 0.196645
0.623913 0.129088 0.197637
0.748920 0.128889 0.200192
0.873980 0.128646 0.203305
0.999052 0.128469 0.205569
0.000000 0.250000 0.250000
0.125000 0.250000 0.250000
0.250000 0.250000 0.250000
0.374775 0.251527 0.235801
0.499476 0.252986 0.222229
0.624342 0.253409 0.218304
0.749313 0.253409 0.218304
0.874308 0.253409 0.218304
0.999324 0.253409 0.218304
0.000000 0.375000 0.250000
0.125000 0.375000 0.250000
0.250000 0.375000 0.250000
0.375000 0.375000 0.250000
0.500000 0.375000 0.250000
0.625000 0.375000 0.250000
0.749862 0.375775 0.243632
0.874737 0.376464 0.237972
0.999665 0.376912 0.234293
0.000000 0.500000 0.250000
0.125000 0.500000 0.250000
0.250000 0.500000 0.250000
0.375000 0.500000 0.250000
0.500000 0.500000 0.250000
0.625000 0.500000 0.250000
0.750000 0.500000 0.250000
0.875000 0.500000 0.250000
1.000000 0.500000 0.250000
0.000000 0.625000 0.250000
0.125000 0.625000 0.250000
0.250000 0.625000 0.250000
0.375000 0.625000 0.250000
0.500000 0.625000 0.250000
0.625000 0.625000 0.250000
0.750000 0.625000 0.250000
0.875000 0.625000 0.250000
1.000000 0.625000 0.250000
0.000000 0.750000 0.250000
0.125000 0.750000 0.250000
0.250000 0.750000 0.250000
0.375000 0.750000 0.250000
0.500000 0.750000 0.250000
0.625000 0.750000 0.250000
0.750000 0.750000 0.250000
0.875000 0.750000 0.250000
1.000000 0.750000 0.250000
0.000000 0.875000 0.250000
0.125000 0.875000 0.250000
0.250000 0.875000 0.250000
0.375000 0.875000 0.250000
0.500000 0.875000 0.250000
0.625000 0.875000 0.250000
0.750000 0.875000 0.250000
0.875000 0.875000 0.250000
1.000000 0.875000 0.250000
0.000000 1.000000 0.250000
0.125000 1.000000 0.250000
0.250000 1.000000 0.250000
0.375000 1.000000 0.250000
0.500000 1.000000 0.250000
0.625000 1.000000 0.250000
0.750000 1.000000 0.250000
0.875000 1.000000 0.250000
1.000000 1.000000 0.250000
0.000018 0.000013 0.372695
0.124945 0.000090 0.359308
0.249627 0.000227 0.335273
0.374256 0.000320 0.319004
0.498999 0.000361 0.311820
0.623846 0.000378 0.308722
0.748738 0.000396 0.305652
0.873671 0.000413 0.302547
0.998642 0.000433 0.299184
0.000000 0.125000 0.375000
0.124964 0.125683 0.364576
0.249472 0.128684 0.318790
0.373634 0.131740 0.272141
0.498440 0.131451 0.276554
0.623386 0.131073 0.282323
0.748512 0.130358 0.293238
0.873637 0.129872 0.300655
0.998765 0.129518 0.306050
0.000000 0.250000 0.375000
0.125000 0.250000 0.375000
0.249912 0.250842 0.365677
0.374100 0.256114 0.307262
0.498753 0.257103 0.296308
0.623705 0.256711 0.300655
0.748818 0.255858 0.310096
0.873912 0.255356 0.315659
0.999004 0.255022 0.319368
0.000000 0.375000 0.375000
0.125000 0.375000 0.375000
0.250000 0.375000 0.375000
0.375000 0.375000 0.375000
0.499732 0.376728 0.358084
0.624424 0.378380 0.341914
0.749313 0.378858 0.337238
0.874308 0.378858 0.337238
0.999329 0.378828 0.337539
0.000000 0.500000 0.375000
0.125000 0.500000 0.375000
0.250000 0.500000 0.375000
0.375000 0.500000 0.375000
0.500000 0.500000 0.375000
0.625000 0.500000 0.375000
0.750000 0.500000 0.375000
0.874871 0.500746 0.367951
0.999768 0.501369 0.362065
0.000000 0.625000 0.375000
0.125000 0.625000 0.375000
0.250000 0.625000 0.375000
0.375000 0.625000 0.375000
0.500000 0.625000 0.375000
0.625000 0.625000 0.375000
0.750000 0.625000 0.375000
0.875000 0.625000 0.375000
1.000000 0.625000 0.375000
0.000000 0.750000 0.375000
0.125000 0.750000 0.375000
0.250000 0.750000 0.375000
0.375000 0.750000 0.375000
0.500000 0.750000 0.375000
0.625000 0.750000 0.375000
0.750000 0.750000 0.375000
0.875000 0.750000 0.375000
1.000000 0.750000 0.375000
0.000000 0.875000 0.375000
0.125000 0.875000 0.375000
0.250000 0.875000 0.375000
0.375000 0.875000 0.375000
0.500000 0.875000 0.375000
0.625000 0.875000 0.375000
0.750000 0.875000 0.375000
0.875000 0.875000 0.375000
1.000000 0.875000 0.375000
0.000000 1.000000 0.375000
0.125000 1.000000 0.375000
0.250000 1.000000 0.375000
0.375000 1.000000 0.375000
0.500000 1.000000 0.375000
0.625000 1.000000 0.375000
0.750000 1.000000 0.375000
0.875000 1.000000 0.375000
1.000000 1.000000 0.375000
0.000024 0.000017 0.496741
0.124948 0.000085 0.484032
0.249666 0.000203 0.462136
0.374193 0.000347 0.435191
0.498816 0.000426 0.420346
0.623549 0.000475 0.411210
0.748428 0.000493 0.407943
0.873361 0.000510 0.404703
0.998346 0.000527 0.401532
0.000000 0.125000 0.500000
0.124955 0.125847 0.486215
0.249509 0.128424 0.444292
0.373650 0.131661 0.391627
0.498074 0.132967 0.370383
0.622936 0.132766 0.373647
0.748113 0.131794 0.389463
0.873297 0.131087 0.400966
0.998478 0.130568 0.409414
0.000000 0.250000 0.500000
0.125000 0.250000 0.500000
0.249829 0.251645 0.480568
0.373899 0.257482 0.411621
0.497922 0.261839 0.360167
0.623077 0.259967 0.382274
0.748309 0.258384 0.400966
0.873501 0.257380 0.412829
0.998669 0.256711 0.420737
0.000000 0.375000 0.500000
0.125000 0.375000 0.500000
0.250000 0.375000 0.500000
0.374876 0.375953 0.490060
0.498927 0.381921 0.427780
0.623629 0.383040 0.416102
0.748647 0.382596 0.420737
0.873810 0.381632 0.430802
0.998955 0.380961 0.437799
0.000000 0.500000 0.500000
0.125000 0.500000 0.500000
0.250000 0.500000 0.500000
0.375000 0.500000 0.500000
0.500000 0.500000 0.500000
0.624713 0.501743 0.482444
0.749430 0.503316 0.466598
0.874363 0.503679 0.462945
0.999395 0.503573 0.464014
0.000000 0.625000 0.500000
0.125000 0.625000 0.500000
0.250000 0.625000 0.500000
0.375000 0.625000 0.500000
0.500000 0.625000 0.500000
0.625000 0.625000 0.500000
0.750000 0.625000 0.500000
0.875000 0.625000 0.500000
0.999891 0.625631 0.493495
0.000000 0.750000 0.500000
0.125000 0.750000 0.500000
0.250000 0.750000 0.500000
0.375000 0.750000 0.500000
0.500000 0.750000 0.500000
0.625000 0.750000 0.500000
0.750000 0.750000 0.500000
0.875000 0.750000 0.500000
1.000000 0.750000 0.500000
0.000000 0.875000 0.500000
0.125000 0.875000 0.500000
0.250000 0.875000 0.500000
0.375000 0.875000 0.500000
0.500000 0.875000 0.500000
0.625000 0.875000 0.500000
0.750000 0.875000 0.500000
0.875000 0.875000 0.500000
1.000000 0.875000 0.500000
0.000000 1.000000 0.500000
0.125000 1.000000 0.500000
0.250000 1.000000 0.500000
0.375000 1.000000 0.500000
0.500000 1.000000 0.500000
0.625000 1.000000 0.500000
0.750000 1.000000 0.500000
0.875000 1.000000 0.500000
1.000000 1.000000 0.500000
0.000030 0.000022 0.620955
0.124948 0.000085 0.609316
0.249691 0.000187 0.590342
0.374243 0.000325 0.564854
0.498740 0.000454 0.541099
0.623373 0.000533 0.526405
0.748119 0.000590 0.515934
0.873048 0.000608 0.512644
0.998098 0.000606 0.512918
0.000000 0.125000 0.625000
0.124952 0.125897 0.610562
0.249579 0.127936 0.577726
0.373868 0.130584 0.535074
0.497998 0.133281 0.491644
0.622716 0.133595 0.486588
0.747756 0.133076 0.494950
0.872975 0.132236 0.508470
0.998198 0.131595 0.518789
0.000000 0.250000 0.625000
0.125000 0.250000 0.625000
0.249800 0.251918 0.602574
0.374029 0.256600 0.547836
0.498038 0.261179 0.494304
0.622716 0.261839 0.486588
0.747842 0.260697 0.499931
0.873099 0.259358 0.515587
0.998336 0.258384 0.526973
0.000000 0.375000 0.625000
0.125000 0.375000 0.625000
0.250000 0.375000 0.625000
0.374758 0.376862 0.605765
0.498687 0.383470 0.537519
0.622716 0.388401 0.486588
0.747990 0.386282 0.508470
0.873297 0.384491 0.526973
0.998574 0.383137 0.540956
0.000000 0.500000 0.625000
0.125000 0.500000 0.625000
0.250000 0.500000 0.625000
0.375000 0.500000 0.625000
0.499854 0.500978 0.615251
0.623862 0.506914 0.556065
0.748657 0.507811 0.547121
0.873758 0.507171 0.553506
0.998972 0.506078 0.564403
0.000000 0.625000 0.625000
0.125000 0.625000 0.625000
0.250000 0.625000 0.625000
0.375000 0.625000 0.625000
0.500000 0.625000 0.625000
0.625000 0.625000 0.625000
0.749739 0.626485 0.609854
0.874501 0.627813 0.596302
0.999462 0.628107 0.593303
0.000000 0.750000 0.625000
0.125000 0.750000 0.625000
0.250000 0.750000 0.625000
0.375000 0.750000 0.625000
0.500000 0.750000 0.625000
0.625000 0.750000 0.625000
0.750000 0.750000 0.625000
0.875000 0.750000 0.625000
1.000000 0.750000 0.625000
0.000000 0.875000 0.625000
0.125000 0.875000 0.625000
0.250000 0.875000 0.625000
0.375000 0.875000 0.625000
0.500000 0.875000 0.625000
0.625000 0.875000 0.625000
0.750000 0.875000 0.625000
0.875000 0.875000 0.625000
1.000000 0.875000 0.625000
0.000000 1.000000 0.625000
0.125000 1.000000 0.625000
0.250000 1.000000 0.625000
0.375000 1.000000 0.625000
0.500000 1.000000 0.625000
0.625000 1.000000 0.625000
0.750000 1.000000 0.625000
0.875000 1.000000 0.625000
1.000000 1.000000 0.625000
0.000036 0.000026 0.745489
0.124948 0.000086 0.735263
0.249705 0.000179 0.719286
0.374293 0.000304 0.697922
0.498741 0.000453 0.672245
0.623292 0.000560 0.654028
0.747961 0.000639 0.640401
0.872739 0.000704 0.629324
0.997878 0.000676 0.634020
0.000000 0.125000 0.750000
0.124950 0.125947 0.735851
0.249617 0.127673 0.710076
0.374008 0.129892 0.676940
0.498192 0.132478 0.638321
0.622716 0.133595 0.621646
0.747612 0.133595 0.621646
0.872685 0.133274 0.626431
0.997938 0.132545 0.637319
0.000000 0.250000 0.750000
0.125000 0.250000 0.750000
0.249800 0.251918 0.729204
0.374208 0.255383 0.691637
0.498425 0.258972 0.652728
0.622716 0.261839 0.621646
0.747612 0.261839 0.621646
0.872740 0.261123 0.629400
0.998022 0.259967 0.641939
0.000000 0.375000 0.750000
0.125000 0.375000 0.750000
0.250000 0.375000 0.750000
0.374718 0.377171 0.729204
0.498842 0.382471 0.678444
0.622843 0.387654 0.628802
0.747612 0.388401 0.621646
0.872845 0.387009 0.634979
0.998208 0.385224 0.652070
0.000000 0.500000 0.750000
0.125000 0.500000 0.750000
0.250000 0.500000 0.750000
0.375000 0.500000 0.750000
0.499716 0.501895 0.732484
0.623620 0.508384 0.672488
0.747782 0.512897 0.630767
0.873173 0.510544 0.652517
0.998543 0.508609 0.670408
0.000000 0.625000 0.750000
0.125000 0.625000 0.750000
0.250000 0.625000 0.750000
0.375000 0.625000 0.750000
0.500000 0.625000 0.750000
0.624859 0.625835 0.742100
0.748965 0.630882 0.694360
0.873827 0.631617 0.687407
0.998953 0.631047 0.692796
0.000000 0.750000 0.750000
0.125000 0.750000 0.750000
0.250000 0.750000 0.750000
0.375000 0.750000 0.750000
0.500000 0.750000 0.750000
0.625000 0.750000 0.750000
0.750000 0.750000 0.750000
0.874776 0.751178 0.738024
0.999587 0.752219 0.727435
0.000000 0.875000 0.750000
0.125000 0.875000 0.750000
0.250000 0.875000 0.750000
0.375000 0.875000 0.750000
0.500000 0.875000 0.750000
0.625000 0.875000 0.750000
0.750000 0.875000 0.750000
0.875000 0.875000 0.750000
1.000000 0.875000 0.750000
0.000000 1.000000 0.750000
0.125000 1.000000 0.750000
0.250000 1.000000 0.750000
0.375000 1.000000 0.750000
0.500000 1.000000 0.750000
0.625000 1.000000 0.750000
0.750000 1.000000 0.750000
0.875000 1.000000 0.750000
1.000000 1.000000 0.750000
0.000042 0.000031 0.870476
0.124947 0.000087 0.862075
0.249714 0.000174 0.849314
0.374330 0.000288 0.832430
0.498817 0.000426 0.811976
0.623221 0.000583 0.788800
0.747874 0.000666 0.776444
0.872603 0.000746 0.764694
0.997675 0.000741 0.765453
0.000000 0.125000 0.875000
0.124947 0.125998 0.862144
0.249639 0.127514 0.842623
0.374098 0.129452 0.817661
0.498425 0.131514 0.791118
0.622843 0.133116 0.770485
0.747612 0.133595 0.764315
0.872595 0.133595 0.764315
0.997702 0.133407 0.766733
0.000000 0.250000 0.875000
0.125000 0.250000 0.875000
0.249800 0.251918 0.857067
0.374311 0.254682 0.831227
0.498675 0.257549 0.804424
0.623010 0.260312 0.778584
0.747612 0.261839 0.764315
0.872595 0.261839 0.764315
0.997739 0.261397 0.768440
0.000000 0.375000 0.875000
0.125000 0.375000 0.875000
0.250000 0.375000 0.875000
0.374718 0.377171 0.857067
0.499055 0.381093 0.824671
0.623269 0.385156 0.791118
0.747612 0.388401 0.764315
0.872637 0.388168 0.766241
0.997890 0.387038 0.775572
0.000000 0.500000 0.875000
0.125000 0.500000 0.875000
0.250000 0.500000 0.875000
0.375000 0.500000 0.875000
0.499672 0.502188 0.857553
0.623795 0.507324 0.816605
0.747926 0.512058 0.778867
0.872852 0.512401 0.776129
0.998160 0.510873 0.788314
0.000000 0.625000 0.875000
0.125000 0.625000 0.875000
0.250000 0.625000 0.875000
0.375000 0.625000 0.875000
0.500000 0.625000 0.875000
0.624728 0.626616 0.861818
0.748747 0.632122 0.816902
0.873066 0.635908 0.786016
0.998463 0.633877 0.802584
0.000000 0.750000 0.875000
0.125000 0.750000 0.875000
0.250000 0.750000 0.875000
0.375000 0.750000 0.875000
0.500000 0.750000 0.875000
0.625000 0.750000 0.875000
0.749874 0.750665 0.869171
0.874113 0.754657 0.834165
0.999031 0.755209 0.829324
0.000000 0.875000 0.875000
0.125000 0.875000 0.875000
0.250000 0.875000 0.875000
0.375000 0.875000 0.875000
0.500000 0.875000 0.875000
0.625000 0.875000 0.875000
0.750000 0.875000 0.875000
0.875000 0.875000 0.875000
0.999819 0.875861 0.866457
0.000000 1.000000 0.875000
0.125000 1.000000 0.875000
0.250000 1.000000 0.875000
0.375000 1.000000 0.875000
0.500000 1.000000 0.875000
0.625000 1.000000 0.875000
0.750000 1.000000 0.875000
0.875000 1.000000 0.875000
1.000000 1.000000 0.875000
0.000048 0.000035 0.995968
0.124945 0.000090 0.989623
0.249719 0.000171 0.980363
0.374357 0.000276 0.968180
0.498876 0.000405 0.953405
0.623314 0.000552 0.936416
0.747787 0.000694 0.920121
0.872595 0.000749 0.913825
0.997651 0.000749 0.913825
0.000008 0.125068 0.999321
0.124944 0.126048 0.989496
0.249655 0.127404 0.975899
0.374162 0.129136 0.958533
0.498603 0.130780 0.942049
0.623082 0.132217 0.927637
0.747629 0.133535 0.914425
0.872595 0.133595 0.913825
0.997651 0.133595 0.913825
0.000000 0.250000 1.000000
0.125000 0.250000 1.000000
0.249800 0.251918 0.986038
0.374381 0.254207 0.969373
0.498842 0.256600 0.951958
0.623269 0.258972 0.934693
0.747745 0.261179 0.918629
0.872595 0.261839 0.913825
0.997651 0.261839 0.913825
0.000000 0.375000 1.000000
0.125000 0.375000 1.000000
0.250000 0.375000 1.000000
0.374718 0.377171 0.986038
0.499178 0.380300 0.965920
0.623543 0.383545 0.945052
0.747920 0.386673 0.924934
0.872659 0.388045 0.916112
0.997776 0.387690 0.918399
0.000000 0.500000 1.000000
0.125000 0.500000 1.000000
0.250000 0.500000 1.000000
0.375000 0.500000 1.000000
0.499675 0.502168 0.986540
0.624026 0.505916 0.963276
0.748352 0.509581 0.940527
0.872874 0.512275 0.923810
0.997986 0.511906 0.926097
0.000000 0.625000 1.000000
0.125000 0.625000 1.000000
0.250000 0.625000 1.000000
0.375000 0.625000 1.000000
0.500000 0.625000 1.000000
0.624686 0.626864 0.988162
0.748907 0.631213 0.960541
0.873195 0.635183 0.935326
0.998195 0.635424 0.933795
0.000000 0.750000 1.000000
0.125000 0.750000 1.000000
0.250000 0.750000 1.000000
0.375000 0.750000 1.000000
0.500000 0.750000 1.000000
0.625000 0.750000 1.000000
0.749757 0.751284 0.991234
0.873928 0.755628 0.961576
0.998405 0.758570 0.941492
0.000000 0.875000 1.000000
0.125000 0.875000 1.000000
0.250000 0.875000 1.000000
0.375000 0.875000 1.000000
0.500000 0.875000 1.000000
0.625000 0.875000 1.000000
0.750000 0.875000 1.000000
0.874895 0.875488 0.996227
0.999285 0.878395 0.973771
0.000000 1.000000 1.000000
0.125000 1.000000 1.000000
0.250000 1.000000 1.000000
0.375000 1.000000 1.000000
0.500000 1.000000 1.000000
0.625000 1.000000 1.000000
0.750000 1.000000 1.000000
0.875000 1.000000 1.000000
1.000000 1.000000 1.000000
