resources/Referent_LogC4_to_Rec709.cube
TITLE "Referent_LogC4 to Rec709"
# Generated by Cullen Kelly Color
# Input Color Space: LogC4
# Output: BT.1886
# Resolution: 33x33x33
# Date: 2026-02-05 18:23:30 +0000
LUT_3D_SIZE 33
0.0000000000 0.0000000000 0.0000000000
0.0000000000 0.0000000000 0.0000000000
0.0000000000 0.0000000000 0.0000000000
0.0000000000 0.0000000000 0.0000000000
0.0407900573 0.0053067157 0.0000000000
0.1117500530 0.0154403062 0.0000000000
0.1887445545 0.0173869295 0.0000000000
0.2683448570 0.0048034757 0.0000000000
0.3453956842 0.0000000000 0.0000000000
0.4145682908 0.0000000000 0.0000000000
0.4745087883 0.0000000000 0.0026086015
0.5248351433 0.0000000000 0.0091539452
0.5685401722 0.0000000000 0.0156989543
0.6092406974 0.0086832874 0.0229284362
0.6491253743 0.0329184033 0.0338005533
0.6917257627 0.0747259762 0.0546460333
0.7363364345 0.1333031632 0.0947762620
0.7814804527 0.2025191949 0.1585844641
0.8267257574 0.2746129053 0.2390800514
0.8696727468 0.3503833291 0.3281951075
0.9071783308 0.4283515858 0.4204417156
0.9368013127 0.5050046520 0.5089162815
0.9586603325 0.5801551502 0.5934022896
0.9745780559 0.6520364606 0.6725487421
0.9845605506 0.7205248995 0.7454310252
0.9910124482 0.7830200267 0.8081399211
0.9969843315 0.8372362877 0.8593325710
0.9987792782 0.8820955107 0.8998745360
0.9987792782 0.8952714171 0.9187889646
0.9987792782 0.8931103743 0.9337388469
0.9987792782 0.8915572188 0.9506333453
0.9987792782 0.8919160468 0.9644424990
0.9987792782 0.8954846278 0.9734114940
0.0000000000 0.0000000000 0.0000000000
0.0000000000 0.0000000000 0.0000000000
0.0000000000 0.0000000000 0.0000000000
0.0000000000 0.0000000000 0.0000000000
0.0403014976 0.0052207762 0.0000000000
0.1113577690 0.0154024880 0.0000000000
0.1884484152 0.0174057320 0.0000000000
0.2681344345 0.0048509413 0.0000000000
0.3452541165 0.0000000000 0.0000000000
0.4144805638 0.0000000000 0.0000000000
0.4743833082 0.0000000000 0.0026184523
0.5247289580 0.0000000000 0.0091729230
0.5684583936 0.0000000000 0.0157305336
0.6091905227 0.0086482402 0.0229914851
0.6490921157 0.0328823008 0.0338872741
0.6917062621 0.0746899907 0.0547950452
0.7363252437 0.1332712683 0.0949524374
0.7814713602 0.2024976713 0.1587388579
0.8267192415 0.2745965853 0.2392147951
0.8696676223 0.3503709128 0.3282936389
0.9071749462 0.4283420976 0.4205040364
0.9367990567 0.5049970840 0.5089573309
0.9586590667 0.5801497217 0.5934275517
0.9745773275 0.6520329241 0.6725659076
0.9845602074 0.7205224240 0.7454414172
0.9910122407 0.7830185234 0.8081463189
0.9969841721 0.8372354011 0.8593361102
0.9987792782 0.8820950557 0.8998763623
0.9987792782 0.8952711454 0.9187904843
0.9987792782 0.8931101798 0.9337404170
0.9987792782 0.8915571621 0.9506344071
0.9987792782 0.8919161317 0.9644430487
0.9987792782 0.8954847941 0.9734117237
0.0000000000 0.0000000000 0.0000000000
0.0000000000 0.0000000000 0.0000000000
0.0000000000 0.0000000000 0.0000000000
0.0000000000 0.0000000000 0.0000000000
0.0396148001 0.0050999837 0.0000000000
0.1108079342 0.0153494810 0.0000000000
0.1880338779 0.0174320518 0.0000000000
0.2678400953 0.0049173363 0.0000000000
0.3450561777 0.0000000000 0.0000000000
0.4143579389 0.0000000000 0.0000000000
0.4742061268 0.0000000000 0.0026326230
0.5245816747 0.0000000000 0.0092009429
0.5683453662 0.0000000000 0.0157739506
0.6091193482 0.0085996509 0.0230835611
0.6490458557 0.0328321132 0.0340076210
0.6916790887 0.0746398784 0.0550022696
0.7363096333 0.1332325716 0.0952265829
0.7814586720 0.2024676476 0.1589540604
0.8267101466 0.2745738108 0.2394027316
0.8696604682 0.3503535806 0.3284311299
0.9071702205 0.4283287225 0.4205910268
0.9367959064 0.5049865162 0.5090146426
0.9586572989 0.5801421407 0.5934628273
0.9745763101 0.6520279849 0.6725898802
0.9845597280 0.7205189662 0.7454559313
0.9910119510 0.7830164235 0.8081552551
0.9969839493 0.8372341626 0.8593410538
0.9987792782 0.8820944200 0.8998789135
0.9987792782 0.8952707658 0.9187926072
0.9987792782 0.8931099082 0.9337426102
0.9987792782 0.8915570829 0.9506358903
0.9987792782 0.8919162502 0.9644438165
0.9987792782 0.8954850265 0.9734120446
0.0000000000 0.0000000000 0.0000000000
0.0000000000 0.0000000000 0.0000000000
0.0000000000 0.0000000000 0.0000000000
0.0000000000 0.0000000000 0.0000000000
0.0386471929 0.0049297780 0.0000000000
0.1100362367 0.0152750853 0.0000000000
0.1874531329 0.0174689245 0.0000000000
0.2674281564 0.0050102586 0.0000000000
0.3447793236 0.0000000000 0.0000000000
0.4141864921 0.0000000000 0.0000000000
0.4739529304 0.0000000000 0.0026506242
0.5243654983 0.0000000000 0.0092441626
0.5681802392 0.0000000000 0.0158480491
0.6090193802 0.0085324796 0.0232180694
0.6489860474 0.0327639525 0.0341948763
0.6916412599 0.0745701789 0.0552899405
0.7362878701 0.1331787286 0.0956081862
0.7814416488 0.2024261285 0.1592773836
0.8266974558 0.2745420419 0.2396646977
0.8696504833 0.3503293933 0.3286229008
0.9071636235 0.4283099411 0.4207124138
0.9367915079 0.5049717616 0.5090946412
0.9586548303 0.5801315546 0.5935120778
0.9745748893 0.6520210869 0.6726233552
0.9845590585 0.7205141369 0.7454762010
0.9910115463 0.7830134904 0.8081677359
0.9969836382 0.8372324327 0.8593479587
0.9987792782 0.8820935321 0.8998824769
0.9987792782 0.8952702355 0.9187955727
0.9987792782 0.8931095287 0.9337456739
0.9987792782 0.8915569722 0.9506379622
0.9987792782 0.8919164158 0.9644448891
0.9987792782 0.8954853511 0.9734124928
0.0000000000 0.0177017500 0.0065585085
0.0000000000 0.0175597130 0.0064967996
0.0000000000 0.0173607435 0.0064103559
0.0000000000 0.0170817115 0.0062891285
0.0340281860 0.0224478050 0.0065955020
0.1076954464 0.0289809354 0.0032591864
0.1839586932 0.0302227270 0.0000000000
0.2640702039 0.0194221019 0.0000000000
0.3427096381 0.0024557039 0.0000000000
0.4134787932 0.0000000000 0.0000000000
0.4739374234 0.0000000000 0.0026712933
0.5250259145 0.0000000000 0.0093340509
0.5689175614 0.0000000000 0.0160208172
0.6093104484 0.0095237389 0.0233901202
0.6489069808 0.0326708865 0.0344710172
0.6915886674 0.0744733981 0.0556883190
0.7362575526 0.1331038073 0.0961380333
0.7814192725 0.2023689695 0.1597746111
0.8266797554 0.2744977518 0.2400295406
0.8696365527 0.3502956534 0.3288902171
0.9071544167 0.4282837320 0.4208817237
0.9367853679 0.5049511664 0.5092062723
0.9586513837 0.5801167746 0.5935808241
0.9745729052 0.6520114546 0.6726700919
0.9845581236 0.7205073925 0.7455045053
0.9910109811 0.7830093939 0.8081851661
0.9969832037 0.8372300165 0.8593576026
0.9987792782 0.8820922919 0.8998874541
0.9987792782 0.8952694949 0.9187997148
0.9987792782 0.8931089987 0.9337499535
0.9987792782 0.8915568177 0.9506408565
0.9987792782 0.8919166471 0.9644463875
0.9987792782 0.8954858046 0.9734131190
0.0000000000 0.0703765915 0.0257744547
0.0000000000 0.0702442655 0.0257347852
0.0000000000 0.0700591392 0.0256792870
0.0000000000 0.0697999923 0.0256015984
0.0000000000 0.0798906196 0.0272086270
0.0973797771 0.0794634559 0.0198749981
0.1865928398 0.0801050265 0.0056848433
0.2653276952 0.0756458480 0.0000000000
0.3437981851 0.0556392850 0.0000000000
0.4151058334 0.0280981648 0.0000000000
0.4763159333 0.0107050148 0.0028495925
0.5281096256 0.0059214658 0.0094864063
0.5730036374 0.0088492126 0.0162787567
0.6131587807 0.0195078604 0.0235375236
0.6512429583 0.0409859645 0.0342483591
0.6917808537 0.0780961702 0.0549507814
0.7357571463 0.1331252552 0.0954675311
0.7813880947 0.2022894304 0.1604650936
0.8266550830 0.2744360538 0.2405370549
0.8696171266 0.3502486147 0.3292625213
0.9071415727 0.4282471728 0.4211177321
0.9367767996 0.5049224272 0.5093619758
0.9586465726 0.5800961441 0.5936767533
0.9745701352 0.6519980061 0.6727353294
0.9845568180 0.7204979747 0.7455440230
0.9910101918 0.7830036729 0.8082095054
0.9969825968 0.8372266418 0.8593710709
0.9987792782 0.8820905596 0.8998944057
0.9987792782 0.8952684604 0.9188055004
0.9987792782 0.8931082583 0.9337559312
0.9987792782 0.8915566018 0.9506448993
0.9987792782 0.8919169702 0.9644484805
0.9987792782 0.8954864380 0.9734139938
0.0000000000 0.1306321059 0.0407886143
0.0000000000 0.1305335332 0.0407683855
0.0000000000 0.1303957088 0.0407401015
0.0000000000 0.1302029339 0.0407005407
0.0000000000 0.1444163179 0.0419928240
0.0056431618 0.1465690708 0.0379501612
0.1643532909 0.1428832671 0.0200554654
0.2707742880 0.1395503873 0.0000000000
0.3555977898 0.1293221519 0.0000000000
0.4280822518 0.1056213342 0.0000000000
0.4886021531 0.0708959396 0.0032272411
0.5397777336 0.0444173055 0.0102224901
0.5843733702 0.0354149845 0.0171561311
0.6227721830 0.0403094251 0.0244580264
0.6591198109 0.0584821792 0.0352288711
0.6973632871 0.0923994020 0.0559321577
0.7386330645 0.1428766168 0.0953331261
0.7812225082 0.2036846047 0.1574915220
0.8256955200 0.2730722080 0.2385148100
0.8695900560 0.3501818881 0.3297732421
0.9071236642 0.4281962055 0.4214464349
0.9367648473 0.5048823412 0.5095790197
0.9586398586 0.5800673560 0.5938105555
0.9745662686 0.6519792336 0.6728263629
0.9845549953 0.7204848258 0.7455991837
0.9910090897 0.7829956840 0.8082434872
0.9969817494 0.8372219288 0.8593898778
0.9987792782 0.8820881401 0.8999041139
0.9987792782 0.8952670155 0.9188135809
0.9987792782 0.8931072242 0.9337642806
0.9987792782 0.8915563003 0.9506505464
0.9987792782 0.8919174214 0.9644514041
0.9987792782 0.8954873228 0.9734152157
0.0000000000 0.1986008225 0.0506707544
0.0000000000 0.1985179677 0.0506613642
0.0000000000 0.1984021568 0.0506482389
0.0000000000 0.1982402440 0.0506298888
0.0000000000 0.2150102467 0.0510751187
0.0000000000 0.2279138397 0.0463916366
0.0745729184 0.2223280316 0.0358640592
0.2380660241 0.2159495899 0.0009713901
0.3633440861 0.2052717801 0.0000000000
0.4473984867 0.1861592069 0.0000000000
0.5126154352 0.1605595094 0.0020887850
0.5642885166 0.1262525006 0.0106229516
0.6060166548 0.0964818449 0.0181588644
0.6406003179 0.0840531199 0.0261385009
0.6734146008 0.0915030158 0.0373429086
0.7083766457 0.1179831782 0.0590023104
0.7467086179 0.1612047277 0.0995103656
0.7878897208 0.2177851437 0.1625885666
0.8294940068 0.2812305046 0.2413926604
0.8696923365 0.3509139868 0.3280961919
0.9070987127 0.4281252088 0.4219036989
0.9367481841 0.5048264619 0.5098813134
0.9586304934 0.5800272022 0.5939970691
0.9745608729 0.6519530374 0.6729533371
0.9845524511 0.7204664718 0.7456761560
0.9910075510 0.7829845301 0.8082909208
0.9969805660 0.8372153475 0.8594161354
0.9987792782 0.8820847612 0.8999176703
0.9987792782 0.8952649976 0.9188248660
0.9987792782 0.8931057799 0.9337759421
0.9987792782 0.8915558791 0.9506584341
0.9987792782 0.8919180518 0.9644554878
0.9987792782 0.8954885588 0.9734169225
0.0000000000 0.2751317317 0.0551142157
0.0000000000 0.2750667056 0.0551135514
0.0000000000 0.2749758321 0.0551126231
0.0000000000 0.2748488178 0.0551113256
0.0000000000 0.2921358574 0.0539923212
0.0000000000 0.3130615183 0.0477997289
0.0009299212 0.3158579262 0.0374237009
0.1544547817 0.3058360427 0.0173906265
0.3317855761 0.2950186326 0.0000000000
0.4630404178 0.2759770154 0.0000000000
0.5395478412 0.2531107859 0.0000000000
0.5981068857 0.2251584116 0.0069428486
0.6396520735 0.1901437013 0.0176319582
0.6696497298 0.1594837800 0.0276137530
0.6958680221 0.1471846238 0.0401040419
0.7246125056 0.1572768495 0.0630026010
0.7580155784 0.1881252370 0.1043918536
0.7962328370 0.2353619702 0.1675978285
0.8355960818 0.2947130701 0.2467887819
0.8746674166 0.3625080471 0.3347150449
0.9092744304 0.4343425689 0.4251014612
0.9363566948 0.5037689044 0.5088098333
0.9586174372 0.5799712296 0.5942568395
0.9745533468 0.6519164972 0.6731303341
0.9845489011 0.7204408600 0.7457835174
0.9910054032 0.7829689605 0.8083571105
0.9969789140 0.8372061589 0.8594527873
0.9987792782 0.8820800427 0.8999365974
0.9987792782 0.8952621799 0.9188406246
0.9987792782 0.8931037629 0.9337922282
0.9987792782 0.8915552908 0.9506694506
0.9987792782 0.8919189323 0.9644611919
0.9987792782 0.8954902853 0.9734193067
0.0000000000 0.3544691490 0.0586776571
0.0000000000 0.3540546758 0.0594555476
0.0000000000 0.3535345001 0.0606349069
0.0000000000 0.3528594231 0.0620833397
0.0000000000 0.3629135138 0.0657389702
0.0000000000 0.3842486769 0.0652636011
0.0009037755 0.3968106077 0.0593882426
0.1064849804 0.3970054604 0.0439980350
0.2430209112 0.3890301631 0.0063317250
0.4365023385 0.3764622418 0.0000000000
0.5598199265 0.3528858264 0.0000000000
0.6298638740 0.3271123020 0.0000000000
0.6788618148 0.2962006626 0.0119225875
0.7098484570 0.2584936604 0.0264584345
0.7293558239 0.2270883524 0.0427835515
0.7489601954 0.2154898558 0.0678332258
0.7753191783 0.2271143928 0.1101418577
0.8079938863 0.2615334196 0.1733374090
0.8433384797 0.3117715526 0.2513337500
0.8792506184 0.3741697484 0.3381381915
0.9119516772 0.4424525023 0.4280721633
0.9391363408 0.5129557823 0.5150081228
0.9591824279 0.5823750585 0.5963921717
0.9745428554 0.6518655584 0.6733768528
0.9845439499 0.7204051361 0.7459331752
0.9910024064 0.7829472337 0.8084494326
0.9969766084 0.8371933326 0.8595039321
0.9987792782 0.8820734547 0.8999630169
0.9987792782 0.8952582457 0.9188626268
0.9987792782 0.8931009462 0.9338149703
0.9987792782 0.8915544693 0.9506848359
0.9987792782 0.8919201621 0.9644691585
0.9987792782 0.8954926967 0.9734226367
0.0000000000 0.4351077482 0.0899498238
0.0000000000 0.4351747552 0.0906548525
0.0000000000 0.4352806879 0.0916770615
0.0000000000 0.4354883472 0.0932125738
0.0000000000 0.4378258776 0.0978491384
0.0007503720 0.4526959729 0.1034585587
0.0349545078 0.4695497005 0.1030545082
0.1126003051 0.4791809774 0.0944755896
0.2086070077 0.4788490523 0.0717660720
0.3391493192 0.4709210525 0.0126322127
0.5367374743 0.4535822220 0.0000000000
0.6477235356 0.4275664574 0.0000000000
0.7107562668 0.4009733144 0.0012124212
0.7510716255 0.3684900269 0.0202754530
0.7720901323 0.3290496368 0.0429673849
0.7852227774 0.2969795185 0.0741057015
0.8020468125 0.2858656066 0.1192028346
0.8254245589 0.3012479940 0.1819809518
0.8548427903 0.3384529153 0.2583321549
0.8862059793 0.3916866131 0.3432605023
0.9158370419 0.4540241486 0.4316351655
0.9412651529 0.5207461067 0.5174756099
0.9606470050 0.5890903843 0.5999787570
0.9753276383 0.6566485935 0.6776534531
0.9845370487 0.7203553373 0.7461416160
0.9909982268 0.7829169276 0.8085781265
0.9969733915 0.8371754340 0.8595752697
0.9987792782 0.8820642585 0.8999998832
0.9987792782 0.8952527540 0.9188933397
0.9987792782 0.8930970135 0.9338467227
0.9987792782 0.8915533221 0.9507063202
0.9987792782 0.8919218795 0.9644802845
0.9987792782 0.8954960647 0.9734272878
0.0827275981 0.5260934820 0.1382489490
0.0819584862 0.5262651654 0.1388904668
0.0808971212 0.5265013905 0.1397747476
0.0794391163 0.5268245625 0.1409875641
0.0744821117 0.5268260061 0.1438069763
0.0839921598 0.5317757526 0.1509024609
0.1198305135 0.5427136243 0.1544710633
0.1651580850 0.5534033679 0.1527449112
0.2178423461 0.5593212495 0.1423901748
0.3062318411 0.5586783814 0.1143418070
0.4368340330 0.5513436053 0.0422038425
0.6313711123 0.5285968463 0.0000000000
0.7282768143 0.5023946389 0.0000000000
0.7812699079 0.4757055188 0.0125488812
0.8133752701 0.4431039947 0.0407789316
0.8286818403 0.4040519370 0.0803523580
0.8380239747 0.3721411918 0.1323600552
0.8513865450 0.3620690441 0.1951408346
0.8715416644 0.3793349906 0.2686902489
0.8962805136 0.4181133040 0.3508940077
0.9214651460 0.4715037679 0.4369756544
0.9441686611 0.5318594891 0.5210597023
0.9621575658 0.5963534055 0.6023116605
0.9760392013 0.6612495166 0.6791538058
0.9850593626 0.7253233173 0.7502194088
0.9909924013 0.7828746793 0.8087573699
0.9969689057 0.8371504677 0.8596747123
0.9987792782 0.8820514250 0.9000513049
0.9987792782 0.8952450904 0.9189361989
0.9987792782 0.8930915239 0.9338910461
0.9987792782 0.8915517203 0.9507363165
0.9987792782 0.8919242778 0.9644958211
0.9987792782 0.8955007683 0.9734337832
0.2153011758 0.6148185641 0.2000464149
0.2150617025 0.6149395943 0.2005221070
0.2147679098 0.6151055763 0.2011853261
0.2143616707 0.6153343696 0.2021008180
0.2136924300 0.6156643933 0.2034279053
0.2082475477 0.6139270516 0.2077376583
0.2178055186 0.6178873764 0.2119871948
0.2384208101 0.6248187304 0.2138122057
0.2685821866 0.6315984274 0.2104771386
0.3176751517 0.6352308683 0.1981032726
0.4045140675 0.6348977532 0.1699515102
0.5339128814 0.6264859197 0.0980941438
0.7165372214 0.6009889376 0.0001820609
0.7982094921 0.5758174108 0.0104047408
0.8408666986 0.5504575483 0.0438664548
0.8652522387 0.5190274133 0.0902514579
0.8769822379 0.4809778934 0.1491902966
0.8846731955 0.4499963489 0.2144747581
0.8946980765 0.4413298963 0.2854646972
0.9105024067 0.4588973476 0.3624356902
0.9294963629 0.4970995623 0.4447222690
0.9481709747 0.5484741048 0.5263286385
0.9642877631 0.6064683745 0.6056167033
0.9770597825 0.6680406980 0.6813291034
0.9855024559 0.7297671607 0.7515279357
0.9914608419 0.7875493918 0.8123601030
0.9969626546 0.8371156633 0.8598132157
0.9987792782 0.8820335232 0.9001229853
0.9987792782 0.8952344005 0.9189959833
0.9987792782 0.8930838633 0.9339528985
0.9987792782 0.8915494844 0.9507781885
0.9987792782 0.8919276262 0.9645175132
0.9987792782 0.8955073365 0.9734428536
0.3221562080 0.6932359618 0.2711333449
0.3220329392 0.6933122168 0.2714960882
0.3218615728 0.6934180599 0.2719999104
0.3216237880 0.6935646053 0.2726981178
0.3212946898 0.6937668089 0.2736627395
0.3168895532 0.6920609699 0.2755297432
0.3171232599 0.6920318515 0.2782896502
0.3255248040 0.6948423837 0.2804622258
0.3416212528 0.6989770916 0.2802144745
0.3670184221 0.7025743737 0.2751215441
0.4147776337 0.7046363334 0.2616876866
0.5009943184 0.7034408346 0.2340623460
0.6270722844 0.6955054931 0.1714880044
0.7894625658 0.6694427411 0.0425023781
0.8553240449 0.6476176348 0.0623669383
0.8887873216 0.6243905684 0.1136844620
0.9076053832 0.5943415759 0.1754506194
0.9173583537 0.5582371911 0.2413311551
0.9222952385 0.5283357077 0.3089964611
0.9293446643 0.5195701372 0.3808072313
0.9409884739 0.5369231859 0.4569159147
0.9540993607 0.5735927042 0.5342176185
0.9673716544 0.6224722200 0.6106846000
0.9785498114 0.6781210214 0.6845603446
0.9860916160 0.7361795859 0.7534606648
0.9918293056 0.7911746523 0.8134040897
0.9973627969 0.8412159979 0.8626038920
0.9987792782 0.8820085655 0.9002228216
0.9987792782 0.8952194978 0.9190793281
0.9987792782 0.8930731775 0.9340391765
0.9987792782 0.8915463643 0.9508366201
0.9987792782 0.8919323003 0.9645477932
0.9987792782 0.8955165070 0.9734555177
0.4201326514 0.7595822691 0.3489226478
0.4200442490 0.7596297722 0.3491925144
0.4199212897 0.7596958421 0.3495686564
0.4197573579 0.7597875789 0.3501278436
0.4195298162 0.7599146524 0.3509030917
0.4186816852 0.7598532052 0.3519309302
0.4150602436 0.7581913657 0.3530554348
0.4172416007 0.7586147409 0.3541751576
0.4242706996 0.7601068734 0.3544938679
0.4372784025 0.7619217682 0.3523088923
0.4611935425 0.7633448018 0.3457609631
0.5092673093 0.7640811721 0.3317758733
0.5917188575 0.7633590197 0.3060914364
0.7104513909 0.7559674691 0.2521301130
0.8486697453 0.7321570343 0.1377895817
0.8995291531 0.7140471949 0.1600875946
0.9253578993 0.6941998701 0.2167732481
0.9409841231 0.6674912066 0.2781619589
0.9475308991 0.6334570230 0.3414327996
0.9503977102 0.6045502009 0.4068917746
0.9545691407 0.5954043941 0.4760032221
0.9622118501 0.6112839410 0.5463051372
0.9717079751 0.6461965807 0.6181368482
0.9804811595 0.6930988579 0.6893143865
0.9868883914 0.7449945393 0.7560732011
0.9923938387 0.7964085537 0.8149146846
0.9976495219 0.8443896735 0.8634394474
0.9987792782 0.8849880686 0.9021215306
0.9987792782 0.8951987389 0.9191954244
0.9987792782 0.8930582805 0.9341594559
0.9987792782 0.8915420120 0.9509181264
0.9987792782 0.8919388229 0.9645900485
0.9987792782 0.8955293082 0.9734731955
0.5116636539 0.8137006234 0.4331272620
0.5116065019 0.8137249796 0.4333140133
0.5115268479 0.8137588999 0.4335741828
0.5114159330 0.8138060828 0.4339362442
0.5112616828 0.8138716040 0.4344393513
0.5110475378 0.8139623804 0.4351370107
0.5088278849 0.8131185538 0.4353113449
0.5085489854 0.8126575608 0.4354736139
0.5113739315 0.8129007849 0.4353461400
0.5175590903 0.8134348192 0.4339608651
0.5288967420 0.8140001642 0.4304461027
0.5506157647 0.8143833913 0.4226666962
0.5971564336 0.8147965377 0.4084744188
0.6746763554 0.8140570955 0.3836534572
0.7817881007 0.8078397026 0.3348363662
0.8939904757 0.7870667873 0.2471033458
0.9322331805 0.7736135192 0.2729639049
0.9517523139 0.7578702760 0.3243979447
0.9633916066 0.7345780006 0.3822144389
0.9683757331 0.7040840236 0.4419232851
0.9700248825 0.6762577061 0.5025879331
0.9725148711 0.6674255903 0.5647707953
0.9773825892 0.6819058716 0.6298348460
0.9830684497 0.7152137755 0.6963023950
0.9880475918 0.7580418128 0.7599152771
0.9931371623 0.8043060200 0.8171570687
0.9980907792 0.8489880217 0.8646266222
0.9987792782 0.8872621152 0.9026643873
0.9987792782 0.8983938445 0.9210027462
0.9987792782 0.8930375295 0.9343270009
0.9987792782 0.8915359445 0.9510317537
0.9987792782 0.8919479214 0.9646489904
0.9987792782 0.8955471720 0.9734978645
0.5972174901 0.8576360998 0.5183071080
0.5971781682 0.8576503446 0.5184329087
0.5971233269 0.8576702013 0.5186083094
0.5970468899 0.8576978576 0.5188526813
0.5969443597 0.8577343762 0.5191837910
0.5968067921 0.8577825759 0.5196306515
0.5966124463 0.8578510247 0.5202562294
0.5953402954 0.8571999298 0.5196457358
0.5964003823 0.8570584505 0.5189412159
0.5992750454 0.8570638677 0.5174910758
0.6042157456 0.8571231779 0.5153320930
0.6135320011 0.8571168592 0.5112674703
0.6334054695 0.8570463583 0.5029260022
0.6772574617 0.8573941446 0.4895656929
0.7472979300 0.8571006726 0.4676227964
0.8387537292 0.8514464999 0.4236067529
0.9258937386 0.8341257339 0.3532385654
0.9541473001 0.8248275162 0.3818163000
0.9699698208 0.8130247282 0.4310111512
0.9780981830 0.7936387282 0.4839249541
0.9814337945 0.7663982922 0.5367779001
0.9822961785 0.7416249533 0.5904694932
0.9836823587 0.7336590503 0.6472502553
0.9862221130 0.7475121649 0.7069089146
0.9898099916 0.7775915910 0.7656415080
0.9942277179 0.8159829316 0.8204705735
0.9984987873 0.8552155844 0.8662479649
0.9987792782 0.8906259276 0.9034759269
0.9987792782 0.9010528699 0.9216722817
0.9987792782 0.8966815382 0.9359833130
0.9987792782 0.8915274928 0.9511900326
0.9987792782 0.8919606054 0.9647311610
0.9987792782 0.8955735487 0.9735317381
0.6761198915 0.8927389919 0.6004348073
0.6760958835 0.8927471851 0.6005181396
0.6760621766 0.8927587790 0.6006351389
0.6760151641 0.8927749415 0.6007982735
0.6759496347 0.8927974541 0.6010255664
0.6758583742 0.8928287759 0.6013419229
0.6757314313 0.8928722847 0.6017816112
0.6753013129 0.8927788600 0.6020004017
0.6754684436 0.8925792649 0.6013483912
0.6767655841 0.8924977538 0.6002776927
0.6790273680 0.8923924633 0.5984746455
0.6828855848 0.8921954350 0.5957361625
0.6906657024 0.8919342549 0.5913003215
0.7087309109 0.8918365459 0.5837615367
0.7470946380 0.8923487241 0.5719943456
0.8061343738 0.8922537131 0.5537629802
0.8811582965 0.8879023552 0.5162910262
0.9478529496 0.8739463580 0.4580457845
0.9701685237 0.8667817249 0.4858119961
0.9811029156 0.8577192198 0.5295823161
0.9863517625 0.8422098872 0.5760203124
0.9886249858 0.8203753670 0.6230600942
0.9893758884 0.7995600072 0.6706916459
0.9902201936 0.7930372735 0.7222080922
0.9924270312 0.8058275317 0.7744806596
0.9958301622 0.8323366323 0.8252170209
0.9986423697 0.8642020854 0.8686285058
0.9987792782 0.8955771014 0.9046715314
0.9987792782 0.9047321565 0.9225993593
0.9987792782 0.9004959023 0.9369091616
0.9987792782 0.8956749589 0.9526057993
0.9987792782 0.8919793303 0.9648456218
0.9987792782 0.8956187637 0.9735758503
0.7465355176 0.9192795648 0.6745857487
0.7465214596 0.9192836727 0.6746333196
0.7465018370 0.9192894052 0.6746997101
0.7464744555 0.9192974013 0.6747923302
0.7464362643 0.9193085484 0.6749214745
0.7463830285 0.9193240753 0.6751014131
0.7463088845 0.9193456785 0.6753518671
0.7462057423 0.9193756882 0.6756999753
0.7461352946 0.9193182303 0.6756137432
0.7467291105 0.9192623885 0.6749553603
0.7477480226 0.9191613758 0.6738792741
0.7493457136 0.9190282355 0.6724138575
0.7523347228 0.9188838553 0.6702137069
0.7586825209 0.9187898371 0.6667315000
0.7740391528 0.9189722568 0.6606649361
0.8063907958 0.9196165762 0.6504710596
