resources/Referent_LogC4_to_Rec709.cube
TITLE "Referent_LogC4 to Rec709"
# Generated by Cullen Kelly Color
# Input Color Space: LogC4
# Output: BT.1886
# Resolution: 33x33x33
# Date: 2026-02-05 18:23:30 +0000
LUT_3D_SIZE 5
0.0000000000 0.0000000000 0.0000000000
0.3453956842 0.0000000000 0.0000000000
0.7363364345 0.1333031632 0.0947762620
0.9845605506 0.7205248995 0.7454310252
0.9987792782 0.8954846278 0.9734114940
0.0000000000 0.2751317317 0.0551142157
0.3317855761 0.2950186326 0.0000000000
0.7580155784 0.1881252370 0.1043918536
0.9845489011 0.7204408600 0.7457835174
0.9987792782 0.8954902853 0.9734193067
0.5972174901 0.8576360998 0.5183071080
0.5964003823 0.8570584505 0.5189412159
0.9258937386 0.8341257339 0.3532385654
0.9898099916 0.7775915910 0.7656415080
0.9987792782 0.8955735487 0.9735317381
0.9613568866 0.9877230811 0.9368633298
0.9613442846 0.9877273444 0.9369247918
0.9616801721 0.9876894427 0.9364997974
0.9972756611 0.9845802888 0.9076832684
0.9987792782 0.9790038076 0.9874444326
0.9860368173 0.9982326929 0.9929010473
0.9860361545 0.9982328034 0.9929033671
0.9860265597 0.9982344025 0.9929369489
0.9867628591 0.9982827846 0.9924383304
0.9987792782 0.9987335012 0.9973960012
0.0000000000 0.0079907864 0.1659747075
0.3174306461 0.0006829917 0.1625847638
0.7362391914 0.1291953442 0.1716879351
0.9844839305 0.7200087743 0.7486069751
0.9987792782 0.8955348322 0.9734808239
0.0000000000 0.3246080595 0.3254315161
0.3009982835 0.3009994342 0.3009992544
0.7596318655 0.1902050221 0.1890279480
0.9844727184 0.7199302190 0.7489270156
0.9987792782 0.8955404702 0.9734886097
0.5851325926 0.8634163286 0.5662578772
0.5847821806 0.8629409166 0.5670699856
0.9194860968 0.8459329467 0.4480950569
0.9897494962 0.7774159978 0.7691263426
0.9987792782 0.8956385028 0.9735951080
0.9612613641 0.9877822021 0.9375934710
0.9612475940 0.9877862831 0.9376603530
0.9615761543 0.9877522481 0.9372715943
0.9972349463 0.9846939326 0.9089209970
0.9987792782 0.9789922895 0.9874779445
0.9860293154 0.9982339432 0.9929273039
0.9860286544 0.9982340534 0.9929296174
0.9860190855 0.9982356482 0.9929631085
0.9867554670 0.9982840107 0.9924625691
0.9987792782 0.9987335012 0.9974054659
0.0000000000 0.2542442358 0.5620346362
0.1759158715 0.2415026498 0.5816856655
0.7635208107 0.1552388310 0.5978085381
0.9835399837 0.7143355631 0.7999649813
0.9987792782 0.8964482417 0.9743850972
0.0000000000 0.3414194420 0.6175782235
0.0362736420 0.3238056193 0.6269805963
0.7721079624 0.1903177333 0.6124960756
0.9839735543 0.7182112731 0.8035393227
0.9987792782 0.8964552307 0.9743919156
0.4675481239 0.8863283381 0.8852027480
0.4656536290 0.8856900122 0.8847522180
0.8757434978 0.8757442157 0.8757383490
0.9890384166 0.7757409480 0.8219464064
0.9987792782 0.8965563029 0.9744905227
0.9597775165 0.9886099718 0.9474776664
0.9597652679 0.9886139574 0.9475273604
0.9600922421 0.9885791397 0.9472311470
0.9962816941 0.9864356453 0.9288933808
0.9987792782 0.9787718028 0.9879372153
0.9859227392 0.9982484592 0.9933035673
0.9859221032 0.9982485122 0.9933058464
0.9859128949 0.9982492796 0.9933388426
0.9866541936 0.9983014578 0.9928072560
0.9987792782 0.9987335012 0.9975411427
0.7411735565 0.8623366037 0.9600392309
0.7458403115 0.8618633046 0.9601804598
0.8355316149 0.8514574331 0.9621307744
0.9880987587 0.7952775569 0.9524489642
0.9987792782 0.9113023633 0.9814702231
0.7406207217 0.8644684433 0.9605229573
0.7451957878 0.8640112272 0.9606594137
0.8339902980 0.8538388051 0.9626201255
0.9881414248 0.7960587538 0.9526523052
0.9987792782 0.9113102785 0.9814725422
0.7437588237 0.9011491357 0.9692435232
0.7467682401 0.9008314674 0.9693193988
0.8155720138 0.8947123327 0.9710786601
0.9890871373 0.8123225526 0.9567556220
0.9987792782 0.9132411034 0.9818464610
0.9487520442 0.9914362712 0.9911781777
0.9487284376 0.9914327985 0.9911648239
0.9484214541 0.9913625824 0.9911294026
0.9910121167 0.9910130080 0.9910121604
0.9987792782 0.9764556455 0.9915158312
0.9848424523 0.9983492279 0.9973039793
0.9848421440 0.9983492622 0.9973050411
0.9848376787 0.9983497583 0.9973204216
0.9850908463 0.9983561231 0.9971221049
0.9987029831 0.9986419471 0.9986419471
0.9627065282 0.9916454363 0.9960499485
0.9628168460 0.9916449771 0.9960579080
0.9645717444 0.9916418404 0.9961658827
0.9911588420 0.9902318260 0.9970850839
0.9987792782 0.9836510884 0.9951425017
0.9627913393 0.9916912557 0.9960673812
0.9629016901 0.9916907979 0.9960753435
0.9646355298 0.9916883868 0.9961818892
0.9911448914 0.9902796253 0.9970964927
0.9987792782 0.9837693803 0.9951714871
0.9639920750 0.9923405095 0.9963144095
0.9641029835 0.9923400711 0.9963223332
0.9655906950 0.9923421011 0.9964144528
0.9909447673 0.9909527626 0.9972560726
0.9987792782 0.9853841102 0.9955748101
0.9779633213 0.9969690310 0.9981633790
0.9779672922 0.9969674198 0.9981618304
0.9780443386 0.9969549280 0.9981475369
0.9889276632 0.9972586611 0.9985748020
0.9987792782 0.9946959146 0.9978650343
0.9843442435 0.9983215076 0.9986266880
0.9843442435 0.9983215076 0.9986266880
0.9843289845 0.9983215076 0.9986266880
0.9854863738 0.9984416292 0.9986338299
0.9987029831 0.9986419471 0.9986419471
